; generated by Slic3r 1.2.1 on 2014-11-29 at 12:54:13

; external perimeters extrusion width = 0.50mm
; perimeters extrusion width = 0.84mm
; infill extrusion width = 0.84mm
; solid infill extrusion width = 0.84mm
; top infill extrusion width = 0.84mm

M107
G28 ; home all axes
G29 ; Self Calibrate
G1 Z5 F5000 ; lift nozzle
G1 Z0.5 F2000; slightly raise from bed
G1 X3 F900; move to purging zone
M109 S200 ; set nozzle heater to first layer temperature
G1 Z120% F6000.000; move to first layer height
G1 X70 Y-30 F4000.000; move to front right corner of bed
G1 X-70 Y-30 E24 F400.000; extrude a line of filament across the front edge of the bed
G4 P2000; wait for ooze to slow
G1 Z0 F6000.000; lower nozzle height to 0
G1 X-95; wipe nozzle
G1 Z120% F6000.000; set nozzle to first layer height
G1 F12000; ensure fast travel to first print move
G92 E0; set E to 0 again
G1 X0 F900; back to home
G1 Z0 F2000; back to home
G21 ; set units to millimeters
G90 ; use absolute coordinates
M82 ; use absolute distances for extrusion
G92 E0
G1 E-1.00000 F1800.000
G92 E0
G1 Z0.300 F7800.000
G1 X-8.746 Y12.871 F7800.000
G1 E1.00000 F1800.000
G1 X-17.366 Y7.014 E1.69622 F1080.000
G1 X-18.011 Y6.514 E1.75070
G1 X-18.265 Y6.290 E1.77336
G1 X-19.032 Y5.490 E1.84741
G1 X-19.246 Y5.226 E1.87008
G1 X-19.916 Y4.219 E1.95090
G1 X-20.032 Y4.011 E1.96677
G1 X-20.488 Y3.001 E2.04083
G1 X-20.601 Y2.681 E2.06349
G1 X-20.881 Y1.608 E2.13755
G1 X-20.938 Y1.274 E2.16022
G1 X-21.032 Y0.170 E2.23426
G1 X-21.032 Y-0.170 E2.25692
G1 X-20.938 Y-1.274 E2.33097
G1 X-20.881 Y-1.608 E2.35363
G1 X-20.601 Y-2.681 E2.42770
G1 X-20.488 Y-3.001 E2.45036
G1 X-20.032 Y-4.011 E2.52441
G1 X-19.866 Y-4.307 E2.54708
G1 X-19.246 Y-5.226 E2.62113
G1 X-19.032 Y-5.490 E2.64379
G1 X-18.265 Y-6.290 E2.71785
G1 X-18.011 Y-6.514 E2.74051
G1 X-17.366 Y-7.014 E2.79499
G1 X-6.718 Y-14.250 E3.65505
G1 X-4.882 Y-15.387 E3.79933
G1 X-3.893 Y-15.887 E3.87338
G1 X-2.161 Y-16.582 E3.99803
G1 X-1.102 Y-16.907 E4.07206
G1 X0.722 Y-17.300 E4.19670
G1 X1.822 Y-17.441 E4.27076
G1 X3.127 Y-17.496 E4.35801
G1 X3.686 Y-17.520 E4.39541
G1 X4.793 Y-17.473 E4.46947
G1 X6.644 Y-17.236 E4.59411 F1080.000
G1 X7.728 Y-17.002 E4.66816
G1 X9.512 Y-16.456 E4.79279
G1 X10.540 Y-16.043 E4.86685
G1 X12.206 Y-15.203 E4.99150
G1 X13.150 Y-14.621 E5.06556
G1 X14.650 Y-13.512 E5.19020
G1 X15.482 Y-12.780 E5.26424
G1 X16.773 Y-11.433 E5.38888
G1 X17.470 Y-10.570 E5.46293
G1 X18.514 Y-9.025 E5.58758
G1 X19.055 Y-8.057 E5.66164
G1 X19.824 Y-6.357 E5.78628
G1 X20.193 Y-5.311 E5.86034
G1 X20.663 Y-3.506 E5.98498
G1 X20.850 Y-2.413 E6.05904
G1 X21.008 Y-0.554 E6.18368
G1 X21.008 Y0.554 E6.25772
G1 X20.850 Y2.413 E6.38236
G1 X20.663 Y3.506 E6.45642
G1 X20.193 Y5.311 E6.58106
G1 X19.824 Y6.357 E6.65512
G1 X19.055 Y8.057 E6.77976
G1 X18.514 Y9.025 E6.85382
G1 X17.470 Y10.570 E6.97846
G1 X16.773 Y11.433 E7.05252
G1 X15.482 Y12.780 E7.17716
G1 X14.650 Y13.512 E7.25120
G1 X13.150 Y14.621 E7.37584
G1 X12.206 Y15.203 E7.44990
G1 X10.540 Y16.043 E7.57455
G1 X9.512 Y16.456 E7.64860
G1 X7.728 Y17.002 E7.77324
G1 X6.644 Y17.236 E7.84729
G1 X4.794 Y17.473 E7.97193
G1 X3.686 Y17.520 E8.04599
G1 X1.822 Y17.441 E8.17064
G1 X0.722 Y17.300 E8.24470
G1 X-1.102 Y16.907 E8.36933
G1 X-2.161 Y16.582 E8.44337
G1 X-3.893 Y15.887 E8.56801
G1 X-4.882 Y15.387 E8.64207
G1 X-6.718 Y14.250 E8.78634
G1 X-8.684 Y12.913 E8.94518
G1 E7.94518 F1800.000
G92 E0
G1 X-0.834 Y3.207 F7800.000
G1 E1.00000 F1800.000
G1 X-1.196 Y2.548 E1.05024 F540.000
G1 X-2.954 Y2.323 E1.16864
G1 X-3.340 Y2.205 E1.19556
G1 X-3.699 Y2.023 E1.22249
G1 X-4.024 Y1.784 E1.24941
G1 X-4.302 Y1.493 E1.27634
G1 X-4.528 Y1.159 E1.30326
G1 X-4.694 Y0.792 E1.33018
G1 X-4.796 Y0.402 E1.35711
G1 X-4.830 Y-0.000 E1.38403
G1 X-4.796 Y-0.402 E1.41096
G1 X-4.694 Y-0.792 E1.43789
G1 X-4.528 Y-1.159 E1.46481
G1 X-4.302 Y-1.493 E1.49173
G1 X-4.024 Y-1.784 E1.51866
G1 X-3.699 Y-2.023 E1.54558
G1 X-3.340 Y-2.205 E1.57251
G1 X-2.954 Y-2.323 E1.59943
G1 X-1.196 Y-2.548 E1.71783
G1 X-0.834 Y-3.207 E1.76807
G1 X-1.098 Y-3.414 E1.79051
G1 X-1.369 Y-3.713 E1.81744
G1 X-1.585 Y-4.053 E1.84437
G1 X-1.693 Y-4.311 E1.86305
G1 X-2.999 Y-4.311 E1.95028
G1 X-1.284 Y-6.697 E2.14657
G1 X-0.998 Y-6.980 E2.17348
G1 X-0.667 Y-7.211 E2.20043
G1 X-0.302 Y-7.382 E2.22735
G1 X0.087 Y-7.489 E2.25426
G1 X0.488 Y-7.529 E2.28119
G1 X0.890 Y-7.500 E2.30811
G1 X1.281 Y-7.404 E2.33504
G1 X1.651 Y-7.243 E2.36198
G1 X1.988 Y-7.022 E2.38890
G1 X2.283 Y-6.748 E2.41581
G1 X2.527 Y-6.427 E2.44273
G1 X2.713 Y-6.070 E2.46965
G1 X2.837 Y-5.686 E2.49658
G1 X2.890 Y-5.312 E2.52184
G1 X3.834 Y-5.372 E2.58503
G1 X4.104 Y-5.320 E2.60335
G1 X4.156 Y-5.686 E2.62806
G1 X4.279 Y-6.070 E2.65499
G1 X4.466 Y-6.427 E2.68192
G1 X4.710 Y-6.748 E2.70884
G1 X4.882 Y-6.908 E2.72456
G1 X5.005 Y-7.022 E2.73575
G1 X5.342 Y-7.243 E2.76267
G1 X5.712 Y-7.404 E2.78960
G1 X6.103 Y-7.500 E2.81654
G1 X6.505 Y-7.529 E2.84346
G1 X6.906 Y-7.489 E2.87038
G1 X7.295 Y-7.382 E2.89730
G1 X7.659 Y-7.211 E2.92422
G1 X7.990 Y-6.980 E2.95116
G1 X8.277 Y-6.697 E2.97807
G1 X8.512 Y-6.370 E3.00499
G1 X8.689 Y-6.007 E3.03195
G1 X8.801 Y-5.620 E3.05886
G1 X8.847 Y-5.220 E3.08577
G1 X8.824 Y-4.818 E3.11271
G1 X8.733 Y-4.425 E3.13962
G1 X8.578 Y-4.053 E3.16654
G1 X8.362 Y-3.713 E3.19347
G1 X8.091 Y-3.414 E3.22039
G1 X7.788 Y-3.177 E3.24610
G1 X8.039 Y-2.832 E3.27455
G1 X8.157 Y-2.871 E3.28288
G1 X10.332 Y-2.205 E3.43484
G1 X10.692 Y-2.023 E3.46176
G1 X11.016 Y-1.784 E3.48869
G1 X11.295 Y-1.493 E3.51562
G1 X11.521 Y-1.159 E3.54252
G1 X11.687 Y-0.792 E3.56946
G1 X11.788 Y-0.401 E3.59639
G1 X11.823 Y0.000 E3.62331
G1 X11.788 Y0.401 E3.65023
G1 X11.687 Y0.792 E3.67716
G1 X11.521 Y1.159 E3.70410
G1 X11.295 Y1.493 E3.73100
G1 X11.016 Y1.784 E3.75792
G1 X10.692 Y2.023 E3.78486
G1 X10.332 Y2.205 E3.81177
G1 X8.157 Y2.871 E3.96374
G1 X8.039 Y2.832 E3.97207
G1 X7.788 Y3.177 E4.00052
G1 X8.091 Y3.414 E4.02623
G1 X8.362 Y3.713 E4.05315
G1 X8.578 Y4.053 E4.08008
G1 X8.733 Y4.425 E4.10700
G1 X8.824 Y4.818 E4.13391
G1 X8.847 Y5.220 E4.16085
G1 X8.801 Y5.620 E4.18776
G1 X8.689 Y6.007 E4.21467
G1 X8.512 Y6.370 E4.24163
G1 X8.277 Y6.697 E4.26855
G1 X7.990 Y6.980 E4.29545
G1 X7.659 Y7.211 E4.32240
G1 X7.295 Y7.382 E4.34932
G1 X6.906 Y7.489 E4.37624
G1 X6.505 Y7.529 E4.40316
G1 X6.103 Y7.500 E4.43008
G1 X5.712 Y7.404 E4.45702
G1 X5.342 Y7.243 E4.48395
G1 X5.005 Y7.022 E4.51087
G1 X4.710 Y6.748 E4.53778
G1 X4.466 Y6.427 E4.56470
G1 X4.279 Y6.070 E4.59162
G1 X4.156 Y5.686 E4.61856
G1 X4.104 Y5.320 E4.64327
G1 X3.834 Y5.372 E4.66158
G1 X2.890 Y5.312 E4.72478
G1 X2.837 Y5.686 E4.75004
G1 X2.713 Y6.070 E4.77697
G1 X2.527 Y6.427 E4.80389
G1 X2.283 Y6.748 E4.83081
G1 X1.988 Y7.022 E4.85772
G1 X1.651 Y7.243 E4.88464
G1 X1.281 Y7.404 E4.91158
G1 X0.890 Y7.500 E4.93851
G1 X0.488 Y7.529 E4.96543
G1 X0.087 Y7.489 E4.99235
G1 X-0.302 Y7.382 E5.01927
G1 X-0.667 Y7.211 E5.04619
G1 X-0.998 Y6.980 E5.07314
G1 X-1.284 Y6.697 E5.10005
G1 X-2.999 Y4.311 E5.29633
G1 X-1.693 Y4.311 E5.38357
G1 X-1.585 Y4.053 E5.40225
G1 X-1.369 Y3.713 E5.42918
G1 X-1.098 Y3.414 E5.45610
G1 X-0.893 Y3.253 E5.47354
G1 X0.036 Y3.333 F7800.000
G1 X-0.421 Y2.846 E5.51814 F540.000
G1 X-1.006 Y1.783 E5.59922
G1 X-1.122 Y1.331 E5.63035
G1 X-1.655 Y1.660 E5.67216
G1 X-1.655 Y1.949 E5.69152
G1 X-2.841 Y1.797 E5.77142
G1 X-3.139 Y1.706 E5.79225
G1 X-3.418 Y1.566 E5.81309
G1 X-3.668 Y1.380 E5.83392
G1 X-3.884 Y1.155 E5.85476
G1 X-4.059 Y0.897 E5.87559
G1 X-4.187 Y0.613 E5.89642
G1 X-4.266 Y0.311 E5.91725
G1 X-4.292 Y0.000 E5.93809
G1 X-4.266 Y-0.311 E5.95892
G1 X-4.187 Y-0.613 E5.97976
G1 X-4.059 Y-0.897 E6.00059
G1 X-3.884 Y-1.155 E6.02142
G1 X-3.668 Y-1.380 E6.04226
G1 X-3.418 Y-1.566 E6.06309
G1 X-3.139 Y-1.706 E6.08392
G1 X-2.841 Y-1.797 E6.10476
G1 X-1.655 Y-1.949 E6.18466
G1 X-1.655 Y-1.660 E6.20401
G1 X-1.122 Y-1.331 E6.24583
G1 X-1.006 Y-1.783 E6.27695
G1 X-0.421 Y-2.846 E6.35804
G1 X0.036 Y-3.333 E6.40264
G1 X-0.487 Y-3.615 E6.44230
G1 X-0.732 Y-3.808 E6.46314
G1 X-0.941 Y-4.039 E6.48397
G1 X-1.109 Y-4.302 E6.50481
G1 X-1.229 Y-4.590 E6.52565
G1 X-1.288 Y-4.847 E6.54328
G1 X-1.954 Y-4.847 E6.58779
G1 X-0.876 Y-6.348 E6.71127
G1 X-0.654 Y-6.567 E6.73209
G1 X-0.398 Y-6.745 E6.75294
G1 X-0.116 Y-6.878 E6.77377
G1 X0.185 Y-6.960 E6.79460
G1 X0.495 Y-6.991 E6.81543
G1 X0.806 Y-6.969 E6.83626
G1 X1.109 Y-6.895 E6.85710
G1 X1.395 Y-6.770 E6.87794
G1 X1.656 Y-6.600 E6.89877
G1 X1.884 Y-6.387 E6.91960
G1 X2.073 Y-6.139 E6.94043
G1 X2.218 Y-5.863 E6.96126
G1 X2.313 Y-5.566 E6.98210
G1 X2.357 Y-5.257 E7.00294
G1 X2.342 Y-4.741 E7.03741
G1 X3.800 Y-4.833 E7.13501
G1 X4.652 Y-4.670 E7.19294
G1 X4.636 Y-5.257 E7.23214
G1 X4.680 Y-5.566 E7.25298
G1 X4.775 Y-5.863 E7.27382
G1 X4.920 Y-6.139 E7.29465
G1 X5.109 Y-6.387 E7.31549
G1 X5.337 Y-6.600 E7.33631
G1 X5.597 Y-6.770 E7.35714
G1 X5.883 Y-6.895 E7.37798
G1 X6.186 Y-6.969 E7.39882
G1 X6.497 Y-6.991 E7.41965
G1 X6.808 Y-6.960 E7.44048
G1 X7.108 Y-6.878 E7.46131
G1 X7.391 Y-6.745 E7.48214
G1 X7.647 Y-6.567 E7.50299
G1 X7.869 Y-6.348 E7.52381
G1 X8.051 Y-6.095 E7.54464
G1 X8.187 Y-5.814 E7.56550
G1 X8.274 Y-5.515 E7.58632
G1 X8.309 Y-5.205 E7.60715
G1 X8.292 Y-4.893 E7.62799
G1 X8.222 Y-4.590 E7.64881
G1 X8.101 Y-4.302 E7.66965
G1 X7.934 Y-4.039 E7.69049
G1 X7.725 Y-3.808 E7.71132
G1 X7.479 Y-3.615 E7.73216
G1 X6.997 Y-3.355 E7.76876
G1 X7.740 Y-2.333 E7.85314
G1 X8.132 Y-1.342 E7.92432
G1 X8.619 Y-1.642 E7.96251
G1 X8.871 Y-1.743 E7.98064
G1 X8.871 Y-2.092 E8.00398
G1 X10.132 Y-1.706 E8.09212
G1 X10.410 Y-1.566 E8.11295
G1 X10.661 Y-1.380 E8.13379
G1 X10.877 Y-1.155 E8.15462
G1 X11.051 Y-0.897 E8.17544
G1 X11.180 Y-0.613 E8.19628
G1 X11.259 Y-0.311 E8.21712
G1 X11.285 Y0.000 E8.23795
G1 X11.259 Y0.311 E8.25878
G1 X11.180 Y0.613 E8.27962
G1 X11.051 Y0.897 E8.30046
G1 X10.877 Y1.155 E8.32128
G1 X10.661 Y1.380 E8.34211
G1 X10.410 Y1.566 E8.36295
G1 X10.132 Y1.706 E8.38378
G1 X8.871 Y2.092 E8.47192
G1 X8.871 Y1.743 E8.49526
G1 X8.619 Y1.642 E8.51339
G1 X8.132 Y1.342 E8.55158
G1 X7.740 Y2.333 E8.62276
G1 X6.997 Y3.355 E8.70714
G1 X7.479 Y3.615 E8.74374
G1 X7.725 Y3.808 E8.76458
G1 X7.934 Y4.039 E8.78541
G1 X8.101 Y4.302 E8.80625
G1 X8.222 Y4.590 E8.82709
G1 X8.292 Y4.893 E8.84791
G1 X8.309 Y5.205 E8.86875
G1 X8.274 Y5.515 E8.88958
G1 X8.187 Y5.814 E8.91040
G1 X8.051 Y6.095 E8.93126
G1 X7.869 Y6.348 E8.95209
G1 X7.647 Y6.567 E8.97291
G1 X7.391 Y6.745 E8.99376
G1 X7.108 Y6.878 E9.01459
G1 X6.808 Y6.960 E9.03542
G1 X6.497 Y6.991 E9.05625
G1 X6.186 Y6.969 E9.07708
G1 X5.883 Y6.895 E9.09792
G1 X5.597 Y6.770 E9.11876
G1 X5.337 Y6.600 E9.13959
G1 X5.109 Y6.387 E9.16041
G1 X4.920 Y6.139 E9.18125
G1 X4.775 Y5.863 E9.20208
G1 X4.680 Y5.566 E9.22292
G1 X4.636 Y5.257 E9.24376
G1 X4.652 Y4.670 E9.28296
G1 X3.800 Y4.833 E9.34089
G1 X2.342 Y4.741 E9.43849
G1 X2.357 Y5.257 E9.47296
G1 X2.313 Y5.566 E9.49380
G1 X2.218 Y5.863 E9.51464
G1 X2.073 Y6.139 E9.53547
G1 X1.884 Y6.387 E9.55630
G1 X1.656 Y6.600 E9.57713
G1 X1.395 Y6.771 E9.59796
G1 X1.109 Y6.895 E9.61880
G1 X0.806 Y6.969 E9.63964
G1 X0.495 Y6.991 E9.66047
G1 X0.185 Y6.960 E9.68130
G1 X-0.116 Y6.878 E9.70213
G1 X-0.398 Y6.745 E9.72296
G1 X-0.654 Y6.567 E9.74381
G1 X-0.876 Y6.348 E9.76463
G1 X-1.954 Y4.847 E9.88811
G1 X-1.288 Y4.847 E9.93262
G1 X-1.229 Y4.590 E9.95025
G1 X-1.109 Y4.302 E9.97109
G1 X-0.941 Y4.039 E9.99192
G1 X-0.732 Y3.808 E10.01275
G1 X-0.487 Y3.615 E10.03359
G1 X-0.030 Y3.368 E10.06825
G1 X1.085 Y3.979 F7800.000
G1 X1.256 Y3.634 E10.09399 F378.000
G1 X0.754 Y3.315 E10.13372
G1 X0.016 Y2.529 E10.20577
G1 X-0.504 Y1.584 E10.27781
G1 X-0.772 Y0.539 E10.34986
G1 X-0.772 Y0.201 E10.37245
G1 X-1.128 Y0.140 E10.39659
G1 X-1.268 Y0.536 E10.42463
G1 X-1.376 Y0.729 E10.43937
G1 X-1.514 Y0.900 E10.45412
G1 X-1.680 Y1.046 E10.46887
G1 X-1.868 Y1.162 E10.48361
G1 X-2.190 Y1.291 E10.50682
G1 X-2.190 Y1.341 E10.51012
G1 X-2.728 Y1.272 E10.54631
G1 X-2.939 Y1.207 E10.56106
G1 X-3.136 Y1.108 E10.57580
G1 X-3.313 Y0.977 E10.59054
G1 X-3.466 Y0.817 E10.60529
G1 X-3.589 Y0.635 E10.62003
G1 X-3.680 Y0.433 E10.63477
G1 X-3.736 Y0.220 E10.64951
G1 X-3.755 Y0.000 E10.66426
G1 X-3.736 Y-0.220 E10.67900
G1 X-3.680 Y-0.433 E10.69374
G1 X-3.589 Y-0.635 E10.70848
G1 X-3.466 Y-0.817 E10.72322
G1 X-3.313 Y-0.977 E10.73797
G1 X-3.136 Y-1.108 E10.75271
G1 X-2.939 Y-1.207 E10.76745
G1 X-2.728 Y-1.272 E10.78220
G1 X-2.190 Y-1.341 E10.81839
G1 X-2.190 Y-1.291 E10.82169
G1 X-1.868 Y-1.162 E10.84491
G1 X-1.680 Y-1.046 E10.85964
G1 X-1.514 Y-0.900 E10.87439
G1 X-1.376 Y-0.729 E10.88914
G1 X-1.268 Y-0.536 E10.90388
G1 X-1.195 Y-0.328 E10.91862
G1 X-1.164 Y-0.151 E10.93059
G1 X-0.772 Y-0.185 E10.95688
G1 X-0.772 Y-0.539 E10.98057
G1 X-0.504 Y-1.584 E11.05262
G1 X0.016 Y-2.529 E11.12466
G1 X0.754 Y-3.315 E11.19671
G1 X1.256 Y-3.634 E11.23644
G1 X1.085 Y-3.979 E11.26218
G1 X0.867 Y-3.899 E11.27772
G1 X0.650 Y-3.858 E11.29245
G1 X0.429 Y-3.855 E11.30720
G1 X0.211 Y-3.889 E11.32194
G1 X0.002 Y-3.960 E11.33669
G1 X-0.192 Y-4.065 E11.35142
G1 X-0.366 Y-4.201 E11.36617
G1 X-0.514 Y-4.364 E11.38091
G1 X-0.632 Y-4.551 E11.39566
G1 X-0.717 Y-4.754 E11.41040
G1 X-0.767 Y-4.969 E11.42514
G1 X-0.790 Y-5.382 E11.45278
G1 X-0.910 Y-5.382 E11.46079
G1 X-0.467 Y-5.999 E11.51147
G1 X-0.310 Y-6.153 E11.52620
G1 X-0.129 Y-6.280 E11.54095
G1 X0.071 Y-6.373 E11.55570
G1 X0.283 Y-6.432 E11.57044
G1 X0.503 Y-6.454 E11.58518
G1 X0.723 Y-6.438 E11.59992
G1 X0.937 Y-6.386 E11.61467
G1 X1.140 Y-6.298 E11.62941
G1 X1.324 Y-6.177 E11.64415
G1 X1.486 Y-6.026 E11.65889
G1 X1.620 Y-5.851 E11.67363
G1 X1.722 Y-5.655 E11.68837
G1 X1.789 Y-5.445 E11.70312
G1 X1.820 Y-5.226 E11.71786
G1 X1.814 Y-5.006 E11.73260
G1 X1.771 Y-4.790 E11.74735
G1 X1.691 Y-4.584 E11.76209
G1 X1.578 Y-4.394 E11.77683
G1 X1.341 Y-4.116 E11.80127
G1 X1.521 Y-3.846 E11.82295
G1 X2.690 Y-4.226 E11.90510
G1 X3.767 Y-4.294 E11.97715
G1 X4.826 Y-4.092 E12.04919
G1 X5.537 Y-3.757 E12.10166
G1 X5.739 Y-4.076 E12.12687
G1 X5.558 Y-4.226 E12.14261
G1 X5.415 Y-4.394 E12.15735
G1 X5.301 Y-4.584 E12.17209
G1 X5.222 Y-4.790 E12.18684
G1 X5.179 Y-5.006 E12.20158
G1 X5.172 Y-5.226 E12.21632
G1 X5.203 Y-5.445 E12.23106
G1 X5.271 Y-5.655 E12.24581
G1 X5.373 Y-5.851 E12.26055
G1 X5.507 Y-6.026 E12.27529
G1 X5.668 Y-6.177 E12.29003
G1 X5.853 Y-6.298 E12.30477
G1 X6.055 Y-6.386 E12.31952
G1 X6.270 Y-6.438 E12.33426
G1 X6.490 Y-6.454 E12.34901
G1 X6.709 Y-6.432 E12.36374
G1 X6.922 Y-6.373 E12.37848
G1 X7.122 Y-6.280 E12.39323
G1 X7.303 Y-6.153 E12.40798
G1 X7.460 Y-5.999 E12.42271
G1 X7.589 Y-5.819 E12.43746
G1 X7.685 Y-5.621 E12.45221
G1 X7.747 Y-5.409 E12.46694
G1 X7.772 Y-5.190 E12.48168
G1 X7.759 Y-4.969 E12.49643
G1 X7.710 Y-4.754 E12.51117
G1 X7.625 Y-4.551 E12.52591
G1 X7.506 Y-4.364 E12.54066
G1 X7.358 Y-4.201 E12.55540
G1 X7.185 Y-4.065 E12.57014
G1 X6.991 Y-3.960 E12.58488
G1 X6.781 Y-3.889 E12.59962
G1 X6.563 Y-3.855 E12.61437
G1 X6.343 Y-3.858 E12.62911
G1 X6.126 Y-3.899 E12.64385
G1 X5.970 Y-3.956 E12.65494
G1 X5.790 Y-3.643 E12.67910
G1 X6.633 Y-2.945 E12.75218
G1 X7.267 Y-2.073 E12.82423
G1 X7.664 Y-1.070 E12.89628
G1 X7.782 Y-0.129 E12.95964
G1 X8.152 Y-0.121 E12.98431
G1 X8.187 Y-0.328 E12.99835
G1 X8.261 Y-0.536 E13.01309
G1 X8.368 Y-0.729 E13.02783
G1 X8.507 Y-0.900 E13.04257
G1 X8.673 Y-1.046 E13.05732
G1 X8.861 Y-1.162 E13.07206
G1 X9.065 Y-1.244 E13.08680
G1 X9.406 Y-1.317 E13.11009
G1 X9.406 Y-1.368 E13.11347
G1 X9.932 Y-1.207 E13.15018
G1 X10.129 Y-1.108 E13.16492
G1 X10.306 Y-0.977 E13.17967
G1 X10.459 Y-0.817 E13.19441
G1 X10.582 Y-0.635 E13.20915
G1 X10.673 Y-0.433 E13.22389
G1 X10.729 Y-0.220 E13.23864
G1 X10.747 Y0.000 E13.25338
G1 X10.729 Y0.220 E13.26812
G1 X10.673 Y0.433 E13.28286
G1 X10.582 Y0.635 E13.29761
G1 X10.459 Y0.817 E13.31235
G1 X10.306 Y0.977 E13.32709
G1 X10.129 Y1.108 E13.34183
G1 X9.932 Y1.207 E13.35657
G1 X9.406 Y1.368 E13.39328
G1 X9.406 Y1.317 E13.39667
G1 X9.065 Y1.244 E13.41995
G1 X8.861 Y1.162 E13.43470
G1 X8.673 Y1.046 E13.44943
G1 X8.507 Y0.900 E13.46418
G1 X8.368 Y0.729 E13.47893
G1 X8.261 Y0.536 E13.49367
G1 X8.187 Y0.328 E13.50840
G1 X8.152 Y0.121 E13.52244
G1 X7.782 Y0.129 E13.54712
G1 X7.664 Y1.070 E13.61048
G1 X7.267 Y2.073 E13.68253
G1 X6.633 Y2.945 E13.75457
G1 X5.790 Y3.643 E13.82766
