; generated by Slic3r 1.2.1 on 2015-03-21 at 13:51:02

; external perimeters extrusion width = 0.40mm
; perimeters extrusion width = 0.68mm
; infill extrusion width = 0.87mm
; solid infill extrusion width = 0.68mm
; top infill extrusion width = 0.68mm

M107
G28 ; home all axes
G29 ; Self Calibrate
G1 Z15 F2000; slightly raise from bed
G1 X65 Y-50 F2000; move to purging zone
M109 S200 ; set nozzle heater to first layer temperature
G1 X-55 Y-50 E24 F500.000; extrude a line of filament across the front edge of the bed
G4 P2000; wait for ooze to slow
G1 Z0 F6000.000; lower nozzle height to 0
G1 X-75 F400; wipe nozzle
G1 Z120% F6000.000; set nozzle to first layer height
G1 F12000; ensure fast travel to first print move
G92 E0; set E to 0 again
G1 X0 F900; back to home
G1 Z0 F2000; back to home
G29 ; Self Calibrate
G21 ; set units to millimeters
G90 ; use absolute coordinates
M82 ; use absolute distances for extrusion
G92 E0
G1 E-2.00000 F1800.000
G92 E0
G1 Z0.180 F3600.000
G1 X-10.609 Y11.907 F3600.000
G1 E2.00000 F1800.000
G1 X-17.213 Y6.022 E2.42458 F900.000
G1 X-17.624 Y5.623 E2.45209
G1 X-18.383 Y4.791 E2.50611
G1 X-18.829 Y4.202 E2.54157
G1 X-19.140 Y3.695 E2.57010
G1 X-19.475 Y3.038 E2.60553
G1 X-19.721 Y2.407 E2.63804
G1 X-19.895 Y1.841 E2.66647
G1 X-20.018 Y1.266 E2.69466
G1 X-20.116 Y0.523 E2.73066
G1 X-20.136 Y-0.159 E2.76338
G1 X-20.111 Y-0.737 E2.79116
G1 X-20.018 Y-1.424 E2.82444
G1 X-19.895 Y-1.999 E2.85263
G1 X-19.721 Y-2.565 E2.88105
G1 X-19.444 Y-3.264 E2.91715
G1 X-19.140 Y-3.853 E2.94900
G1 X-18.833 Y-4.353 E2.97714
G1 X-18.383 Y-4.949 E3.01299
G1 X-17.999 Y-5.383 E3.04081
G1 X-17.630 Y-5.737 E3.06533
G1 X-10.317 Y-12.241 E3.53508
G1 X-8.365 Y-13.889 E3.65771
G1 X-7.932 Y-14.226 E3.68403
G1 X-7.476 Y-14.533 E3.71039
G1 X-5.983 Y-15.452 E3.79457
G1 X-5.377 Y-15.784 E3.82775
G1 X-4.879 Y-16.008 E3.85393
G1 X-3.252 Y-16.662 E3.93810
G1 X-2.598 Y-16.887 E3.97128
G1 X-2.066 Y-17.025 E3.99767
G1 X-0.352 Y-17.395 E4.08186
G1 X0.220 Y-17.492 E4.10967
G1 X0.877 Y-17.552 E4.14136
G1 X2.629 Y-17.626 E4.22553
G1 X3.208 Y-17.625 E4.25333
G1 X3.866 Y-17.573 E4.28500 F900.000
G1 X5.605 Y-17.350 E4.36915
G1 X6.176 Y-17.252 E4.39697
G1 X6.814 Y-17.089 E4.42856
G1 X8.491 Y-16.576 E4.51273
G1 X9.141 Y-16.341 E4.54591
G1 X9.641 Y-16.114 E4.57228
G1 X11.207 Y-15.324 E4.65646
G1 X11.713 Y-15.041 E4.68427
G1 X12.263 Y-14.674 E4.71602
G1 X13.673 Y-13.630 E4.80021
G1 X14.123 Y-13.266 E4.82802
G1 X14.601 Y-12.813 E4.85961
G1 X15.815 Y-11.547 E4.94379
G1 X16.267 Y-11.024 E4.97697
G1 X16.591 Y-10.585 E5.00317
G1 X17.574 Y-9.133 E5.08732
G1 X17.877 Y-8.639 E5.11514
G1 X18.178 Y-8.051 E5.14683
G1 X18.901 Y-6.453 E5.23101
G1 X19.116 Y-5.916 E5.25881
G1 X19.314 Y-5.283 E5.29062
G1 X19.756 Y-3.585 E5.37482
G1 X19.896 Y-2.908 E5.40800
G1 X19.965 Y-2.365 E5.43430
G1 X20.113 Y-0.617 E5.51848
G1 X20.137 Y-0.038 E5.54630
G1 X20.113 Y0.620 E5.57788
G1 X19.964 Y2.367 E5.66206
G1 X19.890 Y2.942 E5.68987
G1 X19.755 Y3.588 E5.72154
G1 X19.313 Y5.285 E5.80574
G1 X19.143 Y5.839 E5.83354
G1 X18.899 Y6.455 E5.86535
G1 X18.177 Y8.053 E5.94953
G1 X17.915 Y8.570 E5.97734
G1 X17.572 Y9.134 E6.00904
G1 X16.590 Y10.587 E6.09319
G1 X16.244 Y11.052 E6.12100
G1 X15.813 Y11.548 E6.15257
G1 X14.599 Y12.814 E6.23675
G1 X14.180 Y13.215 E6.26456
G1 X13.671 Y13.631 E6.29615
G1 X12.261 Y14.675 E6.38034
G1 X11.780 Y14.999 E6.40815
G1 X11.205 Y15.325 E6.43991
G1 X9.639 Y16.114 E6.52409
G1 X9.111 Y16.352 E6.55189
G1 X8.488 Y16.576 E6.58363
G1 X6.811 Y17.090 E6.66780
G1 X6.250 Y17.235 E6.69562
G1 X5.602 Y17.350 E6.72722
G1 X3.863 Y17.573 E6.81137
G1 X3.286 Y17.621 E6.83917
G1 X2.626 Y17.625 E6.87083
G1 X0.874 Y17.551 E6.95501
G1 X0.297 Y17.501 E6.98282
G1 X-0.355 Y17.393 E7.01451
G1 X-2.069 Y17.024 E7.09869
G1 X-2.737 Y16.844 E7.13187
G1 X-3.255 Y16.660 E7.15826
G1 X-4.882 Y16.006 E7.24243
G1 X-5.409 Y15.767 E7.27023
G1 X-5.985 Y15.449 E7.30179
G1 X-7.479 Y14.530 E7.38598
G1 X-7.959 Y14.205 E7.41379
G1 X-8.476 Y13.793 E7.44551
G1 X-10.564 Y11.947 E7.57931
G1 E5.57931 F1800.000
G92 E0
G1 X-8.915 Y10.093 F3600.000
G1 E2.00000 F1800.000
G1 X-15.634 Y4.118 E2.43153 F900.000
G1 X-16.413 Y3.296 E2.48592
G1 X-16.837 Y2.734 E2.51969
G1 X-17.179 Y2.116 E2.55361
G1 X-17.423 Y1.491 E2.58579
G1 X-17.564 Y0.948 E2.61270
G1 X-17.657 Y0.247 E2.64668
G1 X-17.656 Y-0.431 E2.67922
G1 X-17.564 Y-1.105 E2.71184
G1 X-17.423 Y-1.647 E2.73874
G1 X-17.164 Y-2.305 E2.77269
G1 X-16.933 Y-2.734 E2.79607
G1 X-16.731 Y-3.048 E2.81400
G1 X-16.405 Y-3.463 E2.83931
G1 X-16.046 Y-3.837 E2.86421
G1 X-8.606 Y-10.454 E3.34209
G1 X-8.018 Y-10.903 E3.37758
G1 X-6.771 Y-12.000 E3.45730
G1 X-6.254 Y-12.382 E3.48817
G1 X-4.609 Y-13.394 E3.58086
G1 X-4.192 Y-13.612 E3.60344
G1 X-2.245 Y-14.402 E3.70430
G1 X-1.797 Y-14.547 E3.72691
G1 X0.437 Y-15.027 E3.83661
G1 X0.896 Y-15.078 E3.85874
G1 X3.007 Y-15.159 E3.96013
G1 X3.467 Y-15.131 E3.98226 F900.000
G1 X5.381 Y-14.886 E4.07490
G1 X6.009 Y-14.750 E4.10571
G1 X7.855 Y-14.185 E4.19837
G1 X8.294 Y-14.016 E4.22097
G1 X10.334 Y-12.987 E4.33066
G1 X10.723 Y-12.738 E4.35282
G1 X12.276 Y-11.589 E4.44552
G1 X12.757 Y-11.164 E4.47633
G1 X14.093 Y-9.770 E4.56899
G1 X14.394 Y-9.409 E4.59157
G1 X15.672 Y-7.517 E4.70115
G1 X15.890 Y-7.111 E4.72328
G1 X16.686 Y-5.351 E4.81596
G1 X16.899 Y-4.744 E4.84686
G1 X17.386 Y-2.875 E4.93958
G1 X17.472 Y-2.412 E4.96217
G1 X17.665 Y-0.135 E5.07183
G1 X17.657 Y0.325 E5.09391
G1 X17.493 Y2.248 E5.18657
G1 X17.384 Y2.882 E5.21741
G1 X16.844 Y4.924 E5.31883
G1 X16.682 Y5.357 E5.34102
G1 X15.886 Y7.117 E5.43371
G1 X15.572 Y7.678 E5.46457
G1 X14.491 Y9.277 E5.55723
G1 X14.087 Y9.776 E5.58802
G1 X12.751 Y11.169 E5.68068
G1 X12.402 Y11.485 E5.70326
G1 X10.566 Y12.843 E5.81289
G1 X10.169 Y13.078 E5.83505
G1 X8.444 Y13.948 E5.92774
G1 X7.847 Y14.187 E5.95861
G1 X5.825 Y14.798 E6.06002
G1 X5.373 Y14.886 E6.08211
G1 X3.459 Y15.132 E6.17474
G1 X2.817 Y15.158 E6.20558
G1 X0.888 Y15.077 E6.29825
G1 X0.250 Y14.994 E6.32910
G1 X-1.813 Y14.542 E6.43051
G1 X-2.252 Y14.399 E6.45267
G1 X-4.044 Y13.678 E6.54535
G1 X-4.616 Y13.389 E6.57614
G1 X-6.411 Y12.275 E6.67752
G1 X-6.777 Y11.994 E6.69967
G1 X-8.871 Y10.133 E6.83411
G1 X-8.444 Y9.654 F3600.000
G1 X-15.197 Y3.648 E7.26785 F900.000
G1 X-15.835 Y2.982 E7.31210
G1 X-16.205 Y2.523 E7.34042
G1 X-16.530 Y1.980 E7.37081
G1 X-16.712 Y1.576 E7.39208
G1 X-16.901 Y0.981 E7.42204
G1 X-17.005 Y0.365 E7.45201
G1 X-17.022 Y0.070 E7.46618
G1 X-17.016 Y-0.389 E7.48825
G1 X-16.934 Y-0.985 E7.51710
G1 X-16.814 Y-1.446 E7.53994
G1 X-16.586 Y-2.027 E7.56992
G1 X-16.379 Y-2.411 E7.59087
G1 X-16.207 Y-2.678 E7.60613
G1 X-15.916 Y-3.048 E7.62872
G1 X-15.611 Y-3.366 E7.64986
G1 X-8.190 Y-9.965 E8.12649
G1 X-7.614 Y-10.404 E8.16123
G1 X-6.358 Y-11.509 E8.24154
G1 X-5.906 Y-11.842 E8.26849
G1 X-4.285 Y-12.840 E8.35987
G1 X-3.917 Y-13.032 E8.37980
G1 X-1.874 Y-13.853 E8.48548
G1 X-1.482 Y-13.966 E8.50506
G1 X0.531 Y-14.393 E8.60383
G1 X0.936 Y-14.438 E8.62338
G1 X2.838 Y-14.518 E8.71475
G1 X3.398 Y-14.494 E8.74167 F900.000
G1 X5.286 Y-14.252 E8.83301
G1 X5.834 Y-14.133 E8.85990
G1 X7.654 Y-13.576 E8.95125
G1 X8.041 Y-13.427 E8.97121
G1 X10.009 Y-12.434 E9.07697
G1 X10.352 Y-12.214 E9.09655
G1 X11.883 Y-11.082 E9.18794
G1 X12.303 Y-10.711 E9.21483
G1 X13.620 Y-9.337 E9.30619
G1 X13.885 Y-9.017 E9.32612
G1 X15.118 Y-7.193 E9.43179
G1 X15.311 Y-6.834 E9.45134
G1 X16.095 Y-5.100 E9.54271
G1 X16.282 Y-4.570 E9.56969
G1 X16.762 Y-2.727 E9.66109
G1 X16.838 Y-2.318 E9.68104
G1 X17.023 Y-0.123 E9.78678
G1 X17.016 Y0.284 E9.80629
G1 X16.855 Y2.180 E9.89764
G1 X16.760 Y2.733 E9.92457
G1 X16.235 Y4.723 E10.02333
G1 X16.093 Y5.105 E10.04293
G1 X15.308 Y6.840 E10.13432
G1 X15.033 Y7.330 E10.16126
G1 X13.967 Y8.906 E10.25260
G1 X13.615 Y9.341 E10.27949
G1 X12.298 Y10.715 E10.37084
G1 X11.990 Y10.994 E10.39078
G1 X10.219 Y12.304 E10.49649
G1 X9.868 Y12.512 E10.51607
G1 X8.168 Y13.369 E10.60745
G1 X7.647 Y13.577 E10.63440
G1 X5.677 Y14.173 E10.73316
G1 X5.278 Y14.252 E10.75267
G1 X3.391 Y14.494 E10.84400
G1 X2.831 Y14.517 E10.87092
G1 X0.929 Y14.436 E10.96228
G1 X0.372 Y14.365 E10.98921
G1 X-1.638 Y13.925 E11.08797
G1 X-2.026 Y13.798 E11.10755
G1 X-3.792 Y13.088 E11.19892
G1 X-4.292 Y12.836 E11.22580
G1 X-6.040 Y11.752 E11.32454
G1 X-6.364 Y11.504 E11.34411
G1 X-8.400 Y9.693 E11.47487
G1 X-7.973 Y9.214 F3600.000
G1 X-14.760 Y3.178 E11.91081 F900.000
G1 X-15.360 Y2.551 E11.95247
G1 X-15.681 Y2.153 E11.97704
G1 X-15.963 Y1.681 E12.00338
G1 X-16.112 Y1.349 E12.02087
G1 X-16.277 Y0.833 E12.04686
G1 X-16.366 Y0.301 E12.07277
G1 X-16.376 Y-0.347 E12.10388
G1 X-16.304 Y-0.865 E12.12897
G1 X-16.205 Y-1.244 E12.14775
G1 X-16.008 Y-1.748 E12.17375
G1 X-15.683 Y-2.308 E12.20483
G1 X-15.426 Y-2.634 E12.22471
G1 X-15.176 Y-2.895 E12.24210
G1 X-7.775 Y-9.477 E12.71748
G1 X-7.210 Y-9.905 E12.75147
G1 X-5.945 Y-11.018 E12.83237
G1 X-5.559 Y-11.303 E12.85540
G1 X-3.961 Y-12.287 E12.94547
G1 X-3.641 Y-12.453 E12.96275
G1 X-1.793 Y-13.202 E13.05848
G1 X-1.449 Y-13.312 E13.07579
G1 X0.625 Y-13.758 E13.17763
G1 X0.977 Y-13.797 E13.19461
G1 X2.977 Y-13.877 E13.29070
G1 X3.330 Y-13.856 E13.30767 F900.000
G1 X5.191 Y-13.617 E13.39770
G1 X5.659 Y-13.516 E13.42069
G1 X7.452 Y-12.967 E13.51073
G1 X7.789 Y-12.837 E13.52803
G1 X9.683 Y-11.881 E13.62987
G1 X9.981 Y-11.691 E13.64687
G1 X11.490 Y-10.574 E13.73695
G1 X11.849 Y-10.257 E13.75993
G1 X13.147 Y-8.903 E13.84998
G1 X13.377 Y-8.626 E13.86727
G1 X14.564 Y-6.869 E13.96902
G1 X14.732 Y-6.558 E13.98600
G1 X15.505 Y-4.848 E14.07606
G1 X15.665 Y-4.395 E14.09911
G1 X16.138 Y-2.579 E14.18920
G1 X16.203 Y-2.224 E14.20650
G1 X16.382 Y-0.111 E14.30832
G1 X16.376 Y0.242 E14.32526
G1 X16.217 Y2.112 E14.41531
G1 X16.136 Y2.584 E14.43831
G1 X15.626 Y4.521 E14.53443
G1 X15.503 Y4.853 E14.55144
G1 X14.729 Y6.563 E14.64152
G1 X14.495 Y6.981 E14.66454
G1 X13.444 Y8.535 E14.75458
G1 X13.143 Y8.907 E14.77755
G1 X11.844 Y10.261 E14.86760
G1 X11.577 Y10.503 E14.88488
G1 X9.872 Y11.764 E14.98668
G1 X9.567 Y11.945 E15.00368
G1 X7.892 Y12.790 E15.09375
G1 X7.446 Y12.968 E15.11678
G1 X5.530 Y13.549 E15.21288
G1 X5.184 Y13.617 E15.22983
G1 X3.323 Y13.856 E15.31985
G1 X2.845 Y13.876 E15.34285
G1 X0.970 Y13.796 E15.43291
G1 X0.495 Y13.735 E15.45592
G1 X-1.462 Y13.308 E15.55203
G1 X-1.799 Y13.198 E15.56902
G1 X-3.540 Y12.498 E15.65909
G1 X-3.967 Y12.282 E15.68206
G1 X-5.669 Y11.228 E15.77815
G1 X-5.950 Y11.013 E15.79514
G1 X-7.929 Y9.254 E15.92222
G1 X-7.502 Y8.775 F3600.000
G1 X-14.324 Y2.708 E16.36037 F900.000
G1 X-14.885 Y2.119 E16.39944
G1 X-15.099 Y1.861 E16.41555
G1 X-15.270 Y1.608 E16.43019
G1 X-15.512 Y1.122 E16.45624
G1 X-15.653 Y0.685 E16.47826
G1 X-15.728 Y0.236 E16.50011
G1 X-15.735 Y-0.306 E16.52613
G1 X-15.673 Y-0.745 E16.54744
G1 X-15.597 Y-1.042 E16.56215
G1 X-15.430 Y-1.470 E16.58419
G1 X-15.159 Y-1.938 E16.61017
G1 X-14.937 Y-2.219 E16.62733
G1 X-14.740 Y-2.424 E16.64097
G1 X-7.359 Y-8.988 E17.11509
G1 X-6.806 Y-9.406 E17.14833
G1 X-5.532 Y-10.528 E17.22983
G1 X-5.211 Y-10.764 E17.24893
G1 X-3.637 Y-11.733 E17.33770
G1 X-3.366 Y-11.874 E17.35233
G1 X-1.474 Y-12.634 E17.45019
G1 X-1.186 Y-12.717 E17.46461
G1 X0.719 Y-13.123 E17.55807
G1 X1.017 Y-13.157 E17.57247
G1 X2.864 Y-13.235 E17.66122
G1 X3.262 Y-13.218 E17.68030 F900.000
G1 X5.095 Y-12.983 E17.76903
G1 X5.483 Y-12.899 E17.78809
G1 X7.251 Y-12.358 E17.87684
G1 X7.536 Y-12.247 E17.89149
G1 X9.357 Y-11.329 E17.98940
G1 X9.611 Y-11.167 E18.00381
G1 X11.097 Y-10.067 E18.09259
G1 X11.395 Y-9.804 E18.11165
G1 X12.675 Y-8.469 E18.20040
G1 X12.869 Y-8.234 E18.21504
G1 X14.011 Y-6.545 E18.31288
G1 X14.153 Y-6.281 E18.32728
G1 X14.915 Y-4.597 E18.41604
G1 X15.047 Y-4.221 E18.43516
G1 X15.513 Y-2.431 E18.52394
G1 X15.568 Y-2.130 E18.53859
G1 X15.741 Y-0.098 E18.63648
G1 X15.736 Y0.201 E18.65085
G1 X15.580 Y2.043 E18.73960
G1 X15.512 Y2.435 E18.75869
G1 X15.017 Y4.319 E18.85215
G1 X14.913 Y4.601 E18.86658
G1 X14.151 Y6.286 E18.95535
G1 X13.956 Y6.633 E18.97444
G1 X12.920 Y8.164 E19.06317
G1 X12.670 Y8.473 E19.08223
G1 X11.391 Y9.808 E19.17098
G1 X11.164 Y10.012 E19.18562
G1 X9.525 Y11.224 E19.28350
G1 X9.267 Y11.378 E19.29792
G1 X7.616 Y12.211 E19.38668
G1 X7.246 Y12.359 E19.40578
G1 X5.383 Y12.924 E19.49924
G1 X5.089 Y12.983 E19.51361
G1 X3.256 Y13.218 E19.60233
G1 X2.859 Y13.234 E19.62141
G1 X1.011 Y13.156 E19.71016
G1 X0.617 Y13.105 E19.72925
G1 X-1.286 Y12.691 E19.82271
G1 X-1.572 Y12.598 E19.83713
G1 X-3.287 Y11.909 E19.92588
G1 X-3.642 Y11.729 E19.94494
G1 X-5.297 Y10.705 E20.03838
G1 X-5.536 Y10.523 E20.05279
G1 X-7.457 Y8.815 E20.17620
G1 X-7.031 Y8.335 F3600.000
G1 X-13.887 Y2.238 E20.61656 F900.000
G1 X-14.451 Y1.642 E20.65593
G1 X-14.679 Y1.345 E20.67393
G1 X-14.858 Y1.021 E20.69168
G1 X-15.008 Y0.616 E20.71244
G1 X-15.081 Y0.242 E20.73074
G1 X-15.098 Y-0.194 E20.75165
G1 X-15.081 Y-0.403 E20.76172
G1 X-15.009 Y-0.772 E20.77977
G1 X-14.852 Y-1.192 E20.80126
G1 X-14.635 Y-1.568 E20.82214
G1 X-14.305 Y-1.953 E20.84644
G1 X-6.943 Y-8.500 E21.31931
G1 X-6.402 Y-8.907 E21.35180
G1 X-5.119 Y-10.037 E21.43389
G1 X-4.864 Y-10.225 E21.44907
G1 X-3.312 Y-11.180 E21.53653
G1 X-3.090 Y-11.294 E21.54852
G1 X-1.340 Y-12.001 E21.63911
G1 X-1.102 Y-12.077 E21.65111
G1 X0.813 Y-12.489 E21.74511
G1 X1.057 Y-12.517 E21.75693
G1 X2.947 Y-12.594 E21.84772
G1 X3.193 Y-12.580 E21.85954 F900.000
G1 X5.000 Y-12.349 E21.94696
G1 X5.308 Y-12.282 E21.96211
G1 X7.050 Y-11.749 E22.04955
G1 X7.283 Y-11.658 E22.06155
G1 X9.032 Y-10.776 E22.15554
G1 X9.240 Y-10.644 E22.16737
G1 X10.705 Y-9.560 E22.25483
G1 X10.941 Y-9.351 E22.26999
G1 X12.248 Y-7.983 E22.36078
G1 X12.400 Y-7.790 E22.37258
G1 X13.457 Y-6.221 E22.46335
G1 X13.574 Y-6.005 E22.47517
G1 X14.325 Y-4.345 E22.56262
G1 X14.430 Y-4.046 E22.57781
G1 X14.904 Y-2.214 E22.66864
G1 X14.942 Y-1.971 E22.68046
G1 X15.099 Y-0.086 E22.77126
G1 X15.096 Y0.160 E22.78306
G1 X14.942 Y1.975 E22.87050
G1 X14.888 Y2.287 E22.88567
G1 X14.408 Y4.117 E22.97648
G1 X14.323 Y4.349 E22.98832
G1 X13.572 Y6.009 E23.07578
G1 X13.417 Y6.284 E23.09096
G1 X12.397 Y7.793 E23.17838
G1 X12.198 Y8.038 E23.19353
G1 X10.887 Y9.402 E23.28432
G1 X10.700 Y9.562 E23.29613
G1 X9.178 Y10.685 E23.38693
G1 X8.966 Y10.811 E23.39877
G1 X7.339 Y11.632 E23.48622
G1 X7.046 Y11.749 E23.50140
G1 X5.236 Y12.300 E23.59220
G1 X4.995 Y12.348 E23.60400
G1 X3.188 Y12.580 E23.69142
G1 X2.873 Y12.593 E23.70658
G1 X1.052 Y12.516 E23.79402
G1 X0.739 Y12.475 E23.80920
G1 X-1.110 Y12.074 E23.90000
G1 X-1.345 Y11.998 E23.91183
G1 X-3.035 Y11.319 E23.99928
G1 X-3.317 Y11.176 E24.01443
G1 X-4.868 Y10.221 E24.10187
G1 X-5.071 Y10.075 E24.11387
G1 X-6.986 Y8.375 E24.23679
G1 X-6.560 Y7.896 F3600.000
G1 X-13.450 Y1.768 E24.67935 F900.000
G1 X-13.936 Y1.256 E24.71323
G1 X-14.140 Y0.998 E24.72903
G1 X-14.278 Y0.748 E24.74273
G1 X-14.391 Y0.441 E24.75845
G1 X-14.446 Y0.149 E24.77268
G1 X-14.446 Y-0.309 E24.79469
G1 X-14.391 Y-0.597 E24.80877
G1 X-14.274 Y-0.913 E24.82493
G1 X-14.111 Y-1.198 E24.84070
G1 X-13.870 Y-1.481 E24.85854
G1 X-6.527 Y-8.011 E25.33016
G1 X-5.998 Y-8.408 E25.36190
G1 X-4.705 Y-9.546 E25.44458
G1 X-4.517 Y-9.685 E25.45584
G1 X-2.951 Y-10.647 E25.54400
G1 X-2.779 Y-10.731 E25.55323
G1 X-1.074 Y-11.415 E25.64137
G1 X-0.889 Y-11.469 E25.65062
G1 X0.907 Y-11.854 E25.73878
G1 X1.098 Y-11.877 E25.74802
G1 X2.891 Y-11.953 E25.83415
G1 X3.125 Y-11.942 E25.84540 F900.000
G1 X4.904 Y-11.714 E25.93151
G1 X5.133 Y-11.665 E25.94276
G1 X6.889 Y-11.125 E26.03090
G1 X7.067 Y-11.052 E26.04015
G1 X8.706 Y-10.223 E26.12830
G1 X8.869 Y-10.120 E26.13755
G1 X10.312 Y-9.053 E26.22370
G1 X10.487 Y-8.897 E26.23495
G1 X11.757 Y-7.570 E26.32310
G1 X11.876 Y-7.419 E26.33232
G1 X12.903 Y-5.898 E26.42045
G1 X12.995 Y-5.729 E26.42969
G1 X13.735 Y-4.093 E26.51583
G1 X13.813 Y-3.872 E26.52709
G1 X14.274 Y-2.094 E26.61527
G1 X14.304 Y-1.904 E26.62451
G1 X14.458 Y-0.073 E26.71266
G1 X14.456 Y0.119 E26.72189
G1 X14.304 Y1.907 E26.80802
G1 X14.264 Y2.138 E26.81927
G1 X13.799 Y3.915 E26.90744
G1 X13.733 Y4.096 E26.91670
G1 X12.993 Y5.732 E27.00284
G1 X12.879 Y5.936 E27.01410
G1 X11.874 Y7.422 E27.10021
G1 X11.726 Y7.604 E27.11145
G1 X10.454 Y8.929 E27.19960
G1 X10.308 Y9.054 E27.20883
G1 X8.831 Y10.145 E27.29699
