; generated by Slic3r 1.2.9 on 2016-05-28 at 18:26:51

; external perimeters extrusion width = 0.40mm
; perimeters extrusion width = 0.68mm
; infill extrusion width = 1.03mm
; solid infill extrusion width = 0.68mm
; top infill extrusion width = 0.68mm
; support material extrusion width = 0.40mm

M190 S90 ; set bed temperature
G21; set mm units 
G92 E0; reset extruder distance 
G90; set absolute coordinates 
G28 ; home all axes
M106 S255; Set cooling fan on
M109 S235 ; set nozzle heater to first layer temperature
G29 ; Self Calibrate
G1 Z15 F2000; slightly raise from bed
G1 X55 Y-50 F2000; move to purging zone
G1 X-35 Y-50 E12 F300.000; extrude a line of filament across the front edge of the bed
G4 P2000; wait for ooze to slow
G1 Z0 F6000.000; lower nozzle height to 0
G1 X-55 F400; wipe nozzle
G1 Z100% F6000.000; set nozzle to first layer height
G1 F12000; ensure fast travel to first print move
G92 E0; set E to 0 again
G1 X0 F900; back to home
G1 Z0 F2000; back to home
G21 ; set units to millimeters
G90 ; use absolute coordinates
M82 ; use absolute distances for extrusion
G92 E0
M106 S255
G1 Z0.125 F3600.000
G1 E-4.00000 F1800.00000
G92 E0
G1 X31.120 Y11.676 F3600.000
G1 E4.00000 F1800.00000
G1 X32.335 Y10.224 E4.06356 F900.000
G1 X43.307 Y9.250 E4.43323
G1 X44.009 Y9.838 E4.46393
G1 X44.257 Y9.915 E4.47265
G1 X52.903 Y9.148 E4.76396
G1 X53.133 Y9.028 E4.77269
G1 X53.721 Y8.327 E4.80339
G1 X54.435 Y8.263 E4.82746
G1 X54.665 Y8.143 E4.83618
G1 X55.253 Y7.441 E4.86689
G1 X55.308 Y7.437 E4.86875
G1 X55.503 Y7.351 E4.87589
G1 X56.784 Y6.193 E4.93386
G1 X57.095 Y5.993 E4.94628
G1 X57.206 Y5.944 E4.95031
G1 X57.332 Y5.848 E4.95565
G1 X58.185 Y4.780 E5.00150
G1 X58.541 Y4.484 E5.01705
G1 X58.932 Y4.274 E5.03197
G1 X59.033 Y4.191 E5.03633
G1 X59.903 Y3.119 E5.08268
G1 X62.427 Y1.124 E5.19063
G1 X62.715 Y0.958 E5.20179
G1 X63.116 Y0.798 E5.21629
G1 X63.440 Y0.721 E5.22745
G1 X65.249 Y0.560 E5.28842
G1 X66.830 Y1.883 E5.35760
G1 X68.052 Y3.251 E5.41914 F900.000
G1 X68.230 Y3.372 E5.42637
G1 X69.043 Y5.106 E5.49066
G1 X68.798 Y6.525 E5.53899
G1 X65.455 Y9.892 E5.69820
G1 X65.355 Y10.095 E5.70579
G1 X64.909 Y10.452 E5.72498
G1 X63.638 Y11.970 E5.79143
G1 X63.437 Y11.988 E5.79821
G1 X63.206 Y12.108 E5.80693
G1 X61.942 Y13.619 E5.87306
G1 X61.512 Y13.658 E5.88754
G1 X61.334 Y13.728 E5.89396
G1 X59.728 Y15.000 E5.96272
G1 X59.417 Y15.180 E5.97476
G1 X59.317 Y15.301 E5.98004
G1 X56.860 Y16.856 E6.07762
G1 X56.614 Y16.973 E6.08675
G1 X56.280 Y17.086 E6.09861
G1 X56.013 Y17.142 E6.10775
G1 X39.887 Y18.573 E6.65108
G1 X39.185 Y17.986 E6.68179
G1 X38.937 Y17.908 E6.69051
G1 X32.558 Y18.474 E6.90544
G1 X31.570 Y18.095 E6.94095
G1 X30.622 Y17.077 E6.98763
G1 X30.315 Y16.064 E7.02315
G1 X30.642 Y14.044 E7.09181
G1 X30.604 Y13.820 E7.09943
G1 X31.116 Y11.736 E7.17147
G1 X31.794 Y11.888 F3600.000
G1 X32.662 Y10.851 E7.21687 F900.000
G1 X43.095 Y9.925 E7.56838
G1 X43.797 Y10.512 E7.59908
G1 X44.045 Y10.590 E7.60780
G1 X53.230 Y9.775 E7.91728
G1 X53.461 Y9.655 E7.92600
G1 X54.048 Y8.953 E7.95670
G1 X54.762 Y8.890 E7.98077
G1 X54.993 Y8.770 E7.98949
G1 X55.580 Y8.068 E8.02020
G1 X55.779 Y7.983 E8.02746
G1 X57.183 Y6.713 E8.09099
G1 X57.405 Y6.570 E8.09986
G1 X57.615 Y6.478 E8.10754
G1 X57.741 Y6.382 E8.11288
G1 X58.654 Y5.240 E8.16193
G1 X58.908 Y5.028 E8.17304
G1 X59.357 Y4.787 E8.19014
G1 X59.457 Y4.704 E8.19450
G1 X60.369 Y3.581 E8.24305
G1 X60.622 Y3.373 E8.25405
G1 X60.818 Y3.269 E8.26149
G1 X60.900 Y3.165 E8.26592
G1 X62.795 Y1.666 E8.34702
G1 X63.000 Y1.547 E8.35499
G1 X63.314 Y1.422 E8.36630
G1 X63.545 Y1.367 E8.37427
G1 X65.037 Y1.235 E8.42457
G1 X66.152 Y2.168 E8.47336 F900.000
G1 X66.213 Y2.273 E8.47742
G1 X66.449 Y2.437 E8.48708
G1 X67.635 Y3.764 E8.54680
G1 X67.726 Y3.836 E8.55069
G1 X68.365 Y5.198 E8.60117
G1 X68.189 Y6.211 E8.63569
G1 X65.069 Y9.354 E8.78433
G1 X64.935 Y9.449 E8.78984
G1 X64.804 Y9.635 E8.79748
G1 X64.783 Y9.713 E8.80019
G1 X64.318 Y10.075 E8.81994
G1 X64.259 Y10.210 E8.82491
G1 X63.311 Y11.344 E8.87450
G1 X63.210 Y11.353 E8.87790
G1 X63.039 Y11.418 E8.88403
G1 X62.628 Y11.727 E8.90129
G1 X62.575 Y11.845 E8.90563
G1 X61.614 Y12.993 E8.95587
G1 X61.259 Y13.024 E8.96783
G1 X61.082 Y13.095 E8.97425
G1 X59.360 Y14.459 E9.04797
G1 X59.154 Y14.578 E9.05595
G1 X58.947 Y14.660 E9.06343
G1 X58.741 Y14.893 E9.07385
G1 X56.544 Y16.283 E9.16111
G1 X56.368 Y16.367 E9.16764
G1 X56.107 Y16.455 E9.17689
G1 X55.917 Y16.495 E9.18342
G1 X40.098 Y17.899 E9.71637
G1 X39.397 Y17.311 E9.74707
G1 X39.149 Y17.234 E9.75579
G1 X32.651 Y17.810 E9.97473
G1 X31.945 Y17.539 E10.00009
G1 X31.204 Y16.742 E10.03663
G1 X30.984 Y16.019 E10.06199
G1 X31.256 Y14.338 E10.11916
G1 X31.327 Y14.205 E10.12420
G1 X31.344 Y13.919 E10.13381
G1 X31.288 Y13.777 E10.13894
G1 X31.659 Y12.296 E10.19018
G1 X31.683 Y12.276 E10.19120
G1 X31.802 Y11.983 E10.20184
G1 X31.799 Y11.948 E10.20302
G1 X32.469 Y12.100 F3600.000
G1 X32.990 Y11.477 E10.23026 F900.000
G1 X42.884 Y10.599 E10.56361
G1 X43.585 Y11.187 E10.59431
G1 X43.833 Y11.265 E10.60303
G1 X53.557 Y10.402 E10.93066
G1 X53.788 Y10.282 E10.93938
G1 X54.375 Y9.580 E10.97009
G1 X55.090 Y9.517 E10.99416
G1 X55.320 Y9.396 E11.00288
G1 X55.929 Y8.669 E11.03474
G1 X56.054 Y8.614 E11.03932
G1 X57.582 Y7.233 E11.10842
G1 X57.715 Y7.147 E11.11374
G1 X58.024 Y7.012 E11.12507
G1 X58.151 Y6.916 E11.13041
G1 X59.123 Y5.699 E11.18265
G1 X59.275 Y5.572 E11.18932
G1 X59.573 Y5.412 E11.20066
G1 X59.673 Y5.383 E11.20416
G1 X59.837 Y5.273 E11.21077
G1 X60.835 Y4.044 E11.26391
G1 X60.986 Y3.919 E11.27051
G1 X61.375 Y3.712 E11.28529
G1 X61.548 Y3.485 E11.29486
G1 X63.163 Y2.208 E11.36396
G1 X63.286 Y2.136 E11.36875
G1 X63.511 Y2.047 E11.37687
G1 X63.650 Y2.014 E11.38165
G1 X64.826 Y1.909 E11.42127
G1 X65.448 Y2.430 E11.44851
G1 X65.671 Y2.737 E11.46124 F900.000
G1 X65.825 Y2.798 E11.46681
G1 X66.013 Y2.929 E11.47449
G1 X67.205 Y4.264 E11.53455
G1 X67.686 Y5.289 E11.57255
G1 X67.581 Y5.897 E11.59326
G1 X66.277 Y7.210 E11.65536
G1 X66.084 Y7.346 E11.66329
G1 X65.982 Y7.508 E11.66969
G1 X64.646 Y8.853 E11.73334
G1 X64.367 Y9.050 E11.74481
G1 X64.236 Y9.237 E11.75244
G1 X64.210 Y9.331 E11.75574
G1 X63.636 Y9.778 E11.78014
G1 X63.504 Y10.095 E11.79164
G1 X62.984 Y10.717 E11.81888
G1 X62.824 Y10.731 E11.82426
G1 X62.508 Y11.000 E11.83817
G1 X61.945 Y11.422 E11.86180
G1 X61.808 Y11.744 E11.87352
G1 X61.287 Y12.366 E11.90076
G1 X61.007 Y12.391 E11.91020
G1 X60.829 Y12.462 E11.91662
G1 X58.991 Y13.917 E11.99530
G1 X58.868 Y13.989 E12.00009
G1 X58.643 Y14.078 E12.00822
G1 X58.492 Y14.114 E12.01343
G1 X58.245 Y14.337 E12.02458
G1 X58.200 Y14.462 E12.02904
G1 X56.227 Y15.710 E12.10741
G1 X55.934 Y15.824 E12.11795
G1 X55.820 Y15.848 E12.12186
G1 X40.310 Y17.224 E12.64443
G1 X39.609 Y16.637 E12.67513
G1 X39.361 Y16.559 E12.68385
G1 X32.744 Y17.146 E12.90679
G1 X32.320 Y16.984 E12.92201
G1 X31.785 Y16.408 E12.94840
G1 X31.653 Y15.974 E12.96362
G1 X31.883 Y14.549 E13.01205
G1 X32.045 Y14.248 E13.02353
G1 X32.062 Y13.962 E13.03315
G1 X31.972 Y13.733 E13.04137
G1 X32.242 Y12.657 E13.07861
G1 X32.363 Y12.554 E13.08394
G1 X32.483 Y12.260 E13.09458
G1 X32.474 Y12.159 E13.09798
G1 X33.317 Y12.104 F3600.000
G1 X42.672 Y11.274 E13.41317 F900.000
G1 X42.879 Y11.448 E13.42225
G1 X42.895 Y11.619 E13.42804
G1 X43.310 Y11.967 E13.44620
G1 X54.196 Y11.001 E13.81300
G1 X54.544 Y10.586 E13.83116
G1 X54.529 Y10.414 E13.83695
G1 X54.702 Y10.207 E13.84603
G1 X55.729 Y10.116 E13.88061
G1 X56.076 Y9.701 E13.89877
G1 X56.061 Y9.529 E13.90456
G1 X56.234 Y9.322 E13.91364
G1 X56.387 Y9.308 E13.91877
G1 X56.708 Y9.024 E13.93318
G1 X56.741 Y8.874 E13.93832
G1 X57.981 Y7.754 E13.99440
G1 X58.175 Y7.659 E14.00165
G1 X58.339 Y7.617 E14.00735
G1 X58.518 Y7.502 E14.01450
G1 X59.592 Y6.159 E14.07219
G1 X59.823 Y6.019 E14.08127
G1 X59.960 Y5.994 E14.08593
G1 X60.194 Y5.870 E14.09482
G1 X61.300 Y4.506 E14.15375
G1 X61.531 Y4.369 E14.16274
G1 X61.752 Y4.336 E14.17027
G1 X62.068 Y4.071 E14.18408
G1 X62.123 Y3.863 E14.19132
G1 X63.531 Y2.749 E14.25156
G1 X63.755 Y2.660 E14.25965
G1 X64.614 Y2.584 E14.28859
G1 X64.821 Y2.758 E14.29767
G1 X64.834 Y2.900 E14.30246
G1 X65.056 Y3.197 E14.31490
G1 X65.514 Y3.378 E14.33143
G1 X65.576 Y3.421 E14.33399
G1 X66.477 Y4.430 E14.37937
G1 X66.488 Y4.490 E14.38143
G1 X66.655 Y4.727 E14.39115
G1 X66.718 Y4.763 E14.39360
G1 X67.007 Y5.380 E14.41646
G1 X66.972 Y5.583 E14.42337
G1 X65.854 Y6.709 E14.47663
G1 X65.554 Y6.861 E14.48791
G1 X65.360 Y7.115 E14.49865
G1 X65.341 Y7.226 E14.50242
G1 X64.223 Y8.353 E14.55569
G1 X63.878 Y8.525 E14.56864
G1 X63.693 Y8.745 E14.57827
G1 X63.637 Y8.949 E14.58538
G1 X62.954 Y9.481 E14.61443
G1 X62.821 Y9.786 E14.62560
G1 X62.830 Y9.883 E14.62884
G1 X62.656 Y10.090 E14.63792
G1 X62.320 Y10.120 E14.64925
G1 X62.008 Y10.377 E14.66283
G1 X61.941 Y10.609 E14.67091
G1 X61.262 Y11.118 E14.69939
G1 X61.124 Y11.428 E14.71076
G1 X61.134 Y11.532 E14.71427
G1 X60.960 Y11.739 E14.72335
G1 X60.400 Y11.789 E14.74221
G1 X60.085 Y12.054 E14.75603
G1 X60.029 Y12.262 E14.76326
G1 X58.623 Y13.376 E14.82347
G1 X58.399 Y13.465 E14.83156
G1 X58.070 Y13.494 E14.84265
G1 X57.767 Y13.729 E14.85552
G1 X57.660 Y14.031 E14.86625
G1 X55.911 Y15.138 E14.93573
G1 X55.724 Y15.201 E14.94235
G1 X40.522 Y16.550 E15.45453
G1 X40.314 Y16.376 E15.46361
G1 X40.299 Y16.204 E15.46940
G1 X39.884 Y15.857 E15.48756
G1 X32.837 Y16.482 E15.72501
G1 X32.695 Y16.428 E15.73008
G1 X32.366 Y16.074 E15.74632
G1 X32.322 Y15.929 E15.75139
G1 X32.511 Y14.761 E15.79110
G1 X32.562 Y14.665 E15.79475
G1 X32.733 Y14.506 E15.80259
G1 X32.823 Y14.114 E15.81608
G1 X32.657 Y13.690 E15.83137
G1 X32.825 Y13.018 E15.85461
G1 X33.043 Y12.832 E15.86424
G1 X33.163 Y12.538 E15.87488
G1 X33.143 Y12.311 E15.88253
G1 X33.278 Y12.150 E15.88959
G1 F2880
G1 X39.651 Y11.556 E12.08959
G1 E11.88959 F1800.00000
G92 E0
G1 X26.329 Y13.208 F3600.000
G1 E4.00000 F1800.00000
G1 X25.668 Y17.141 E4.13383 F900.000
G1 X22.827 Y17.054 E4.22923
G1 X22.429 Y16.971 E4.24286
G1 X18.231 Y15.271 E4.39486
G1 X19.710 Y11.139 E4.54217
G1 X26.272 Y13.190 E4.77289
G1 X25.591 Y13.661 F3600.000
G1 X25.118 Y16.470 E4.86848 F900.000
G1 X22.904 Y16.403 E4.94282
G1 X22.620 Y16.344 E4.95255
G1 X19.057 Y14.901 E5.08156
G1 X20.114 Y11.949 E5.18678
G1 X25.534 Y13.644 E5.37734
G1 X24.852 Y14.115 F3600.000
G1 X24.569 Y15.800 E5.43470 F900.000
G1 X22.982 Y15.752 E5.48797
G1 X22.812 Y15.716 E5.49381
G1 X19.883 Y14.531 E5.59983
G1 X20.518 Y12.760 E5.66296
G1 X24.795 Y14.097 E5.81336
G1 X24.114 Y14.568 F3600.000
G1 X24.019 Y15.130 E5.83248 F900.000
G1 X23.060 Y15.101 E5.86468
G1 X20.710 Y14.161 E5.94963
G1 X20.921 Y13.570 E5.97067
G1 X24.056 Y14.550 E6.08091
G1 F2880
G1 X24.019 Y15.130 E5.73601
G1 F2880
G1 X23.060 Y15.101 E5.16623
G1 F2880
G1 X20.710 Y14.161 E3.66331
G1 F2880
G1 X20.921 Y13.570 E3.29101
G1 F2880
G1 X22.545 Y14.078 E2.28091
G1 E2.08091 F1800.00000
G92 E0
G1 X-2.276 Y-36.879 F3600.000
G1 E4.00000 F1800.00000
G1 X-3.337 Y-36.785 E4.03575 F900.000
G1 X-3.568 Y-36.665 E4.04449
G1 X-3.836 Y-36.343 E4.05854
G1 X-4.644 Y-35.920 E4.08914
G1 X-7.958 Y-35.626 E4.20078
G1 X-9.410 Y-36.842 E4.26433
G1 X-9.425 Y-37.017 E4.27025
G1 X-9.546 Y-37.248 E4.27897
G1 X-9.904 Y-37.547 E4.29463
G1 X-9.915 Y-37.680 E4.29910
G1 X-10.036 Y-37.910 E4.30782
G1 X-10.440 Y-38.249 E4.32554
G1 X-10.567 Y-38.485 E4.33453
G1 X-10.887 Y-38.739 E4.34822
G1 X-11.323 Y-39.503 E4.37775
G1 X-11.409 Y-40.120 E4.39867
G1 X-11.527 Y-40.333 E4.40682
G1 X-11.599 Y-40.394 E4.41001
G1 X-11.609 Y-40.505 E4.41376
G1 X-11.729 Y-40.736 E4.42248
G1 X-12.171 Y-41.106 E4.44182
G1 X-12.286 Y-41.316 E4.44986
G1 X-12.592 Y-41.554 E4.46287
G1 X-13.034 Y-42.299 E4.49195
G1 X-13.119 Y-42.823 E4.50976
G1 X-13.167 Y-42.948 E4.51425
G1 X-13.615 Y-43.649 E4.54219
G1 X-13.752 Y-44.307 E4.56473
G1 X-13.865 Y-44.496 E4.57213
G1 X-14.073 Y-44.670 E4.58123
G1 X-14.082 Y-44.770 E4.58461
G1 X-14.203 Y-45.001 E4.59333
G1 X-14.642 Y-45.369 E4.61258
G1 X-14.790 Y-45.632 E4.62272
G1 X-14.880 Y-45.694 E4.62637
G1 X-15.345 Y-46.344 E4.65319
G1 X-15.512 Y-46.935 E4.67381
G1 X-15.610 Y-47.092 E4.68002
G1 X-16.072 Y-47.515 E4.70104
G1 X-16.854 Y-48.170 E4.73528
G1 X-16.947 Y-49.211 E4.77036
G1 X-17.067 Y-49.441 E4.77908
G1 X-17.400 Y-49.720 E4.79368
G1 X-17.625 Y-49.868 E4.80269
G1 X-18.097 Y-50.467 E4.82829
G1 X-18.330 Y-51.134 E4.85201
G1 X-18.433 Y-51.282 E4.85803
G1 X-18.550 Y-51.378 E4.86312
G1 X-18.884 Y-51.842 E4.88231
G1 X-19.111 Y-51.980 E4.89123
G1 X-19.815 Y-52.243 E4.91643
G1 X-20.252 Y-52.547 E4.93433
G1 X-20.735 Y-53.086 E4.95859
G1 X-21.022 Y-53.199 E4.96896
G1 X-21.700 Y-53.139 E4.99181
G1 X-22.402 Y-53.726 E5.02251
G1 X-22.650 Y-53.804 E5.03123
G1 X-23.419 Y-53.736 E5.05713
G1 X-24.120 Y-54.323 E5.08784
G1 X-24.368 Y-54.401 E5.09656
G1 X-25.505 Y-54.300 E5.13485
G1 X-26.206 Y-54.887 E5.16556
G1 X-26.454 Y-54.965 E5.17428
G1 X-27.566 Y-54.866 E5.21173
G1 X-28.287 Y-55.470 E5.24328
G1 X-28.478 Y-55.547 E5.25020
G1 X-28.765 Y-55.567 E5.25985
G1 X-29.226 Y-55.675 E5.27573
G1 X-29.563 Y-55.813 E5.28796
G1 X-31.680 Y-57.104 E5.37117
G1 X-32.252 Y-58.469 E5.42087
G1 X-31.793 Y-60.434 E5.48858
G1 X-31.737 Y-60.524 E5.49214
G1 X-31.480 Y-61.488 E5.52563
G1 X-31.280 Y-61.803 E5.53813
G1 X-31.229 Y-62.012 E5.54537
G1 X-31.247 Y-62.215 E5.55220
G1 X-30.031 Y-63.667 E5.61576
G1 X-27.156 Y-63.922 E5.71264
G1 X-26.454 Y-63.335 E5.74334
G1 X-26.206 Y-63.257 E5.75206 F900.000
G1 X-24.842 Y-63.378 E5.79802
G1 X-24.141 Y-62.791 E5.82872
G1 X-23.893 Y-62.713 E5.83744
G1 X-22.691 Y-62.820 E5.87795
G1 X-21.989 Y-62.232 E5.90865
G1 X-21.741 Y-62.155 E5.91737
G1 X-20.721 Y-62.245 E5.95175
G1 X-20.019 Y-61.658 E5.98245
G1 X-19.771 Y-61.580 E5.99117
G1 X-19.032 Y-61.646 E6.01610
G1 X-18.330 Y-61.059 E6.04680
G1 X-18.082 Y-60.981 E6.05552
G1 X-17.408 Y-61.041 E6.07825
G1 X-16.627 Y-60.387 E6.11241
G1 X-16.480 Y-60.316 E6.11789
G1 X-16.092 Y-60.238 E6.13117
G1 X-15.781 Y-60.126 E6.14225
G1 X-13.950 Y-59.154 E6.21184
G1 X-13.764 Y-59.116 E6.21821
G1 X-13.608 Y-59.130 E6.22345
G1 X-12.156 Y-57.914 E6.28701
G1 X-12.123 Y-57.540 E6.29961
G1 X-12.003 Y-57.310 E6.30833
G1 X-11.506 Y-56.898 E6.32999
G1 X-10.392 Y-55.438 E6.39162
G1 X-9.210 Y-53.748 E6.46082
G1 X-9.145 Y-53.573 E6.46708
G1 X-8.273 Y-52.394 E6.51631
G1 X-8.262 Y-52.293 E6.51971
G1 X-8.215 Y-52.154 E6.52464
G1 X-7.668 Y-51.272 E6.55948
G1 X-7.445 Y-51.044 E6.57017
G1 X-6.758 Y-49.850 E6.61641
G1 X-6.560 Y-49.645 E6.62595
G1 X-5.474 Y-47.794 E6.69798
G1 X-4.680 Y-46.632 E6.74522
G1 X-4.632 Y-46.428 E6.75225
G1 X-4.025 Y-45.371 E6.79316
G1 X-2.965 Y-43.721 E6.85897
G1 X-2.921 Y-43.569 E6.86428
G1 X-2.403 Y-42.682 E6.89876
G1 X-2.281 Y-42.549 E6.90480
G1 X-1.264 Y-40.885 E6.97025
G1 X-1.232 Y-40.812 E6.97293
G1 X-1.197 Y-39.860 E7.00489
G1 X-1.061 Y-38.332 E7.05639
G1 X-2.238 Y-36.925 E7.11793
G1 X-2.604 Y-37.506 F3600.000
G1 X-3.665 Y-37.412 E7.15370 F900.000
G1 X-3.896 Y-37.291 E7.16245
G1 X-4.255 Y-36.861 E7.18123
G1 X-4.832 Y-36.559 E7.20309
G1 X-7.746 Y-36.301 E7.30127
G1 X-8.783 Y-37.169 E7.34667
G1 X-8.799 Y-37.345 E7.35259
G1 X-8.919 Y-37.575 E7.36131
G1 X-9.277 Y-37.874 E7.37697
G1 X-9.289 Y-38.007 E7.38144
G1 X-9.409 Y-38.237 E7.39016
G1 X-9.814 Y-38.576 E7.40787
G1 X-9.942 Y-38.822 E7.41716
G1 X-10.382 Y-39.172 E7.43604
G1 X-10.693 Y-39.718 E7.45713
G1 X-10.796 Y-40.460 E7.48228
G1 X-10.914 Y-40.672 E7.49043
G1 X-10.973 Y-40.721 E7.49298
G1 X-10.982 Y-40.832 E7.49673
G1 X-11.103 Y-41.063 E7.50545
G1 X-11.533 Y-41.423 E7.52429
G1 X-11.661 Y-41.657 E7.53323
G1 X-12.094 Y-41.993 E7.55163
G1 X-12.409 Y-42.526 E7.57240
G1 X-12.511 Y-43.151 E7.59367
G1 X-13.000 Y-43.900 E7.62369
G1 X-13.159 Y-44.662 E7.64982
G1 X-13.272 Y-44.851 E7.65722
G1 X-13.447 Y-44.997 E7.66485
G1 X-13.456 Y-45.098 E7.66823
G1 X-13.576 Y-45.328 E7.67695
G1 X-14.016 Y-45.696 E7.69620
G1 X-14.020 Y-45.744 E7.69780
G1 X-14.167 Y-45.996 E7.70759
G1 X-14.415 Y-46.167 E7.71771
G1 X-14.747 Y-46.631 E7.73687
G1 X-14.934 Y-47.294 E7.76000
G1 X-15.032 Y-47.452 E7.76622
G1 X-15.539 Y-47.921 E7.78939
G1 X-16.228 Y-48.497 E7.81953
G1 X-16.320 Y-49.538 E7.85461
G1 X-16.440 Y-49.769 E7.86333
G1 X-16.763 Y-50.038 E7.87744
G1 X-16.813 Y-50.122 E7.88071
