; generated by Slic3r 1.2.9 on 2016-06-04 at 00:36:43

; external perimeters extrusion width = 0.40mm
; perimeters extrusion width = 0.56mm
; infill extrusion width = 0.56mm
; solid infill extrusion width = 0.56mm
; top infill extrusion width = 0.56mm
; support material extrusion width = 0.40mm

M107
M190 S110 ; set bed temperature
G21; set mm units 
G92 E0; reset extruder distance 
G90; set absolute coordinates 
G28 ; home all axes
M106 S255; Set cooling fan on
M109 S240 ; set nozzle heater to first layer temperature
G29 ; Self Calibrate
G1 Z15 F2000; slightly raise from bed
G1 X55 Y-50 F2000; move to purging zone
G1 X-35 Y-50 E12 F300.000; extrude a line of filament across the front edge of the bed
G4 P2000; wait for ooze to slow
G1 Z0 F6000.000; lower nozzle height to 0
G1 X-55 F400; wipe nozzle
G1 Z0.35 F6000.000; set nozzle to first layer height
G1 F12000; ensure fast travel to first print move
G92 E0; set E to 0 again
G1 X0 F900; back to home
G1 Z0 F2000; back to home
G21 ; set units to millimeters
G90 ; use absolute coordinates
M82 ; use absolute distances for extrusion
G92 E0
G1 Z0.350 F3600.000
G1 E-4.00000 F1800.00000
G92 E0
G1 X32.822 Y-2.093 F3600.000
G1 E4.00000 F1800.00000
G1 X32.905 Y-2.502 E4.02155 F900.000
G1 X32.886 Y-2.801 E4.03703
G1 X32.961 Y-2.891 E4.04308
G1 X33.000 Y-2.972 E4.04771
G1 X33.233 Y-4.126 E4.10855
G1 X33.373 Y-4.397 E4.12432
G1 X33.496 Y-5.290 E4.17087
G1 X33.968 Y-6.213 E4.22443
G1 X34.828 Y-7.034 E4.28583
G1 X35.773 Y-7.461 E4.33938
G1 X45.449 Y-8.320 E4.84112
G1 X46.094 Y-7.779 E4.88459
G1 X46.230 Y-7.737 E4.89197 F900.000
G1 X50.809 Y-8.143 E5.12943
G1 X51.455 Y-7.603 E5.17290
G1 X51.591 Y-7.560 E5.18028
G1 X59.531 Y-8.264 E5.59204
G1 X60.177 Y-7.724 E5.63551
G1 X60.313 Y-7.681 E5.64289
G1 X63.653 Y-7.978 E5.81607
G1 X64.298 Y-7.437 E5.85954
G1 X64.435 Y-7.395 E5.86692
G1 X70.246 Y-7.910 E6.16829
G1 X70.891 Y-7.370 E6.21176
G1 X71.028 Y-7.327 E6.21914
G1 X71.984 Y-7.412 E6.26875
G1 X73.195 Y-7.006 E6.33468
G1 X74.281 Y-6.021 E6.41042
G1 X74.804 Y-4.857 E6.47635
G1 X74.864 Y1.099 E6.78403
G1 X74.711 Y1.502 E6.80629
G1 X74.700 Y1.583 E6.81050
G1 X74.759 Y2.251 E6.84514
G1 X74.863 Y2.544 E6.86120
G1 X74.723 Y4.538 E6.96446
G1 X74.700 Y5.761 E7.02762
G1 X74.650 Y5.903 E7.03541
G1 X74.531 Y7.265 E7.10603
G1 X74.076 Y8.240 E7.16156
G1 X73.205 Y9.112 E7.22524
G1 X72.096 Y9.634 E7.28854
G1 X70.966 Y10.984 E7.37948
G1 X56.343 Y12.281 E8.13778
G1 X56.216 Y12.347 E8.14516
G1 X55.676 Y12.993 E8.18863
G1 X45.735 Y13.874 E8.70413
G1 X45.649 Y13.905 E8.70885
G1 X44.576 Y14.630 E8.77573
G1 X41.555 Y14.898 E8.93241
G1 X40.909 Y14.357 E8.97588
G1 X40.854 Y14.340 E8.97887
G1 X38.880 Y12.688 E9.11184
G1 X38.764 Y11.378 E9.17975
G1 X38.694 Y11.248 E9.18736
G1 X38.284 Y10.921 E9.21446
G1 X38.070 Y10.235 E9.25159
G1 X38.020 Y10.160 E9.25624
G1 X38.003 Y10.023 E9.26338
G1 X37.829 Y9.462 E9.29371
G1 X37.769 Y9.374 E9.29921
G1 X36.617 Y8.444 E9.37569
G1 X36.528 Y8.157 E9.39123
G1 X36.471 Y8.070 E9.39660
G1 X36.052 Y7.720 E9.42477
G1 X35.981 Y6.912 E9.46667
G1 X35.915 Y6.785 E9.47405
G1 X34.823 Y5.872 E9.54755
G1 X34.732 Y4.847 E9.60071
G1 X34.666 Y4.720 E9.60809
G1 X34.516 Y4.595 E9.61820
G1 X34.418 Y3.492 E9.67538
G1 X34.352 Y3.365 E9.68276
G1 X33.582 Y2.721 E9.73465
G1 X33.371 Y0.408 E9.85457
G1 X33.305 Y0.282 E9.86195
G1 X33.148 Y0.150 E9.87257
G1 X33.011 Y-1.386 E9.95219
G1 X32.838 Y-2.035 E9.98692
G1 X33.191 Y-2.105 F3600.000
G1 X33.267 Y-2.482 E10.00677 F900.000
G1 X33.257 Y-2.685 E10.01725
G1 X33.334 Y-2.811 E10.02491
G1 X33.574 Y-3.998 E10.08746
G1 X33.720 Y-4.279 E10.10384
G1 X33.843 Y-5.181 E10.15084
G1 X34.260 Y-5.996 E10.19809
G1 X35.032 Y-6.732 E10.25319
G1 X35.865 Y-7.109 E10.30045
G1 X45.332 Y-7.949 E10.79136
G1 X45.978 Y-7.409 E10.83483 F900.000
G1 X46.114 Y-7.366 E10.84221
G1 X50.693 Y-7.772 E11.07966
G1 X51.338 Y-7.232 E11.12313
G1 X51.475 Y-7.189 E11.13051
G1 X59.415 Y-7.893 E11.54227
G1 X60.060 Y-7.353 E11.58574
G1 X60.197 Y-7.310 E11.59312
G1 X63.536 Y-7.607 E11.76631
G1 X64.182 Y-7.067 E11.80978
G1 X64.318 Y-7.024 E11.81716
G1 X70.130 Y-7.539 E12.11852
G1 X70.775 Y-6.999 E12.16199
G1 X70.911 Y-6.956 E12.16937
G1 X71.941 Y-7.048 E12.22278
G1 X73.009 Y-6.689 E12.28096
G1 X73.984 Y-5.806 E12.34894
G1 X74.446 Y-4.778 E12.40712
G1 X74.504 Y1.035 E12.70742
G1 X74.346 Y1.452 E12.73044
G1 X74.335 Y1.532 E12.73464
G1 X74.406 Y2.332 E12.77610
G1 X74.499 Y2.598 E12.79065
G1 X74.365 Y4.522 E12.89030
G1 X74.342 Y5.687 E12.95050
G1 X74.297 Y5.818 E12.95765
G1 X74.179 Y7.171 E13.02778
G1 X73.778 Y8.031 E13.07677
G1 X72.996 Y8.813 E13.13392
G1 X72.136 Y9.215 E13.18291
G1 X72.043 Y9.223 E13.18776
G1 X71.916 Y9.289 E13.19513
G1 X70.786 Y10.639 E13.28607
G1 X56.163 Y11.937 E14.04438
G1 X56.036 Y12.003 E14.05175
G1 X55.496 Y12.648 E14.09523
G1 X45.611 Y13.525 E14.60784
G1 X45.525 Y13.556 E14.61255
G1 X44.452 Y14.280 E14.67943
G1 X41.671 Y14.527 E14.82364
G1 X41.026 Y13.987 E14.86711
G1 X40.970 Y13.969 E14.87011
G1 X39.224 Y12.508 E14.98770
G1 X39.108 Y11.193 E15.05588
G1 X39.038 Y11.064 E15.06348
G1 X38.594 Y10.709 E15.09284
G1 X38.139 Y9.251 E15.17172
G1 X38.079 Y9.163 E15.17723
G1 X36.927 Y8.234 E15.25366
G1 X36.840 Y7.950 E15.26902
G1 X36.783 Y7.863 E15.27439
G1 X36.397 Y7.540 E15.30037
G1 X36.325 Y6.732 E15.34227
G1 X36.259 Y6.606 E15.34965
G1 X35.168 Y5.692 E15.42315
G1 X35.077 Y4.667 E15.47631
G1 X35.011 Y4.540 E15.48369
G1 X34.861 Y4.415 E15.49380
G1 X34.763 Y3.312 E15.55098
G1 X34.697 Y3.185 E15.55836
G1 X33.927 Y2.541 E15.61024
G1 X33.716 Y0.229 E15.73017
G1 X33.650 Y0.102 E15.73754
G1 X33.492 Y-0.030 E15.74817
G1 X33.366 Y-1.449 E15.82175
G1 X33.207 Y-2.047 E15.85373
G1 X33.560 Y-2.117 F3600.000
G1 X33.629 Y-2.462 E15.87188 F900.000
G1 X33.627 Y-2.568 E15.87738
G1 X33.668 Y-2.651 E15.88212
G1 X33.914 Y-3.870 E15.94638
G1 X34.066 Y-4.162 E15.96336
G1 X34.191 Y-5.072 E16.01082
G1 X34.552 Y-5.778 E16.05177
G1 X35.236 Y-6.430 E16.10057
G1 X35.958 Y-6.757 E16.14153
G1 X45.216 Y-7.578 E16.62160
G1 X45.861 Y-7.038 E16.66507
G1 X45.997 Y-6.995 E16.67245 F900.000
G1 X50.576 Y-7.401 E16.90991
G1 X51.222 Y-6.861 E16.95338
G1 X51.358 Y-6.818 E16.96076
G1 X59.299 Y-7.523 E17.37252
G1 X59.944 Y-6.982 E17.41599
G1 X60.080 Y-6.940 E17.42337
G1 X63.420 Y-7.236 E17.59655
G1 X64.065 Y-6.696 E17.64002
G1 X64.202 Y-6.653 E17.64740
G1 X70.013 Y-7.169 E17.94877
G1 X70.659 Y-6.628 E17.99224
G1 X70.795 Y-6.586 E17.99962
G1 X71.898 Y-6.683 E18.05683
G1 X72.824 Y-6.373 E18.10725
G1 X73.688 Y-5.590 E18.16748
G1 X74.088 Y-4.700 E18.21790
G1 X74.145 Y0.971 E18.51082
G1 X73.981 Y1.401 E18.53460
G1 X73.970 Y1.482 E18.53880
G1 X74.026 Y2.108 E18.57129
G1 X73.996 Y2.283 E18.58043
G1 X74.136 Y2.651 E18.60077
G1 X74.006 Y4.462 E18.69456
G1 X73.984 Y5.614 E18.75406
G1 X73.944 Y5.733 E18.76056
G1 X73.826 Y7.076 E18.83020
G1 X73.479 Y7.822 E18.87266
G1 X72.786 Y8.515 E18.92328
G1 X72.042 Y8.863 E18.96574
G1 X71.863 Y8.879 E18.97500
G1 X71.737 Y8.945 E18.98237
G1 X70.607 Y10.295 E19.07331
G1 X55.983 Y11.592 E19.83161
G1 X55.857 Y11.658 E19.83899
G1 X55.316 Y12.304 E19.88246
G1 X45.487 Y13.176 E20.39219
G1 X45.401 Y13.206 E20.39690
G1 X44.328 Y13.931 E20.46378
G1 X41.787 Y14.156 E20.59551
G1 X41.142 Y13.616 E20.63899
G1 X41.087 Y13.599 E20.64198
G1 X39.569 Y12.328 E20.74422
G1 X39.452 Y11.009 E20.81265
G1 X39.382 Y10.879 E20.82025
G1 X38.904 Y10.497 E20.85186
G1 X38.449 Y9.040 E20.93069
G1 X38.389 Y8.952 E20.93619
G1 X37.238 Y8.024 E21.01258
G1 X37.152 Y7.743 E21.02776
G1 X37.094 Y7.656 E21.03313
G1 X36.741 Y7.360 E21.05692
G1 X36.670 Y6.552 E21.09882
G1 X36.604 Y6.426 E21.10620
G1 X35.512 Y5.512 E21.17970
G1 X35.421 Y4.487 E21.23286
G1 X35.355 Y4.361 E21.24024
G1 X35.205 Y4.235 E21.25035
G1 X35.107 Y3.132 E21.30753
G1 X35.041 Y3.006 E21.31491
G1 X34.271 Y2.361 E21.36679
G1 X34.060 Y0.049 E21.48672
G1 X33.994 Y-0.078 E21.49409
G1 X33.837 Y-0.210 E21.50472
G1 X33.721 Y-1.512 E21.57226
G1 X33.575 Y-2.059 E21.60149
G1 X33.928 Y-2.129 F3600.000
G1 X34.255 Y-3.742 E21.68648 F900.000
G1 X34.412 Y-4.044 E21.70406
G1 X34.538 Y-4.963 E21.75198
G1 X34.844 Y-5.560 E21.78663
G1 X35.439 Y-6.128 E21.82913
G1 X36.050 Y-6.404 E21.86378
G1 X45.099 Y-7.207 E22.33302
G1 X45.745 Y-6.667 E22.37650 F900.000
G1 X45.881 Y-6.624 E22.38387
G1 X50.460 Y-7.030 E22.62133
G1 X51.105 Y-6.490 E22.66480
G1 X51.242 Y-6.447 E22.67218
G1 X56.898 Y-6.949 E22.96548
G1 X56.941 Y-6.913 E22.96839
G1 X57.237 Y-6.939 E22.98375
G1 X57.273 Y-6.983 E22.98666
G1 X59.182 Y-7.152 E23.08564
G1 X59.828 Y-6.612 E23.12911
G1 X59.964 Y-6.569 E23.13649
G1 X63.304 Y-6.865 E23.30968
G1 X63.949 Y-6.325 E23.35315
G1 X64.085 Y-6.282 E23.36053
G1 X69.897 Y-6.798 E23.66189
G1 X70.542 Y-6.258 E23.70536
G1 X70.679 Y-6.215 E23.71274
G1 X71.855 Y-6.319 E23.77376
G1 X72.638 Y-6.056 E23.81642
G1 X73.391 Y-5.374 E23.86889
G1 X73.730 Y-4.621 E23.91156
G1 X73.785 Y0.907 E24.19710
G1 X73.616 Y1.351 E24.22164
G1 X73.605 Y1.432 E24.22584
G1 X73.654 Y1.979 E24.25425
G1 X73.618 Y2.022 E24.25709
G1 X73.586 Y2.214 E24.26715
G1 X73.772 Y2.705 E24.29428
G1 X73.649 Y4.382 E24.38115
G1 X73.626 Y5.541 E24.44101
G1 X73.591 Y5.648 E24.44686
G1 X73.474 Y6.982 E24.51601
G1 X73.180 Y7.612 E24.55194
G1 X72.577 Y8.216 E24.59602
G1 X71.947 Y8.511 E24.63195
G1 X71.683 Y8.534 E24.64563
G1 X71.557 Y8.600 E24.65300
G1 X70.427 Y9.950 E24.74394
G1 X55.803 Y11.248 E25.50225
G1 X55.677 Y11.314 E25.50962
G1 X55.137 Y11.959 E25.55310
G1 X45.238 Y12.837 E26.06639
G1 X45.084 Y12.941 E26.07596
G1 X45.049 Y13.010 E26.07999
G1 X44.204 Y13.581 E26.13268
G1 X41.904 Y13.785 E26.25194
G1 X41.258 Y13.245 E26.29542
G1 X41.203 Y13.228 E26.29841
G1 X39.913 Y12.148 E26.38528
G1 X39.796 Y10.824 E26.45397
G1 X39.726 Y10.694 E26.46158
G1 X39.214 Y10.285 E26.49544
G1 X38.853 Y9.129 E26.55798
G1 X38.879 Y9.043 E26.56263
G1 X38.814 Y8.834 E26.57394
G1 X37.549 Y7.813 E26.65790
G1 X37.464 Y7.536 E26.67290
G1 X37.406 Y7.449 E26.67827
G1 X37.086 Y7.181 E26.69987
G1 X37.014 Y6.372 E26.74177
G1 X36.948 Y6.246 E26.74915
G1 X35.857 Y5.333 E26.82265
G1 X35.766 Y4.307 E26.87581
G1 X35.700 Y4.181 E26.88319
G1 X35.550 Y4.055 E26.89330
G1 X35.452 Y2.952 E26.95048
G1 X35.386 Y2.826 E26.95786
G1 X34.616 Y2.181 E27.00974
G1 X34.405 Y-0.131 E27.12967
G1 X34.339 Y-0.258 E27.13704
G1 X34.181 Y-0.390 E27.14767
G1 X34.076 Y-1.576 E27.20917
G1 X33.944 Y-2.071 E27.23566
G1 X34.297 Y-2.141 F3600.000
G1 X34.595 Y-3.614 E27.31325 F900.000
G1 X34.758 Y-3.926 E27.33144
G1 X34.886 Y-4.854 E27.37981
G1 X35.136 Y-5.342 E27.40817
G1 X35.643 Y-5.826 E27.44437
G1 X36.143 Y-6.052 E27.47272
G1 X44.983 Y-6.836 E27.93113
G1 X45.628 Y-6.296 E27.97460
G1 X45.765 Y-6.253 E27.98198 F900.000
G1 X50.344 Y-6.660 E28.21943
G1 X50.989 Y-6.119 E28.26290
G1 X51.125 Y-6.077 E28.27028
G1 X56.782 Y-6.578 E28.56359
G1 X56.986 Y-6.407 E28.57736
G1 X57.282 Y-6.434 E28.59272
G1 X57.453 Y-6.638 E28.60649
G1 X59.066 Y-6.781 E28.69011
G1 X59.711 Y-6.241 E28.73358
G1 X59.847 Y-6.198 E28.74096
G1 X63.187 Y-6.494 E28.91414
G1 X63.833 Y-5.954 E28.95762
G1 X63.969 Y-5.911 E28.96499
G1 X69.780 Y-6.427 E29.26636
G1 X70.426 Y-5.887 E29.30983
G1 X70.562 Y-5.844 E29.31721
G1 X71.812 Y-5.955 E29.38203
G1 X72.453 Y-5.740 E29.41694
G1 X73.094 Y-5.159 E29.46165
G1 X73.371 Y-4.542 E29.49656
G1 X73.425 Y0.843 E29.77472
G1 X73.251 Y1.301 E29.80002
G1 X73.240 Y1.381 E29.80422
G1 X73.283 Y1.863 E29.82921
G1 X73.208 Y1.952 E29.83523
G1 X73.176 Y2.144 E29.84529
G1 X73.408 Y2.758 E29.87920
G1 X73.291 Y4.302 E29.95915
G1 X73.269 Y5.467 E30.01938
G1 X73.238 Y5.563 E30.02457
G1 X73.122 Y6.888 E30.09324
G1 X72.882 Y7.403 E30.12263
G1 X72.368 Y7.918 E30.16018
G1 X71.852 Y8.159 E30.18958
G1 X71.284 Y8.209 E30.21904
G1 X71.093 Y8.437 E30.23440
G1 X71.106 Y8.579 E30.24178
G1 X70.247 Y9.606 E30.31091
G1 X55.623 Y10.903 E31.06922
G1 X55.497 Y10.969 E31.07659
G1 X54.957 Y11.615 E31.12007
G1 X45.008 Y12.497 E31.63594
G1 X44.855 Y12.601 E31.64552
G1 X44.771 Y12.765 E31.65502
G1 X44.080 Y13.232 E31.69813
G1 X42.020 Y13.415 E31.80492
G1 X41.375 Y12.874 E31.84839
G1 X41.319 Y12.857 E31.85139
G1 X40.258 Y11.968 E31.92290
G1 X40.140 Y10.639 E31.99184
G1 X40.070 Y10.509 E31.99945
G1 X39.524 Y10.073 E32.03556
G1 X39.229 Y9.127 E32.08673
G1 X39.292 Y8.916 E32.09817
G1 X39.228 Y8.706 E32.10948
G1 X37.860 Y7.603 E32.20025
G1 X37.776 Y7.328 E32.21506
G1 X37.718 Y7.242 E32.22044
G1 X37.430 Y7.001 E32.23984
G1 X37.359 Y6.193 E32.28174
G1 X37.293 Y6.066 E32.28912
G1 X36.201 Y5.153 E32.36262
G1 X36.110 Y4.128 E32.41578
G1 X36.044 Y4.001 E32.42316
G1 X35.894 Y3.875 E32.43327
G1 X35.796 Y2.772 E32.49045
G1 X35.730 Y2.646 E32.49783
G1 X34.960 Y2.001 E32.54971
G1 X34.749 Y-0.311 E32.66964
G1 X34.683 Y-0.438 E32.67702
G1 X34.526 Y-0.570 E32.68764
G1 X34.431 Y-1.639 E32.74310
G1 X34.313 Y-2.083 E32.76684
G1 F2880
G1 X34.595 Y-3.614 E31.84290
G1 F2880
G1 X34.758 Y-3.926 E31.63380
G1 F2880
G1 X34.886 Y-4.854 E31.07778
G1 F2880
G1 X35.136 Y-5.342 E30.75187
G1 F2880
G1 X35.643 Y-5.826 E30.33577
G1 F2880
G1 X36.143 Y-6.052 E30.00985
G1 F2880
G1 X37.893 Y-6.207 E28.96685
G1 E28.76684 F1800.00000
G92 E0
G1 X26.961 Y-9.103 F3600.000
G1 X27.331 Y-12.245 F3600.000
G1 X67.477 Y-9.887 F3600.000
G1 X57.031 Y-5.902 F3600.000
G1 E4.00000 F1800.00000
G1 X57.327 Y-5.928 E4.01536 F900.000
G1 X57.633 Y-6.294 E4.04000
G1 X58.949 Y-6.410 E4.10825
G1 X59.595 Y-5.870 E4.15172
G1 X59.731 Y-5.827 E4.15910
G1 X63.071 Y-6.124 E4.33229
G1 X63.716 Y-5.583 E4.37576
G1 X63.852 Y-5.541 E4.38314
G1 X69.664 Y-6.056 E4.68450
G1 X70.309 Y-5.516 E4.72797
G1 X70.446 Y-5.473 E4.73535
G1 X71.769 Y-5.591 E4.80398
G1 X72.267 Y-5.423 E4.83113
G1 X72.798 Y-4.943 E4.86808
G1 X73.013 Y-4.464 E4.89523
G1 X73.066 Y0.779 E5.16602
G1 X72.886 Y1.250 E5.19208
G1 X72.875 Y1.331 E5.19628
G1 X72.912 Y1.747 E5.21784
G1 X72.754 Y1.935 E5.23056
G1 X72.768 Y2.216 E5.24507
G1 X72.849 Y2.296 E5.25096
G1 X73.045 Y2.812 E5.27946
G1 X72.934 Y4.221 E5.35249
G1 X72.911 Y5.394 E5.41309
G1 X72.886 Y5.478 E5.41763
G1 X72.770 Y6.793 E5.48581
G1 X72.583 Y7.194 E5.50867
G1 X72.159 Y7.619 E5.53969
G1 X71.758 Y7.807 E5.56255
G1 X70.895 Y7.883 E5.60729
G1 X70.704 Y8.111 E5.62265
G1 X70.735 Y8.463 E5.64089
G1 X70.067 Y9.261 E5.69467
G1 X55.444 Y10.559 E6.45297
G1 X55.317 Y10.625 E6.46035
G1 X54.777 Y11.270 E6.50382
G1 X44.779 Y12.157 E7.02227
G1 X44.625 Y12.261 E7.03185
G1 X44.493 Y12.519 E7.04683
G1 X43.956 Y12.882 E7.08036
G1 X42.137 Y13.044 E7.17468
G1 X40.602 Y11.789 E7.27707
G1 X40.484 Y10.454 E7.34627
G1 X40.414 Y10.324 E7.35388
G1 X39.834 Y9.861 E7.39225
G1 X39.604 Y9.126 E7.43205
G1 X39.718 Y8.748 E7.45241
G1 X39.619 Y8.511 E7.46570
G1 X39.439 Y8.416 E7.47618
G1 X38.171 Y7.392 E7.56035
G1 X38.088 Y7.121 E7.57499
G1 X38.030 Y7.035 E7.58037
G1 X37.775 Y6.821 E7.59758
G1 X37.700 Y5.974 E7.64147
G1 X37.634 Y5.848 E7.64885
G1 X37.442 Y5.687 E7.66176
G1 X37.374 Y5.666 E7.66545
G1 X36.546 Y4.973 E7.72122
G1 X36.455 Y3.948 E7.77438
G1 X36.389 Y3.821 E7.78176
G1 X36.239 Y3.695 E7.79187
G1 X36.141 Y2.593 E7.84906
G1 X36.075 Y2.466 E7.85643
G1 X35.305 Y1.821 E7.90832
G1 X35.174 Y0.352 E7.98451
G1 X35.232 Y0.193 E7.99327
G1 X35.213 Y0.020 E8.00226
G1 X35.127 Y-0.120 E8.01073
G1 X35.094 Y-0.491 E8.02997
G1 X35.028 Y-0.617 E8.03734
G1 X34.870 Y-0.749 E8.04797
G1 X34.786 Y-1.703 E8.09739
G1 X34.666 Y-2.153 E8.12149
G1 X34.935 Y-3.486 E8.19170
G1 X35.105 Y-3.808 E8.21049
G1 X35.233 Y-4.744 E8.25932
G1 X35.427 Y-5.124 E8.28137
G1 X35.846 Y-5.524 E8.31127
G1 X36.235 Y-5.700 E8.33332
G1 X41.797 Y-6.193 E8.62175
G1 X41.847 Y-6.152 E8.62511
G1 X42.144 Y-6.178 E8.64047
G1 X42.185 Y-6.228 E8.64383
G1 X44.866 Y-6.466 E8.78287
G1 X45.512 Y-5.925 E8.82634
G1 X45.648 Y-5.883 E8.83372
G1 X50.227 Y-6.289 E9.07117
G1 X50.873 Y-5.749 E9.11464
G1 X51.009 Y-5.706 E9.12202
G1 X56.665 Y-6.208 E9.41532
G1 X56.985 Y-5.940 E9.43686
G1 X57.076 Y-5.396 F3600.000
G1 X57.372 Y-5.422 E9.45222 F900.000
G1 X57.813 Y-5.949 E9.48772
G1 X58.833 Y-6.040 E9.54061
G1 X59.478 Y-5.499 E9.58408
G1 X59.615 Y-5.457 E9.59146
G1 X60.733 Y-5.556 E9.64945
G1 X60.764 Y-5.530 E9.65155
G1 X61.060 Y-5.556 E9.66691
G1 X61.086 Y-5.587 E9.66901
G1 X62.954 Y-5.753 E9.76587
G1 X63.600 Y-5.213 E9.80935
G1 X63.736 Y-5.170 E9.81672
G1 X69.548 Y-5.685 E10.11809
