; generated by Slic3r 1.2.9 on 2016-05-30 at 16:32:13

; external perimeters extrusion width = 0.40mm
; perimeters extrusion width = 0.68mm
; infill extrusion width = 0.87mm
; solid infill extrusion width = 0.68mm
; top infill extrusion width = 0.68mm
; support material extrusion width = 0.40mm

M107
M190 S110 ; set bed temperature
G21; set mm units 
G92 E0; reset extruder distance 
G90; set absolute coordinates 
G28 ; home all axes
M106 S255; Set cooling fan on
M109 S240 ; set nozzle heater to first layer temperature
G29 ; Self Calibrate
G1 Z15 F2000; slightly raise from bed
G1 X55 Y-50 F2000; move to purging zone
G1 X-35 Y-50 E12 F300.000; extrude a line of filament across the front edge of the bed
G4 P2000; wait for ooze to slow
G1 Z0 F6000.000; lower nozzle height to 0
G1 X-55 F400; wipe nozzle
G1 Z0.35 F6000.000; set nozzle to first layer height
G1 F12000; ensure fast travel to first print move
G92 E0; set E to 0 again
G1 X0 F900; back to home
G1 Z0 F2000; back to home
G21 ; set units to millimeters
G90 ; use absolute coordinates
M82 ; use absolute distances for extrusion
G92 E0
G1 Z0.350 F3600.000
G1 E-4.00000 F1800.00000
G92 E0
G1 X-4.497 Y-5.122 F3600.000
G1 E4.00000 F1800.00000
G1 X-3.932 Y-5.618 E4.03881 F900.000
G1 X-3.673 Y-5.801 E4.05519
G1 X-2.485 Y-6.471 E4.12566
G1 X-2.194 Y-6.597 E4.14205
G1 X-0.873 Y-7.012 E4.21354
G1 X-0.523 Y-7.079 E4.23198
G1 X1.138 Y-7.198 E4.31796
G1 X1.494 Y-7.182 E4.33639
G1 X2.267 Y-7.055 E4.37687
G1 X2.447 Y-7.123 E4.38679
G1 X3.392 Y-8.274 E4.46371
G1 X4.811 Y-10.424 E4.59680
G1 X5.564 Y-11.779 E4.67687
G1 X7.756 Y-16.325 E4.93753
G1 X8.863 Y-18.346 E5.05655
G1 X10.049 Y-20.045 E5.16361
G1 X11.376 Y-21.719 E5.27392
G1 X14.188 Y-24.871 E5.49209
G1 X14.444 Y-25.100 E5.50983
G1 X16.497 Y-26.543 E5.63945
G1 X23.701 Y-30.475 E6.06339
G1 X26.447 Y-32.108 E6.22844
G1 X28.880 Y-33.668 E6.37770
G1 X33.536 Y-37.041 E6.67468
G1 X34.898 Y-38.141 E6.76512
G1 X36.060 Y-39.222 E6.84706
G1 X37.015 Y-40.434 E6.92679
G1 X37.866 Y-41.852 E7.01221
G1 X38.634 Y-43.441 E7.10337
G1 X41.455 Y-50.588 E7.50023
G1 X44.535 Y-51.332 E7.66393
G1 X45.797 Y-50.224 E7.75070
G1 X48.125 Y-48.111 E7.91305 F900.000
G1 X48.556 Y-46.254 E8.01151
G1 X45.867 Y-39.468 E8.38858
G1 X44.877 Y-37.402 E8.50687
G1 X43.707 Y-35.419 E8.62581
G1 X42.277 Y-33.547 E8.74748
G1 X42.122 Y-33.375 E8.75949
G1 X40.596 Y-31.921 E8.86834
G1 X38.944 Y-30.557 E8.97899
G1 X35.705 Y-28.140 E9.18771
G1 X33.293 Y-26.500 E9.33839
G1 X28.005 Y-23.316 E9.65721
G1 X23.591 Y-20.987 E9.91505
G1 X21.337 Y-19.895 E10.04441
G1 X20.028 Y-19.031 E10.12543
G1 X19.154 Y-18.237 E10.18638
G1 X17.179 Y-16.174 E10.33395
G1 X15.421 Y-13.939 E10.48079
G1 X14.522 Y-12.434 E10.57135
G1 X11.832 Y-7.331 E10.86932
G1 X10.731 Y-5.497 E10.97981
G1 X9.526 Y-3.723 E11.09057
G1 X8.402 Y-2.306 E11.18399
G1 X8.373 Y-2.117 E11.19389
G1 X8.657 Y-1.384 E11.23451
G1 X8.741 Y-1.077 E11.25090
G1 X8.961 Y0.269 E11.32137
G1 X8.980 Y0.586 E11.33775
G1 X8.918 Y1.948 E11.40822
G1 X8.870 Y2.262 E11.42461
G1 X8.529 Y3.583 E11.49508
G1 X8.418 Y3.880 E11.51146
G1 X7.811 Y5.102 E11.58193
G1 X7.641 Y5.370 E11.59832
G1 X7.061 Y6.105 E11.64667
G1 X7.033 Y6.293 E11.65652
G1 X7.463 Y7.404 E11.71808
G1 X8.301 Y9.198 E11.82032
G1 X9.526 Y11.300 E11.94598
G1 X12.363 Y15.466 E12.20632
G1 X13.560 Y17.434 E12.32534
G1 X14.438 Y19.312 E12.43240
G1 X15.224 Y21.298 E12.54270
G1 X16.548 Y25.309 E12.76088
G1 X16.618 Y25.645 E12.77863
G1 X16.842 Y28.155 E12.90882
G1 X16.657 Y34.567 E13.24015
G1 X16.720 Y40.554 E13.54940
G1 X16.995 Y44.577 E13.75768
G1 X17.697 Y49.932 E14.03666
G1 X18.049 Y51.452 E14.11724
G1 X18.613 Y52.859 E14.19554
G1 X19.415 Y54.305 E14.28095
G1 X20.415 Y55.776 E14.37281
G1 X25.196 Y61.793 E14.76978
G1 X24.267 Y64.856 E14.93508
G1 X19.708 Y66.319 E15.18240
G1 X17.883 Y65.764 E15.28091
G1 X13.285 Y59.954 E15.66363
G1 X11.986 Y58.039 E15.78315
G1 X10.842 Y55.980 E15.90483
G1 X10.017 Y53.973 E16.01691
G1 X9.946 Y53.752 E16.02892
G1 X9.450 Y51.704 E16.13777
G1 X9.084 Y49.519 E16.25221
G1 X8.615 Y45.512 E16.46057
G1 X8.402 Y42.585 E16.61216
G1 X8.292 Y36.584 E16.92220
G1 X8.483 Y31.510 E17.18448
G1 X8.665 Y29.012 E17.31384
G1 X8.570 Y27.446 E17.39486
G1 X8.320 Y26.293 E17.45581
G1 X7.521 Y23.550 E17.60338
G1 X6.464 Y20.911 E17.75023
G1 X5.610 Y19.380 E17.84078
G1 X2.536 Y14.498 E18.13875
G1 X1.498 Y12.628 E18.24925
G1 X0.565 Y10.697 E18.36000
G1 X-0.101 Y9.015 E18.45344
G1 X-0.254 Y8.895 E18.46351
G1 X-0.891 Y8.807 E18.49671
G1 X-1.199 Y8.732 E18.51310
G1 X-2.483 Y8.272 E18.58357
G1 X-2.769 Y8.134 E18.59996
G1 X-3.948 Y7.409 E18.67145
G1 X-4.228 Y7.188 E18.68989
G1 X-5.405 Y6.011 E18.77586
G1 X-5.626 Y5.730 E18.79430
G1 X-6.352 Y4.552 E18.86580
G1 X-6.489 Y4.266 E18.88218
G1 X-6.698 Y3.682 E18.91422
G1 X-6.848 Y3.557 E18.92432
G1 X-8.317 Y3.314 E19.00123
G1 X-10.889 Y3.160 E19.13432
G1 X-12.439 Y3.185 E19.21439
G1 X-17.472 Y3.560 E19.47505
G1 X-19.776 Y3.612 E19.59407
G1 X-21.841 Y3.434 E19.70113
G1 X-23.953 Y3.122 E19.81144
G1 X-28.089 Y2.263 E20.02962
G1 X-28.415 Y2.156 E20.04736
G1 X-30.692 Y1.100 E20.17698
G1 X-37.693 Y-3.170 E20.60057
G1 X-40.492 Y-4.738 E20.76628
G1 X-43.063 Y-6.067 E20.91576
G1 X-48.294 Y-8.404 E21.21171
G1 X-49.948 Y-9.042 E21.30329
G1 X-51.480 Y-9.509 E21.38601
G1 X-52.981 Y-9.724 E21.46431
G1 X-54.634 Y-9.752 E21.54973
G1 X-56.408 Y-9.622 E21.64158
G1 X-64.000 Y-8.491 E22.03810
G1 X-66.187 Y-10.804 E22.20248
G1 X-65.647 Y-13.415 E22.34019
G1 X-65.175 Y-15.515 E22.45139
G1 X-63.802 Y-16.800 E22.54850
G1 X-58.707 Y-17.593 E22.81484
G1 X-56.449 Y-17.886 E22.93243
G1 X-54.153 Y-18.053 E23.05132
G1 X-51.798 Y-18.014 E23.17300
G1 X-49.648 Y-17.725 E23.28508
G1 X-49.420 Y-17.677 E23.29709
G1 X-47.398 Y-17.082 E23.40594
G1 X-45.323 Y-16.306 E23.52037
G1 X-41.619 Y-14.709 E23.72874
G1 X-38.977 Y-13.430 E23.88033
G1 X-33.725 Y-10.525 E24.19037
G1 X-29.426 Y-7.822 E24.45265
G1 X-27.354 Y-6.416 E24.58201
G1 X-25.951 Y-5.715 E24.66303
G1 X-24.815 Y-5.352 E24.72461
G1 X-22.035 Y-4.672 E24.87244
G1 X-19.238 Y-4.271 E25.01839
G1 X-17.485 Y-4.245 E25.10896
G1 X-11.721 Y-4.467 E25.40692
G1 X-9.582 Y-4.430 E25.51741
G1 X-7.443 Y-4.274 E25.62817
G1 X-5.656 Y-4.009 E25.72148
G1 X-5.473 Y-4.084 E25.73172
G1 X-5.173 Y-4.485 E25.75758
G1 X-4.958 Y-4.718 E25.77396
G1 X-4.542 Y-5.083 E25.80253
G1 X-4.260 Y-4.852 F3600.000
G1 X-3.709 Y-5.336 E25.84037 F900.000
G1 X-3.481 Y-5.498 E25.85483
G1 X-2.325 Y-6.149 E25.92337
G1 X-2.068 Y-6.260 E25.93783
G1 X-0.786 Y-6.664 E26.00727
G1 X-0.476 Y-6.723 E26.02354
G1 X1.142 Y-6.838 E26.10735
G1 X1.457 Y-6.824 E26.12362
G1 X2.414 Y-6.667 E26.17370
G1 X2.593 Y-6.735 E26.18362
G1 X3.681 Y-8.061 E26.27218
G1 X5.118 Y-10.238 E26.40694
G1 X5.883 Y-11.614 E26.48826
G1 X8.078 Y-16.165 E26.74924
G1 X9.163 Y-18.149 E26.86603
G1 X10.340 Y-19.835 E26.97228
G1 X11.654 Y-21.491 E27.08146
G1 X14.442 Y-24.617 E27.29779
G1 X14.668 Y-24.819 E27.31345
G1 X16.678 Y-26.233 E27.44039
G1 X23.873 Y-30.160 E27.86378
G1 X26.641 Y-31.806 E28.03015
G1 X29.091 Y-33.377 E28.18046
G1 X33.747 Y-36.750 E28.47744
G1 X35.143 Y-37.878 E28.57015
G1 X36.343 Y-38.998 E28.65496
G1 X37.311 Y-40.230 E28.73586
G1 X38.182 Y-41.681 E28.82328
G1 X38.969 Y-43.309 E28.91667
G1 X41.720 Y-50.283 E29.30391
G1 X44.438 Y-50.940 E29.44835
G1 X45.576 Y-49.940 E29.52656 F900.000
G1 X47.800 Y-47.921 E29.68174
G1 X48.181 Y-46.282 E29.76861
G1 X45.497 Y-39.518 E30.14452
G1 X44.502 Y-37.462 E30.26250
G1 X43.312 Y-35.476 E30.38208
G1 X42.001 Y-33.777 E30.49289
G1 X41.864 Y-33.625 E30.50349
G1 X40.353 Y-32.185 E30.61129
G1 X38.669 Y-30.797 E30.72405
G1 X35.446 Y-28.397 E30.93160
G1 X33.033 Y-26.759 E31.08221
G1 X27.899 Y-23.669 E31.39174
G1 X23.426 Y-21.306 E31.65307
G1 X21.159 Y-20.208 E31.78317
G1 X19.807 Y-19.315 E31.86688
G1 X18.903 Y-18.494 E31.92991
G1 X16.896 Y-16.396 E32.07990
G1 X15.125 Y-14.143 E32.22794
G1 X14.209 Y-12.610 E32.32019
G1 X11.517 Y-7.503 E32.61838
G1 X10.426 Y-5.686 E32.72783
G1 X9.233 Y-3.931 E32.83746
G1 X7.992 Y-2.369 E32.94049
G1 X7.963 Y-2.179 E32.95038
G1 X8.316 Y-1.271 E33.00070
G1 X8.389 Y-1.001 E33.01516
G1 X8.604 Y0.308 E33.08370
G1 X8.620 Y0.588 E33.09816
G1 X8.560 Y1.913 E33.16670
G1 X8.518 Y2.190 E33.18116
G1 X8.186 Y3.475 E33.24970
G1 X8.088 Y3.737 E33.26416
G1 X7.498 Y4.926 E33.33270
G1 X7.348 Y5.162 E33.34716
G1 X6.652 Y6.043 E33.40514
G1 X6.624 Y6.232 E33.41499
G1 X7.133 Y7.545 E33.48776
G1 X7.990 Y9.379 E33.59233
G1 X9.229 Y11.502 E33.71928
G1 X12.064 Y15.664 E33.97940
G1 X13.239 Y17.596 E34.09619
G1 X14.111 Y19.459 E34.20244
G1 X14.888 Y21.424 E34.31162
G1 X16.201 Y25.402 E34.52796
G1 X16.263 Y25.698 E34.54361
G1 X16.483 Y28.156 E34.67106
G1 X16.298 Y34.564 E35.00219
G1 X16.361 Y40.568 E35.31234
G1 X16.638 Y44.612 E35.52173
G1 X17.343 Y49.996 E35.80218
G1 X17.705 Y51.560 E35.88508
G1 X18.288 Y53.013 E35.96599
G1 X19.109 Y54.493 E36.05340
G1 X20.125 Y55.989 E36.14679
G1 X24.797 Y61.869 E36.53473
G1 X23.978 Y64.571 E36.68058
G1 X19.705 Y65.943 E36.91239
G1 X18.095 Y65.453 E36.99931
G1 X13.578 Y59.746 E37.37525
G1 X12.295 Y57.857 E37.49322
G1 X11.170 Y55.833 E37.61281
G1 X10.355 Y53.849 E37.72361
G1 X10.291 Y53.654 E37.73421
G1 X9.800 Y51.626 E37.84202
G1 X9.440 Y49.472 E37.95478
G1 X8.972 Y45.482 E38.16232
G1 X8.761 Y42.574 E38.31293
G1 X8.651 Y36.582 E38.62246
G1 X8.841 Y31.526 E38.88379
G1 X9.025 Y29.014 E39.01390
G1 X8.927 Y27.397 E39.09760
G1 X8.668 Y26.204 E39.16063
G1 X7.860 Y23.433 E39.30973
G1 X6.789 Y20.756 E39.45867
G1 X5.919 Y19.196 E39.55091
G1 X2.842 Y14.311 E39.84910
G1 X1.815 Y12.458 E39.95855
G1 X0.891 Y10.548 E40.06818
G1 X0.157 Y8.688 E40.17144
G1 X0.004 Y8.567 E40.18151
G1 X-0.823 Y8.454 E40.22463
G1 X-1.095 Y8.387 E40.23908
G1 X-2.345 Y7.940 E40.30763
G1 X-2.597 Y7.819 E40.32208
G1 X-3.742 Y7.114 E40.39153
G1 X-3.989 Y6.919 E40.40780
G1 X-5.136 Y5.772 E40.49160
G1 X-5.331 Y5.524 E40.50787
G1 X-6.036 Y4.379 E40.57732
G1 X-6.157 Y4.127 E40.59178
G1 X-6.431 Y3.362 E40.63376
G1 X-6.582 Y3.237 E40.64385
G1 X-8.277 Y2.957 E40.73262
G1 X-10.882 Y2.801 E40.86739
G1 X-12.456 Y2.827 E40.94870
G1 X-17.494 Y3.201 E41.20968
G1 X-19.755 Y3.254 E41.32647
G1 X-21.804 Y3.077 E41.43273
G1 X-23.895 Y2.768 E41.54190
G1 X-27.996 Y1.916 E41.75824
G1 X-28.284 Y1.821 E41.77390
G1 X-30.514 Y0.788 E41.90084
G1 X-37.512 Y-3.480 E42.32423
G1 X-40.322 Y-5.054 E42.49059
G1 X-42.907 Y-6.391 E42.64091
G1 X-48.156 Y-8.736 E42.93788
G1 X-49.831 Y-9.381 E43.03059
G1 X-51.401 Y-9.861 E43.11540
G1 X-52.952 Y-10.083 E43.19631
G1 X-54.644 Y-10.111 E43.28373
G1 X-56.447 Y-9.979 E43.37711
G1 X-63.868 Y-8.874 E43.76465
G1 X-65.797 Y-10.915 E43.90970
G1 X-65.296 Y-13.341 E44.03765
G1 X-64.849 Y-15.329 E44.14291
G1 X-63.637 Y-16.462 E44.22859
G1 X-58.654 Y-17.237 E44.48910
G1 X-56.417 Y-17.529 E44.60560
G1 X-54.150 Y-17.694 E44.72302
G1 X-51.835 Y-17.657 E44.84260
G1 X-49.709 Y-17.371 E44.95341
G1 X-49.508 Y-17.328 E44.96401
G1 X-47.506 Y-16.740 E45.07181
G1 X-45.461 Y-15.975 E45.18457
G1 X-41.771 Y-14.384 E45.39211
G1 X-39.147 Y-13.114 E45.54273
G1 X-33.903 Y-10.213 E45.85226
G1 X-29.620 Y-7.520 E46.11358
G1 X-27.536 Y-6.105 E46.24369
G1 X-26.086 Y-5.381 E46.32740
G1 X-24.913 Y-5.006 E46.39106
G1 X-22.103 Y-4.320 E46.54042
G1 X-19.266 Y-3.912 E46.68846
G1 X-17.481 Y-3.886 E46.78071
G1 X-11.712 Y-4.108 E47.07890
G1 X-9.593 Y-4.071 E47.18835
G1 X-7.477 Y-3.916 E47.29797
G1 X-5.498 Y-3.622 E47.40133
G1 X-5.314 Y-3.697 E47.41157
G1 X-4.897 Y-4.255 E47.44755
G1 X-4.707 Y-4.460 E47.46201
G1 X-4.305 Y-4.813 E47.48960
G1 X-4.023 Y-4.582 F3600.000
G1 X-3.487 Y-5.054 E47.52648 F900.000
G1 X-3.289 Y-5.194 E47.53901
G1 X-2.165 Y-5.827 E47.60563
G1 X-1.942 Y-5.923 E47.61816
G1 X-0.698 Y-6.315 E47.68556
G1 X-0.430 Y-6.366 E47.69966
G1 X1.147 Y-6.479 E47.78129
G1 X1.420 Y-6.466 E47.79539
G1 X2.560 Y-6.280 E47.85507
G1 X2.740 Y-6.347 E47.86499
G1 X3.970 Y-7.847 E47.96520
G1 X5.426 Y-10.051 E48.10164
G1 X6.202 Y-11.449 E48.18420
G1 X8.399 Y-16.005 E48.44550
G1 X9.463 Y-17.951 E48.56006
G1 X10.632 Y-19.625 E48.66551
G1 X11.932 Y-21.264 E48.77355
G1 X14.696 Y-24.363 E48.98805
G1 X14.892 Y-24.538 E49.00162
G1 X16.859 Y-25.923 E49.12589
G1 X24.051 Y-29.848 E49.54907
G1 X26.830 Y-31.501 E49.71609
G1 X29.293 Y-33.080 E49.86725
G1 X33.965 Y-36.465 E50.16523
G1 X35.369 Y-37.599 E50.25844
G1 X36.608 Y-38.754 E50.34598
G1 X37.607 Y-40.026 E50.42949
G1 X38.498 Y-41.510 E50.51891
G1 X39.298 Y-43.165 E50.61383
G1 X41.986 Y-49.978 E50.99213
G1 X44.342 Y-50.547 E51.11732
G1 X45.321 Y-49.686 E51.18467
G1 X47.476 Y-47.730 E51.33498 F900.000
G1 X47.806 Y-46.310 E51.41027
G1 X45.204 Y-39.744 E51.77510
G1 X44.237 Y-37.728 E51.89060
G1 X43.101 Y-35.804 E52.00599
G1 X41.726 Y-34.008 E52.12286
G1 X40.110 Y-32.450 E52.23878
G1 X38.450 Y-31.082 E52.34986
G1 X35.282 Y-28.721 E52.55395
G1 X32.898 Y-27.099 E52.70291
G1 X27.661 Y-23.946 E53.01863
G1 X23.261 Y-21.625 E53.27561
G1 X20.981 Y-20.521 E53.40647
G1 X19.585 Y-19.599 E53.49286
G1 X18.652 Y-18.751 E53.55796
G1 X16.624 Y-16.632 E53.70949
G1 X14.828 Y-14.347 E53.85962
G1 X13.896 Y-12.785 E53.95355
G1 X11.201 Y-7.675 E54.25197
G1 X10.121 Y-5.876 E54.36038
G1 X8.940 Y-4.139 E54.46887
G1 X7.583 Y-2.431 E54.58151
G1 X7.554 Y-2.242 E54.59141
G1 X7.974 Y-1.159 E54.65142
G1 X8.038 Y-0.925 E54.66395
G1 X8.246 Y0.348 E54.73057
G1 X8.261 Y0.590 E54.74310
G1 X8.202 Y1.878 E54.80971
G1 X8.166 Y2.118 E54.82224
G1 X7.843 Y3.367 E54.88885
G1 X7.758 Y3.594 E54.90138
G1 X7.185 Y4.749 E54.96800
G1 X7.055 Y4.954 E54.98053
G1 X6.249 Y5.974 E55.04767
G1 X6.217 Y6.150 E55.05691
G1 X6.802 Y7.686 E55.14181
G1 X7.671 Y9.546 E55.24785
G1 X8.925 Y11.694 E55.37630
G1 X11.764 Y15.863 E55.63684
G1 X12.918 Y17.757 E55.75140
G1 X13.783 Y19.606 E55.85685
G1 X14.552 Y21.551 E55.96489
G1 X15.854 Y25.495 E56.17939
G1 X15.907 Y25.752 E56.19296
G1 X16.124 Y28.157 E56.31767
G1 X15.938 Y34.561 E56.64859
G1 X16.002 Y40.582 E56.95965
G1 X16.280 Y44.648 E57.17014
G1 X16.990 Y50.060 E57.45206
G1 X17.361 Y51.667 E57.53728
G1 X17.963 Y53.168 E57.62079
G1 X18.803 Y54.682 E57.71022
G1 X19.836 Y56.201 E57.80514
G1 X24.399 Y61.945 E58.18405
G1 X23.689 Y64.287 E58.31045
G1 X19.702 Y65.567 E58.52674
G1 X18.307 Y65.142 E58.60207
G1 X13.871 Y59.539 E58.97122
G1 X12.604 Y57.674 E59.08766
G1 X11.498 Y55.687 E59.20515
G1 X10.692 Y53.725 E59.31468
G1 X10.151 Y51.547 E59.43060
G1 X9.796 Y49.426 E59.54169
G1 X9.330 Y45.452 E59.74840
G1 X9.120 Y42.562 E59.89805
G1 X9.010 Y36.581 E60.20706
G1 X9.200 Y31.543 E60.46744
G1 X9.384 Y29.017 E60.59829
G1 X9.284 Y27.347 E60.68469
G1 X9.016 Y26.115 E60.74979
G1 X8.195 Y23.299 E60.90131
G1 X7.114 Y20.601 E61.05144
G1 X6.228 Y19.013 E61.14537
G1 X3.149 Y14.124 E61.44380
G1 X2.131 Y12.289 E61.55220
G1 X1.217 Y10.398 E61.66070
G1 X0.414 Y8.361 E61.77379
G1 X0.261 Y8.240 E61.78386
G1 X-0.756 Y8.101 E61.83688
G1 X-0.992 Y8.043 E61.84941
G1 X-2.206 Y7.608 E61.91602
G1 X-2.424 Y7.503 E61.92855
G1 X-3.536 Y6.819 E61.99595
G1 X-3.750 Y6.650 E62.01005
G1 X-4.867 Y5.532 E62.09168
G1 X-5.037 Y5.318 E62.10578
G1 X-5.721 Y4.207 E62.17318
G1 X-5.826 Y3.988 E62.18571
G1 X-6.165 Y3.042 E62.23763
G1 X-6.315 Y2.917 E62.24772
G1 X-8.237 Y2.600 E62.34836
G1 X-10.874 Y2.441 E62.48479
G1 X-12.472 Y2.468 E62.56736
G1 X-17.517 Y2.843 E62.82865
G1 X-19.734 Y2.895 E62.94321
G1 X-21.768 Y2.720 E63.04866
G1 X-23.837 Y2.413 E63.15671
G1 X-27.903 Y1.568 E63.37121
G1 X-28.152 Y1.486 E63.38478
G1 X-30.336 Y0.476 E63.50904
G1 X-37.330 Y-3.790 E63.93223
G1 X-40.151 Y-5.371 E64.09925
G1 X-42.751 Y-6.714 E64.25040
G1 X-48.018 Y-9.068 E64.54838
G1 X-49.714 Y-9.721 E64.64224
G1 X-51.323 Y-10.212 E64.72913
G1 X-52.923 Y-10.441 E64.81264
G1 X-54.654 Y-10.471 E64.90207
G1 X-56.487 Y-10.336 E64.99699
G1 X-63.736 Y-9.257 E65.37555
G1 X-65.408 Y-11.025 E65.50126
G1 X-64.944 Y-13.266 E65.61946
G1 X-64.523 Y-15.142 E65.71876
G1 X-63.473 Y-16.124 E65.79302
G1 X-58.600 Y-16.882 E66.04771
G1 X-56.385 Y-17.171 E66.16310
G1 X-54.146 Y-17.335 E66.27905
G1 X-51.872 Y-17.300 E66.39654
G1 X-49.770 Y-17.017 E66.50608
G1 X-47.614 Y-16.397 E66.62200
G1 X-45.599 Y-15.644 E66.73308
G1 X-41.924 Y-14.059 E66.93979
G1 X-39.316 Y-12.797 E67.08944
G1 X-34.082 Y-9.901 E67.39845
G1 X-29.814 Y-7.218 E67.65883
G1 X-27.718 Y-5.795 E67.78969
