; generated by Slic3r 1.2.9 on 2016-05-21 at 10:36:01

; external perimeters extrusion width = 0.40mm
; perimeters extrusion width = 0.68mm
; infill extrusion width = 1.03mm
; solid infill extrusion width = 0.68mm
; top infill extrusion width = 0.68mm

M190 S105 ; set bed temperature
G21; set mm units 
G92 E0; reset extruder distance 
G90; set absolute coordinates 
G28 ; home all axes
M106 S255; Set cooling fan on
M109 S240 ; set nozzle heater to first layer temperature
G29 ; Self Calibrate
G1 Z15 F2000; slightly raise from bed
G1 X55 Y-50 F2000; move to purging zone
G1 X-35 Y-50 E12 F300.000; extrude a line of filament across the front edge of the bed
G4 P2000; wait for ooze to slow
G1 Z0 F6000.000; lower nozzle height to 0
G1 X-55 F400; wipe nozzle
G1 Z100% F6000.000; set nozzle to first layer height
G1 F12000; ensure fast travel to first print move
G92 E0; set E to 0 again
G1 X0 F900; back to home
G1 Z0 F2000; back to home
G21 ; set units to millimeters
G90 ; use absolute coordinates
M82 ; use absolute distances for extrusion
G92 E0
M106 S255
G1 Z0.125 F3600.000
G1 E-4.00000 F1800.00000
G92 E0
G1 X-0.483 Y-12.320 F3600.000
G1 E4.00000 F1800.00000
G1 X0.038 Y-12.340 E4.01750 F900.000
G1 X0.827 Y-12.329 E4.04399
G1 X55.488 Y-8.556 E5.88279 F900.000
G1 X57.832 Y-7.997 E5.96365
G1 X59.866 Y-6.705 E6.04451
G1 X61.369 Y-4.822 E6.12536
G1 X62.291 Y-1.349 E6.24594
G1 X62.306 Y-0.050 E6.28955
G1 X61.935 Y2.331 E6.37041
G1 X60.811 Y4.461 E6.45127
G1 X59.054 Y6.110 E6.53213
G1 X56.857 Y7.098 E6.61299
G1 X55.665 Y7.308 E6.65360
G1 X0.730 Y12.326 E8.50488
G1 X-0.408 Y12.341 E8.54309
G1 X-55.487 Y8.557 E10.39589
G1 X-57.830 Y7.997 E10.47675
G1 X-59.864 Y6.706 E10.55761
G1 X-61.368 Y4.823 E10.63846
G1 X-62.178 Y2.554 E10.71932
G1 X-62.291 Y1.349 E10.75993
G1 X-62.306 Y0.050 E10.80354
G1 X-61.935 Y-2.331 E10.88440
G1 X-60.811 Y-4.461 E10.96526
G1 X-59.054 Y-6.110 E11.04612
G1 X-56.857 Y-7.098 E11.12698
G1 X-55.666 Y-7.308 E11.16756
G1 X-1.384 Y-12.275 E12.99686
G1 X-0.543 Y-12.317 E13.02513
G1 X-0.457 Y-11.667 F3600.000
G1 X0.064 Y-11.688 E13.04263 F900.000
G1 X0.782 Y-11.677 E13.06675
G1 X55.443 Y-7.905 E14.90555 F900.000
G1 X57.675 Y-7.353 E14.98269
G1 X59.585 Y-6.075 E15.05982
G1 X60.946 Y-4.223 E15.13695
G1 X61.638 Y-1.342 E15.23638
G1 X61.653 Y-0.043 E15.27999
G1 X61.281 Y2.225 E15.35713
G1 X60.160 Y4.232 E15.43426
G1 X58.423 Y5.737 E15.51140
G1 X55.605 Y6.657 E15.61088
G1 X0.671 Y11.675 E17.46217
G1 X-0.366 Y11.689 E17.49696
G1 X-55.442 Y7.905 E19.34967
G1 X-57.673 Y7.354 E19.42681
G1 X-59.584 Y6.076 E19.50394
G1 X-60.945 Y4.224 E19.58108
G1 X-61.638 Y1.342 E19.68056
G1 X-61.653 Y0.043 E19.72417
G1 X-61.281 Y-2.225 E19.80130
G1 X-60.160 Y-4.232 E19.87844
G1 X-58.423 Y-5.737 E19.95557
G1 X-55.606 Y-6.657 E20.05502
G1 X-1.325 Y-11.624 E21.88432
G1 X-0.517 Y-11.665 E21.91146
G1 F2880
G1 X0.064 Y-11.688 E21.56623
G1 F2880
G1 X0.782 Y-11.677 E21.13948
G1 E17.91146 F1800.00000
G92 E0
G1 X-0.337 Y-8.609 F3600.000
G1 E4.00000 F1800.00000
G1 X0.347 Y-8.636 E4.02298 F900.000
G1 X0.672 Y-8.619 E4.03393
G1 X1.754 Y-8.464 E4.07060 F900.000
G1 X2.028 Y-8.402 E4.08002
G1 X3.069 Y-8.082 E4.11659
G1 X3.372 Y-7.958 E4.12755
G1 X4.590 Y-7.323 E4.17365
G1 X4.865 Y-7.146 E4.18462
G1 X5.724 Y-6.477 E4.22117
G1 X5.931 Y-6.288 E4.23057
G1 X6.659 Y-5.510 E4.26634
G1 X6.834 Y-5.292 E4.27573
G1 X7.064 Y-4.954 E4.28944
G1 X7.416 Y-4.804 E4.30228
G1 X16.130 Y-6.261 E4.59881
G1 X16.490 Y-6.285 E4.61089
G1 X19.768 Y-6.170 E4.72097
G1 X28.683 Y-5.500 E5.02101
G1 X34.516 Y-5.215 E5.21701
G1 X43.284 Y-4.961 E5.51139
G1 X56.484 Y-4.847 E5.95437
G1 X58.561 Y-2.775 E6.05285
G1 X58.609 Y1.502 E6.19638
G1 X56.475 Y3.639 E6.29774
G1 X34.336 Y3.423 E7.04079
G1 X25.484 Y3.204 E7.33792
G1 X16.832 Y2.878 E7.62849
G1 X8.548 Y3.494 E7.90728
G1 X8.092 Y3.505 E7.92261
G1 X7.784 Y3.698 E7.93481
G1 X7.371 Y4.515 E7.96552
G1 X7.170 Y4.830 E7.97805
G1 X6.282 Y5.938 E8.02572
G1 X6.020 Y6.204 E8.03826
G1 X4.922 Y7.106 E8.08593
G1 X4.611 Y7.312 E8.09846
G1 X3.351 Y7.968 E8.14612
G1 X3.004 Y8.106 E8.15864
G1 X1.662 Y8.481 E8.20540
G1 X1.341 Y8.540 E8.21636
G1 X0.253 Y8.640 E8.25303
G1 X-0.027 Y8.644 E8.26245
G1 X-1.091 Y8.574 E8.29823
G1 X-1.369 Y8.535 E8.30763
G1 X-2.431 Y8.296 E8.34418
G1 X-2.742 Y8.196 E8.35515
G1 X-4.006 Y7.658 E8.40125
G1 X-4.294 Y7.503 E8.41221
G1 X-5.203 Y6.902 E8.44878
G1 X-5.424 Y6.730 E8.45820
G1 X-6.231 Y5.993 E8.49487
G1 X-6.451 Y5.752 E8.50582
G1 X-7.069 Y4.937 E8.54015
G1 X-7.407 Y4.802 E8.55237
G1 X-16.130 Y6.261 E8.84919
G1 X-16.490 Y6.285 E8.86127
G1 X-19.768 Y6.170 E8.97135
G1 X-28.683 Y5.500 E9.27139
G1 X-34.516 Y5.215 E9.46739
G1 X-43.284 Y4.961 E9.76177
G1 X-56.484 Y4.847 E10.20475
G1 X-58.561 Y2.775 E10.30323
G1 X-58.609 Y-1.502 E10.44676
G1 X-56.475 Y-3.639 E10.54812
G1 X-34.336 Y-3.423 E11.29117
G1 X-25.484 Y-3.204 E11.58830
G1 X-16.832 Y-2.878 E11.87887
G1 X-8.548 Y-3.494 E12.15766
G1 X-8.101 Y-3.505 E12.17269
G1 X-7.798 Y-3.690 E12.18459
G1 X-7.252 Y-4.705 E12.22329
G1 X-7.042 Y-5.014 E12.23582
G1 X-6.126 Y-6.100 E12.28349
G1 X-5.856 Y-6.358 E12.29602
G1 X-4.736 Y-7.232 E12.34369
G1 X-4.419 Y-7.429 E12.35623
G1 X-3.143 Y-8.053 E12.40390
G1 X-2.792 Y-8.181 E12.41643
G1 X-1.415 Y-8.528 E12.46409
G1 X-1.046 Y-8.581 E12.47661
G1 X-0.397 Y-8.606 E12.49839
G1 X-0.312 Y-7.956 F3600.000
G1 X0.343 Y-7.982 E12.52037 F900.000
G1 X0.609 Y-7.968 E12.52933 F900.000
G1 X1.636 Y-7.821 E12.56415
G1 X1.860 Y-7.771 E12.57186
G1 X2.849 Y-7.466 E12.60657
G1 X3.096 Y-7.365 E12.61554
G1 X4.262 Y-6.757 E12.65965
G1 X4.487 Y-6.613 E12.66862
G1 X5.302 Y-5.977 E12.70332
G1 X5.471 Y-5.823 E12.71101
G1 X6.165 Y-5.082 E12.74507
G1 X6.309 Y-4.903 E12.75276
G1 X6.735 Y-4.276 E12.77822
G1 X7.049 Y-4.124 E12.78993
G1 X7.514 Y-4.158 E12.80557
G1 X16.206 Y-5.612 E13.10133
G1 X16.500 Y-5.631 E13.11122
G1 X19.725 Y-5.518 E13.21953
G1 X28.643 Y-4.848 E13.51964
G1 X34.491 Y-4.562 E13.71614
G1 X43.272 Y-4.308 E14.01097
G1 X56.211 Y-4.196 E14.44522
G1 X57.911 Y-2.501 E14.52579
G1 X57.953 Y1.234 E14.65115
G1 X56.207 Y2.983 E14.73409
G1 X34.349 Y2.770 E15.46767
G1 X25.503 Y2.551 E15.76465
G1 X16.820 Y2.224 E16.05624
G1 X8.509 Y2.842 E16.33594
G1 X7.686 Y2.859 E16.36356
G1 X7.378 Y3.052 E16.37577
G1 X6.804 Y4.191 E16.41856
G1 X6.638 Y4.448 E16.42882
G1 X5.793 Y5.504 E16.47421
G1 X5.579 Y5.721 E16.48446
G1 X4.534 Y6.580 E16.52986
G1 X4.279 Y6.749 E16.54011
G1 X3.079 Y7.374 E16.58550
G1 X2.796 Y7.486 E16.59574
G1 X1.515 Y7.844 E16.64037
G1 X1.252 Y7.892 E16.64933
G1 X0.219 Y7.987 E16.68415
G1 X-0.010 Y7.990 E16.69186
G1 X-1.024 Y7.924 E16.72593
G1 X-1.250 Y7.892 E16.73362
G1 X-2.259 Y7.665 E16.76832
G1 X-2.514 Y7.583 E16.77729
G1 X-3.723 Y7.069 E16.82140
G1 X-3.959 Y6.942 E16.83037
G1 X-4.821 Y6.372 E16.86509
G1 X-5.002 Y6.230 E16.87279
G1 X-5.768 Y5.530 E16.90761
G1 X-5.948 Y5.333 E16.91657
G1 X-6.761 Y4.261 E16.96172
G1 X-7.062 Y4.125 E16.97282
G1 X-7.514 Y4.158 E16.98801
G1 X-16.206 Y5.612 E17.28377
G1 X-16.500 Y5.631 E17.29366
G1 X-19.725 Y5.518 E17.40197
G1 X-28.643 Y4.848 E17.70208
G1 X-34.491 Y4.562 E17.89858
G1 X-43.272 Y4.308 E18.19341
G1 X-56.211 Y4.196 E18.62766
G1 X-57.911 Y2.501 E18.70823
G1 X-57.953 Y-1.234 E18.83359
G1 X-56.207 Y-2.983 E18.91653
G1 X-34.349 Y-2.770 E19.65011
G1 X-25.503 Y-2.551 E19.94709
G1 X-16.820 Y-2.224 E20.23868
G1 X-8.509 Y-2.842 E20.51838
G1 X-7.706 Y-2.859 E20.54532
G1 X-7.404 Y-3.043 E20.55722
G1 X-6.693 Y-4.366 E20.60762
G1 X-6.521 Y-4.619 E20.61788
G1 X-5.648 Y-5.652 E20.66327
G1 X-5.428 Y-5.864 E20.67352
G1 X-4.361 Y-6.696 E20.71892
G1 X-4.102 Y-6.857 E20.72917
G1 X-2.887 Y-7.451 E20.77456
G1 X-2.600 Y-7.556 E20.78482
G1 X-1.288 Y-7.886 E20.83020
G1 X-0.986 Y-7.930 E20.84044
G1 X-0.372 Y-7.954 E20.86108
G1 X-0.286 Y-7.303 F3600.000
G1 X0.338 Y-7.328 E20.88207 F900.000
G1 X0.546 Y-7.317 E20.88903
G1 X1.518 Y-7.178 E20.92200 F900.000
G1 X2.628 Y-6.851 E20.96084
G1 X2.821 Y-6.772 E20.96782
G1 X3.934 Y-6.192 E21.00994
G1 X4.109 Y-6.080 E21.01691
G1 X5.012 Y-5.358 E21.05573
G1 X5.783 Y-4.515 E21.09405
G1 X6.406 Y-3.598 E21.13126
G1 X6.720 Y-3.446 E21.14296
G1 X7.591 Y-3.508 E21.17225
G1 X16.281 Y-4.962 E21.46797
G1 X16.510 Y-4.977 E21.47566
G1 X19.683 Y-4.867 E21.58221
G1 X28.602 Y-4.196 E21.88238
G1 X34.465 Y-3.909 E22.07939
G1 X43.260 Y-3.655 E22.37466
G1 X55.939 Y-3.545 E22.80018
G1 X57.261 Y-2.227 E22.86285
G1 X57.297 Y0.967 E22.97004
G1 X55.939 Y2.327 E23.03455
G1 X34.363 Y2.117 E23.75866
G1 X25.521 Y1.898 E24.05549
G1 X16.808 Y1.570 E24.34810
G1 X8.470 Y2.190 E24.62872
G1 X7.247 Y2.213 E24.66976
G1 X6.919 Y2.444 E24.68320
G1 X6.815 Y2.719 E24.69310
G1 X6.236 Y3.866 E24.73621
G1 X6.107 Y4.066 E24.74419
G1 X5.304 Y5.069 E24.78730
G1 X5.138 Y5.238 E24.79528
G1 X4.145 Y6.054 E24.83839
G1 X3.947 Y6.185 E24.84636
G1 X2.808 Y6.779 E24.88947
G1 X2.587 Y6.866 E24.89744
G1 X1.368 Y7.207 E24.93994
G1 X1.163 Y7.245 E24.94691
G1 X0.006 Y7.337 E24.98585
G1 X-1.132 Y7.249 E25.02418
G1 X-2.087 Y7.034 E25.05703
G1 X-2.285 Y6.971 E25.06401
G1 X-3.440 Y6.479 E25.10612
G1 X-3.623 Y6.381 E25.11310
G1 X-4.581 Y5.731 E25.15194
G1 X-5.306 Y5.068 E25.18491
G1 X-5.446 Y4.915 E25.19188
G1 X-6.202 Y3.918 E25.23388
G1 X-6.394 Y3.610 E25.24604
G1 X-6.717 Y3.446 E25.25820
G1 X-7.591 Y3.508 E25.28760
G1 X-16.281 Y4.962 E25.58332
G1 X-16.510 Y4.977 E25.59101
G1 X-19.683 Y4.867 E25.69756
G1 X-28.602 Y4.196 E25.99773
G1 X-34.465 Y3.909 E26.19474
G1 X-43.260 Y3.655 E26.49000
G1 X-55.939 Y3.545 E26.91553
G1 X-57.261 Y2.227 E26.97819
G1 X-57.297 Y-0.967 E27.08539
G1 X-55.939 Y-2.327 E27.14989
G1 X-34.363 Y-2.117 E27.87401
G1 X-25.521 Y-1.898 E28.17084
G1 X-16.808 Y-1.570 E28.46345
G1 X-8.470 Y-2.190 E28.74407
G1 X-7.232 Y-2.214 E28.78561
G1 X-6.891 Y-2.473 E28.79999
G1 X-6.742 Y-2.895 E28.81501
G1 X-6.133 Y-4.027 E28.85813
G1 X-6.000 Y-4.223 E28.86610
G1 X-5.171 Y-5.205 E28.90922
G1 X-5.000 Y-5.370 E28.91719
G1 X-3.987 Y-6.160 E28.96031
G1 X-3.785 Y-6.285 E28.96828
G1 X-2.631 Y-6.849 E29.01140
G1 X-2.407 Y-6.931 E29.01937
G1 X-1.162 Y-7.244 E29.06248
G1 X-0.927 Y-7.278 E29.07045
G1 X-0.346 Y-7.301 E29.08995
G1 F2880
G1 X0.338 Y-7.328 E28.68306
G1 F2880
G1 X0.546 Y-7.317 E28.55976
G1 E25.08995 F1800.00000
G92 E0
G1 X-6.319 Y2.763 F3600.000
G1 E4.00000 F1800.00000
G1 X-7.667 Y2.859 E4.04537 F900.000
G1 X-16.357 Y4.312 E4.34105
G1 X-16.520 Y4.323 E4.34654
G1 X-19.641 Y4.215 E4.45132
G1 X-28.562 Y3.544 E4.75156
G1 X-34.440 Y3.257 E4.94907
G1 X-43.247 Y3.002 E5.24478
G1 X-55.666 Y2.895 E5.66157
G1 X-56.611 Y1.953 E5.70634
G1 X-56.641 Y-0.700 E5.79536
G1 X-55.670 Y-1.671 E5.84144
G1 X-34.377 Y-1.464 E6.55610
G1 X-25.539 Y-1.245 E6.85277
G1 X-16.796 Y-0.916 E7.14640
G1 X-8.430 Y-1.538 E7.42794
G1 X-6.740 Y-1.569 E7.48466
G1 X-6.400 Y-1.829 E7.49904
G1 X-6.215 Y-2.459 E7.52107
G1 X-6.150 Y-2.616 E7.52677
G1 X-5.574 Y-3.688 E7.56761
G1 X-5.479 Y-3.828 E7.57330
G1 X-4.694 Y-4.758 E7.61414
G1 X-4.571 Y-4.875 E7.61984
G1 X-3.612 Y-5.624 E7.66067
G1 X-3.468 Y-5.713 E7.66637
G1 X-2.374 Y-6.247 E7.70720
G1 X-2.215 Y-6.306 E7.71290
G1 X-1.035 Y-6.603 E7.75373
G1 X-0.867 Y-6.627 E7.75942
G1 X0.334 Y-6.674 E7.79978
G1 X1.400 Y-6.535 E7.83586
G1 X2.408 Y-6.235 E7.87114
G1 X2.545 Y-6.179 E7.87612
G1 X3.730 Y-5.546 E7.92121
G1 X4.459 Y-4.978 E7.95221
G1 X5.177 Y-4.226 E7.98712
G1 X5.770 Y-3.372 E8.02202
G1 X5.972 Y-2.967 E8.03719
G1 X6.321 Y-2.763 E8.05074
G1 X7.667 Y-2.859 E8.09604
G1 X16.357 Y-4.312 E8.39172
G1 X16.520 Y-4.323 E8.39721
G1 X19.641 Y-4.215 E8.50200
G1 X28.562 Y-3.544 E8.80223
G1 X34.440 Y-3.257 E8.99974
G1 X43.247 Y-3.002 E9.29545
G1 X55.666 Y-2.895 E9.71225
G1 X56.611 Y-1.953 E9.75701
G1 X56.641 Y0.700 E9.84604
G1 X55.670 Y1.671 E9.89211
G1 X34.377 Y1.464 E10.60677
G1 X25.539 Y1.245 E10.90344
G1 X16.796 Y0.916 E11.19707
G1 X8.430 Y1.538 E11.47861
G1 X6.743 Y1.569 E11.53525
G1 X6.398 Y1.839 E11.54995
G1 X6.276 Y2.297 E11.56584
G1 X6.216 Y2.455 E11.57154
G1 X5.668 Y3.542 E11.61237
G1 X5.576 Y3.684 E11.61807
G1 X4.816 Y4.634 E11.65890
G1 X4.696 Y4.755 E11.66460
G1 X3.757 Y5.528 E11.70544
G1 X3.615 Y5.621 E11.71113
G1 X2.536 Y6.184 E11.75197
G1 X2.378 Y6.246 E11.75765
G1 X1.220 Y6.570 E11.79802
G1 X0.151 Y6.682 E11.83409
G1 X-0.888 Y6.624 E11.86902
G1 X-1.915 Y6.404 E11.90428
G1 X-3.157 Y5.890 E11.94936
G1 X-3.288 Y5.820 E11.95435
G1 X-4.159 Y5.232 E11.98963
G1 X-4.843 Y4.606 E12.02074
G1 X-5.664 Y3.547 E12.06571
G1 X-5.976 Y2.958 E12.08807
G1 X-6.267 Y2.793 E12.09930
G1 F2880
G1 X-7.667 Y2.859 E11.26669
G1 F2880
G1 X-12.597 Y3.683 E8.29930
G1 E8.09930 F1800.00000
G92 E0
G1 X5.921 Y-2.081 F3600.000
G1 E4.00000 F1800.00000
G1 X7.744 Y-2.209 E4.06134 F900.000
G1 X16.530 Y-3.669 E4.36025
G1 X19.598 Y-3.563 E4.46327
G1 X28.521 Y-2.892 E4.76357
G1 X34.414 Y-2.604 E4.96159
G1 X43.235 Y-2.349 E5.25773
G1 X55.394 Y-2.244 E5.66580
G1 X55.961 Y-1.679 E5.69266
G1 X55.984 Y0.433 E5.76352
G1 X55.402 Y1.016 E5.79116
G1 X34.390 Y0.811 E6.49636
G1 X25.551 Y0.592 E6.79309
G1 X16.784 Y0.261 E7.08752
G1 X8.391 Y0.886 E7.36998
G1 X6.238 Y0.925 E7.44224
G1 X5.893 Y1.195 E7.45694
G1 X5.618 Y2.191 E7.49165
G1 X5.100 Y3.217 E7.53020
G1 X4.255 Y4.272 E7.57556
G1 X3.368 Y5.002 E7.61412
G1 X2.264 Y5.589 E7.65607
G1 X1.073 Y5.933 E7.69770
G1 X0.040 Y6.030 E7.73250
G1 X-0.896 Y5.963 E7.76399
G1 X-1.828 Y5.745 E7.79613
G1 X-2.874 Y5.301 E7.83425
G1 X-3.677 Y4.779 E7.86639
G1 X-4.441 Y4.078 E7.90119
G1 X-5.125 Y3.176 E7.93920
G1 X-5.588 Y2.276 E7.97315
G1 X-5.931 Y2.081 E7.98639
G1 X-7.744 Y2.209 E8.04739
G1 X-16.530 Y3.669 E8.34630
G1 X-19.598 Y3.563 E8.44931
G1 X-28.521 Y2.892 E8.74962
G1 X-34.415 Y2.604 E8.94763
G1 X-43.235 Y2.349 E9.24378
G1 X-55.394 Y2.244 E9.65185
G1 X-55.961 Y1.679 E9.67870
G1 X-55.984 Y-0.433 E9.74956
G1 X-55.402 Y-1.016 E9.77721
G1 X-34.390 Y-0.811 E10.48240
G1 X-25.551 Y-0.592 E10.77914
G1 X-16.784 Y-0.261 E11.07357
G1 X-8.391 Y-0.886 E11.35603
G1 X-6.249 Y-0.924 E11.42793
G1 X-5.908 Y-1.184 E11.44230
G1 X-5.559 Y-2.337 E11.48271
G1 X-5.015 Y-3.348 E11.52127
G1 X-4.143 Y-4.381 E11.56663
G1 X-3.151 Y-5.141 E11.60859
G1 X-2.118 Y-5.646 E11.64714
G1 X-0.808 Y-5.976 E11.69249
G1 X0.330 Y-6.020 E11.73072
G1 X1.282 Y-5.892 E11.76296
G1 X2.270 Y-5.586 E11.79765
G1 X3.277 Y-5.061 E11.83578
G1 X4.037 Y-4.479 E11.86791
G1 X4.683 Y-3.798 E11.89941
G1 X5.216 Y-3.025 E11.93090
G1 X5.573 Y-2.285 E11.95849
G1 X5.869 Y-2.111 E11.97003
G1 X5.479 Y-1.395 F3600.000
G1 X7.821 Y-1.560 E12.04884 F900.000
G1 X16.541 Y-3.015 E12.34551
G1 X19.556 Y-2.911 E12.44677
G1 X28.481 Y-2.240 E12.74714
G1 X34.389 Y-1.951 E12.94566
G1 X43.223 Y-1.695 E13.24225
G1 X55.122 Y-1.593 E13.64158
G1 X55.310 Y-1.404 E13.65053
G1 X55.328 Y0.166 E13.70323
G1 X55.134 Y0.360 E13.71244
G1 X34.407 Y0.158 E14.40809
G1 X25.576 Y-0.061 E14.70454
G1 X16.772 Y-0.393 E15.00021
G1 X8.352 Y0.234 E15.28358
G1 X5.711 Y0.281 E15.37223
G1 X5.353 Y0.588 E15.38805
G1 X5.308 Y0.853 E15.39707
G1 X5.031 Y1.896 E15.43328
G1 X4.532 Y2.893 E15.47069
G1 X3.814 Y3.789 E15.50923
G1 X2.979 Y4.476 E15.54551
G1 X1.992 Y4.994 E15.58292
G1 X0.925 Y5.296 E15.62015
G1 X0.057 Y5.376 E15.64941
G1 X-0.778 Y5.320 E15.67749
G1 X-1.600 Y5.133 E15.70578
G1 X-2.591 Y4.711 E15.74192
G1 X-3.295 Y4.248 E15.77021
G1 X-3.938 Y3.660 E15.79947
G1 X-4.603 Y2.779 E15.83649
G1 X-4.970 Y2.052 E15.86383
G1 X-5.094 Y1.653 E15.87785
G1 X-5.470 Y1.394 E15.89317
G1 X-7.821 Y1.560 E15.97227
G1 X-16.541 Y3.015 E16.26895
G1 X-19.556 Y2.911 E16.37020
G1 X-28.481 Y2.240 E16.67057
G1 X-34.383 Y1.952 E16.86887
G1 X-43.223 Y1.695 E17.16568
G1 X-55.122 Y1.593 E17.56502
G1 X-55.310 Y1.404 E17.57397
G1 X-55.328 Y-0.166 E17.62666
G1 X-55.134 Y-0.360 E17.63588
G1 X-34.404 Y-0.158 E18.33161
G1 X-25.576 Y0.061 E18.62798
G1 X-16.772 Y0.393 E18.92364
G1 X-8.352 Y-0.234 E19.20702
G1 X-5.686 Y-0.281 E19.29648
G1 X-5.319 Y-0.624 E19.31333
G1 X-5.285 Y-0.989 E19.32565
G1 X-4.980 Y-2.026 E19.36190
G1 X-4.456 Y-3.009 E19.39932
G1 X-3.739 Y-3.863 E19.43673
G1 X-2.833 Y-4.569 E19.47527
G1 X-1.830 Y-5.056 E19.51268
G1 X-0.748 Y-5.324 E19.55009
G1 X0.326 Y-5.366 E19.58619
G1 X1.189 Y-5.243 E19.61545
G1 X1.994 Y-4.993 E19.64374
G1 X2.949 Y-4.495 E19.67988
G1 X3.616 Y-3.979 E19.70817
G1 X4.189 Y-3.370 E19.73625
G1 X4.674 Y-2.657 E19.76518
G1 X5.021 Y-1.923 E19.79241
