; generated by Slic3r 1.2.9 on 2016-05-15 at 21:44:26

; external perimeters extrusion width = 0.40mm
; perimeters extrusion width = 0.68mm
; infill extrusion width = 1.03mm
; solid infill extrusion width = 0.68mm
; top infill extrusion width = 0.68mm

M190 S85 ; set bed temperature
G21; set mm units 
G92 E0; reset extruder distance 
G90; set absolute coordinates 
G28 ; home all axes
M106 S255; Set cooling fan on
M109 S220 ; set nozzle heater to first layer temperature
G29 ; Self Calibrate
G1 Z15 F2000; slightly raise from bed
G1 X55 Y-50 F2000; move to purging zone
G1 X-35 Y-50 E12 F300.000; extrude a line of filament across the front edge of the bed
G4 P2000; wait for ooze to slow
G1 Z0 F6000.000; lower nozzle height to 0
G1 X-55 F400; wipe nozzle
G1 Z100% F6000.000; set nozzle to first layer height
G1 F12000; ensure fast travel to first print move
G92 E0; set E to 0 again
G1 X0 F900; back to home
G1 Z0 F2000; back to home
G21 ; set units to millimeters
G90 ; use absolute coordinates
M82 ; use absolute distances for extrusion
G92 E0
M106 S255
G1 Z0.125 F3600.000
G1 E-4.00000 F1800.00000
G92 E0
G1 X-9.107 Y-0.700 F3600.000
G1 E4.00000 F1800.00000
G1 X-8.766 Y-1.010 E4.01548 F900.000
G1 X-8.614 Y-1.974 E4.04822
G1 X-8.564 Y-2.176 E4.05520
G1 X-8.045 Y-3.653 E4.10775
G1 X-7.959 Y-3.842 E4.11473
G1 X-7.364 Y-4.882 E4.15492
G1 X-6.773 Y-5.678 E4.18819
G1 X-6.654 Y-5.811 E4.19417
G1 X-5.547 Y-6.876 E4.24572
G1 X-5.410 Y-6.989 E4.25170
G1 X-4.592 Y-7.549 E4.28497
G1 X-3.530 Y-8.102 E4.32516
G1 X-3.337 Y-8.181 E4.33214
G1 X-1.681 Y-8.676 E4.39016
G1 X-0.699 Y-8.808 E4.42342
G1 X0.465 Y-8.823 E4.46248
G1 X1.586 Y-8.692 E4.50035
G1 X2.733 Y-8.403 E4.54005
G1 X4.004 Y-7.877 E4.58620
G1 X4.162 Y-7.795 E4.59218
G1 X5.178 Y-7.161 E4.63237
G1 X6.226 Y-6.271 E4.67852
G1 X7.123 Y-5.229 E4.72467
G1 X7.359 Y-4.867 E4.73917
G1 X7.698 Y-4.698 E4.75188
G1 X9.332 Y-4.867 E4.80700
G1 X9.521 Y-4.819 E4.81353
G1 X15.576 Y-5.522 E5.01811
G1 X20.182 Y-5.916 E5.17325
G1 X25.595 Y-6.200 E5.35516
G1 X25.800 Y-6.192 E5.36206
G1 X27.993 Y-5.913 E5.43626
G1 X31.124 Y-5.832 E5.54136
G1 X32.669 Y-5.663 E5.59351
G1 X34.211 Y-5.314 E5.64657
G1 X41.350 Y-4.822 E5.88674
G1 X44.940 Y-4.462 E6.00781
G1 X46.794 Y-4.374 E6.07011
G1 X51.775 Y-4.572 E6.23742
G1 X56.912 Y-5.284 E6.41146
G1 X58.970 Y-5.446 E6.48072
G1 X59.080 Y-5.475 E6.48456
G1 X59.657 Y-5.737 E6.50580
G1 X60.861 Y-5.869 E6.54647
G1 X62.687 Y-6.522 E6.61154
G1 X64.601 Y-5.242 E6.68882
G1 X64.793 Y-1.277 E6.82206
G1 X63.568 Y0.114 E6.88425
G1 X62.165 Y0.225 E6.93147
G1 X61.967 Y0.311 E6.93873
G1 X61.862 Y0.406 E6.94348
G1 X59.481 Y0.769 E7.02430
G1 X58.029 Y1.376 E7.07713
G1 X57.748 Y1.456 E7.08694
G1 X52.156 Y2.276 E7.27659
G1 X46.756 Y2.359 E7.45785
G1 X41.407 Y2.140 E7.63751
G1 X41.230 Y2.119 E7.64350
G1 X39.080 Y1.692 E7.71705
G1 X34.193 Y1.306 E7.88157
G1 X33.977 Y1.268 E7.88894
G1 X32.835 Y0.960 E7.92862
G1 X30.951 Y0.887 E7.99193
G1 X29.491 Y0.677 E8.04140
G1 X25.434 Y0.540 E8.17764
G1 X22.818 Y0.307 E8.26580
G1 X19.128 Y0.362 E8.38965
G1 X14.056 Y0.627 E8.56009
G1 X12.238 Y0.582 E8.62113
G1 X10.174 Y0.750 E8.69061
G1 X9.934 Y0.744 E8.69868
G1 X9.479 Y0.685 E8.71408
G1 X9.088 Y0.702 E8.72720
G1 X8.741 Y1.033 E8.74332
G1 X8.671 Y1.706 E8.76602
G1 X8.622 Y1.938 E8.77399
G1 X8.133 Y3.457 E8.82755
G1 X8.037 Y3.675 E8.83552
G1 X7.245 Y5.060 E8.88907
G1 X7.106 Y5.253 E8.89705
G1 X5.937 Y6.547 E8.95556
G1 X5.165 Y7.168 E8.98882
G1 X4.153 Y7.801 E9.02889
G1 X3.967 Y7.895 E9.03586
G1 X2.494 Y8.478 E9.08903
G1 X2.265 Y8.542 E9.09702
G1 X0.706 Y8.807 E9.15008
G1 X0.499 Y8.823 E9.15706
G1 X-0.713 Y8.808 E9.19774
G1 X-2.071 Y8.590 E9.24389
G1 X-3.379 Y8.165 E9.29005
G1 X-3.543 Y8.095 E9.29602
G1 X-4.605 Y7.542 E9.33621
G1 X-5.704 Y6.748 E9.38173
G1 X-6.428 Y6.065 E9.41511
G1 X-6.547 Y5.932 E9.42111
G1 X-7.380 Y4.834 E9.46736
G1 X-7.693 Y4.698 E9.47884
G1 X-9.332 Y4.867 E9.53412
G1 X-9.521 Y4.819 E9.54065
G1 X-15.576 Y5.522 E9.74523
G1 X-20.182 Y5.916 E9.90037
G1 X-25.595 Y6.200 E10.08228
G1 X-25.800 Y6.192 E10.08918
G1 X-27.993 Y5.913 E10.16338
G1 X-31.124 Y5.832 E10.26848
G1 X-32.669 Y5.663 E10.32064
G1 X-34.211 Y5.314 E10.37369
G1 X-41.350 Y4.822 E10.61386
G1 X-44.940 Y4.462 E10.73494
G1 X-46.765 Y4.374 E10.79627
G1 X-51.775 Y4.572 E10.96454
G1 X-56.912 Y5.284 E11.13858
G1 X-58.970 Y5.446 E11.20785
G1 X-59.080 Y5.475 E11.21168
G1 X-59.657 Y5.737 E11.23292
G1 X-60.861 Y5.869 E11.27360
G1 X-62.687 Y6.522 E11.33866
G1 X-64.601 Y5.242 E11.41594
G1 X-64.793 Y1.277 E11.54919
G1 X-63.568 Y-0.114 E11.61138
G1 X-62.165 Y-0.225 E11.65860
G1 X-61.967 Y-0.311 E11.66586
G1 X-61.862 Y-0.406 E11.67061
G1 X-59.481 Y-0.769 E11.75143
G1 X-58.029 Y-1.376 E11.80425
G1 X-57.748 Y-1.456 E11.81406
G1 X-52.307 Y-2.264 E11.99868
G1 X-46.821 Y-2.360 E12.18280
G1 X-41.407 Y-2.140 E12.36463
G1 X-41.230 Y-2.119 E12.37063
G1 X-39.080 Y-1.692 E12.44418
G1 X-34.193 Y-1.306 E12.60870
G1 X-33.977 Y-1.268 E12.61606
G1 X-32.835 Y-0.960 E12.65575
G1 X-30.951 Y-0.887 E12.71905
G1 X-29.491 Y-0.677 E12.76853
G1 X-25.434 Y-0.540 E12.90476
G1 X-22.818 Y-0.307 E12.99293
G1 X-19.128 Y-0.362 E13.11677
G1 X-14.056 Y-0.627 E13.28721
G1 X-12.238 Y-0.582 E13.34825
G1 X-10.174 Y-0.750 E13.41774
G1 X-9.934 Y-0.744 E13.42580
G1 X-9.479 Y-0.685 E13.44121
G1 X-9.167 Y-0.697 E13.45167
G1 X-9.070 Y-0.048 F3600.000
G1 X-8.952 Y-0.055 E13.45563 F900.000
G1 X-8.606 Y-0.018 E13.46730
G1 X-8.183 Y-0.365 E13.48566
G1 X-8.152 Y-0.711 E13.49731
G1 X-7.937 Y-1.987 E13.54075
G1 X-7.377 Y-3.544 E13.59628
G1 X-6.808 Y-4.539 E13.63476
G1 X-6.268 Y-5.262 E13.66504
G1 X-5.113 Y-6.387 E13.71915
G1 X-4.271 Y-6.979 E13.75369
G1 X-3.117 Y-7.566 E13.79713
G1 X-1.563 Y-8.033 E13.85160
G1 X-0.669 Y-8.155 E13.88187
G1 X0.453 Y-8.170 E13.91952
G1 X1.447 Y-8.053 E13.95312 F900.000
G1 X2.549 Y-7.776 E13.99125
G1 X3.838 Y-7.228 E14.03825
G1 X4.810 Y-6.620 E14.07673
G1 X5.779 Y-5.794 E14.11947
G1 X6.608 Y-4.827 E14.16220
G1 X7.015 Y-4.175 E14.18801
G1 X7.354 Y-4.006 E14.20072
G1 X9.150 Y-4.192 E14.26130
G1 X9.347 Y-4.141 E14.26814
G1 X15.646 Y-4.872 E14.48095
G1 X20.232 Y-5.265 E14.63542
G1 X25.599 Y-5.546 E14.81580
G1 X27.944 Y-5.261 E14.89505
G1 X31.069 Y-5.181 E14.99997
G1 X32.542 Y-5.022 E15.04971
G1 X34.115 Y-4.666 E15.10381
G1 X41.300 Y-4.170 E15.34552
G1 X44.892 Y-3.811 E15.46666
G1 X46.791 Y-3.720 E15.53049
G1 X51.833 Y-3.920 E15.69984
G1 X56.992 Y-4.635 E15.87463
G1 X59.135 Y-4.804 E15.94677
G1 X59.246 Y-4.832 E15.95060
G1 X59.829 Y-5.098 E15.97211
G1 X61.007 Y-5.227 E16.01185
G1 X62.597 Y-5.797 E16.06854
G1 X63.964 Y-4.882 E16.12374
G1 X64.127 Y-1.509 E16.23707
G1 X63.253 Y-0.516 E16.28149
G1 X61.892 Y-0.408 E16.32729
G1 X61.694 Y-0.323 E16.33455
G1 X61.569 Y-0.210 E16.34017
G1 X59.301 Y0.135 E16.41718
G1 X57.812 Y0.759 E16.47137
G1 X57.611 Y0.816 E16.47838
G1 X52.125 Y1.623 E16.66447
G1 X46.774 Y1.706 E16.84407
G1 X41.460 Y1.489 E17.02256
G1 X39.170 Y1.044 E17.10083
G1 X34.276 Y0.657 E17.26559
G1 X32.937 Y0.310 E17.31202
G1 X30.994 Y0.235 E17.37727
G1 X29.551 Y0.025 E17.42620
G1 X25.466 Y-0.113 E17.56339
G1 X22.842 Y-0.347 E17.65178
G1 X19.106 Y-0.291 E17.77719
G1 X14.035 Y-0.026 E17.94760
G1 X12.221 Y-0.072 E18.00851
G1 X10.156 Y0.096 E18.07804
G1 X9.984 Y0.092 E18.08380
G1 X9.502 Y0.029 E18.10011
G1 X8.952 Y0.055 E18.11860
G1 X8.576 Y0.015 E18.13128
G1 X8.155 Y0.356 E18.14947
G1 X8.025 Y1.604 E18.19160
G1 X7.990 Y1.771 E18.19730
G1 X7.521 Y3.225 E18.24857
G1 X7.453 Y3.380 E18.25426
G1 X6.695 Y4.706 E18.30554
G1 X6.595 Y4.844 E18.31123
G1 X5.594 Y5.970 E18.36179
G1 X4.801 Y6.626 E18.39633
G1 X3.699 Y7.298 E18.43965
G1 X2.285 Y7.858 E18.49068
G1 X2.122 Y7.904 E18.49639
G1 X0.478 Y8.170 E18.55227
G1 X-0.679 Y8.155 E18.59111
G1 X-1.936 Y7.951 E18.63385
G1 X-3.146 Y7.554 E18.67659
G1 X-4.280 Y6.975 E18.71932
G1 X-5.380 Y6.166 E18.76512
G1 X-6.042 Y5.517 E18.79625
G1 X-6.950 Y4.319 E18.84669
G1 X-7.038 Y4.175 E18.85235
G1 X-7.376 Y4.008 E18.86500
G1 X-9.150 Y4.192 E18.92484
G1 X-9.347 Y4.141 E18.93167
G1 X-15.646 Y4.872 E19.14449
G1 X-20.232 Y5.265 E19.29895
G1 X-25.599 Y5.546 E19.47934
G1 X-27.944 Y5.261 E19.55858
G1 X-31.069 Y5.181 E19.66351
G1 X-32.542 Y5.022 E19.71324
G1 X-34.115 Y4.666 E19.76735
G1 X-41.300 Y4.170 E20.00906
G1 X-44.892 Y3.811 E20.13020
G1 X-46.763 Y3.720 E20.19306
G1 X-51.833 Y3.920 E20.36337
G1 X-56.992 Y4.635 E20.53816
G1 X-59.135 Y4.804 E20.61030
G1 X-59.246 Y4.832 E20.61414
G1 X-59.829 Y5.098 E20.63564
G1 X-61.007 Y5.227 E20.67539
G1 X-62.597 Y5.797 E20.73208
G1 X-63.964 Y4.882 E20.78728
G1 X-64.127 Y1.509 E20.90060
G1 X-63.253 Y0.516 E20.94503
G1 X-61.892 Y0.408 E20.99082
G1 X-61.694 Y0.323 E20.99808
G1 X-61.569 Y0.210 E21.00371
G1 X-59.301 Y-0.135 E21.08071
G1 X-57.812 Y-0.759 E21.13490
G1 X-57.611 Y-0.816 E21.14192
G1 X-52.232 Y-1.614 E21.32440
G1 X-46.820 Y-1.707 E21.50606
G1 X-41.460 Y-1.489 E21.68610
G1 X-39.170 Y-1.044 E21.76436
G1 X-34.276 Y-0.657 E21.92913
G1 X-32.937 Y-0.310 E21.97556
G1 X-30.994 Y-0.235 E22.04081
G1 X-29.551 Y-0.025 E22.08973
G1 X-25.466 Y0.113 E22.22693
G1 X-22.842 Y0.347 E22.31532
G1 X-19.106 Y0.291 E22.44073
G1 X-14.035 Y0.026 E22.61113
G1 X-12.221 Y0.072 E22.67205
G1 X-10.156 Y-0.096 E22.74158
G1 X-9.984 Y-0.092 E22.74734
G1 X-9.502 Y-0.029 E22.76364
G1 X-9.130 Y-0.045 E22.77616
G1 X-9.032 Y0.604 F3600.000
G1 X-8.808 Y0.617 E22.78371 F900.000
G1 X-8.340 Y0.747 E22.79998
G1 X-8.223 Y0.758 E22.80392
G1 X-7.874 Y0.727 E22.81568
G1 X-7.533 Y0.364 E22.83240
G1 X-7.503 Y-0.630 E22.86579
G1 X-7.333 Y-1.713 E22.90256
G1 X-6.832 Y-3.165 E22.95410
G1 X-6.251 Y-4.197 E22.99385
G1 X-5.763 Y-4.847 E23.02115
G1 X-4.678 Y-5.899 E23.07185
G1 X-3.950 Y-6.410 E23.10170
G1 X-2.896 Y-6.950 E23.14145
G1 X-1.445 Y-7.391 E23.19236
G1 X-0.639 Y-7.502 E23.21965
G1 X0.504 Y-7.513 E23.25800
G1 X1.308 Y-7.415 E23.28521 F900.000
G1 X2.437 Y-7.124 E23.32433
G1 X3.513 Y-6.660 E23.36366
G1 X4.442 Y-6.080 E23.40043
G1 X5.386 Y-5.263 E23.44231
G1 X6.092 Y-4.425 E23.47908
G1 X6.671 Y-3.482 E23.51620
G1 X7.010 Y-3.314 E23.52891
G1 X8.968 Y-3.516 E23.59495
G1 X9.174 Y-3.463 E23.60209
G1 X15.717 Y-4.223 E23.82314
G1 X20.282 Y-4.614 E23.97693
G1 X25.604 Y-4.892 E24.15579
G1 X27.894 Y-4.609 E24.23321
G1 X31.014 Y-4.530 E24.33796
G1 X32.416 Y-4.380 E24.38527
G1 X34.019 Y-4.017 E24.44043
G1 X41.250 Y-3.519 E24.68369
G1 X44.843 Y-3.159 E24.80488
G1 X46.789 Y-3.066 E24.87024
G1 X51.891 Y-3.269 E25.04163
G1 X57.073 Y-3.987 E25.21717
G1 X59.438 Y-4.172 E25.29679
G1 X59.641 Y-4.262 E25.30425
G1 X59.710 Y-4.326 E25.30738
G1 X60.002 Y-4.459 E25.31817
G1 X61.152 Y-4.586 E25.35699
G1 X62.507 Y-5.071 E25.40531
G1 X63.328 Y-4.522 E25.43843
G1 X63.462 Y-1.742 E25.53183
G1 X62.937 Y-1.146 E25.55848
G1 X61.619 Y-1.042 E25.60286
G1 X61.421 Y-0.956 E25.61012
G1 X61.277 Y-0.827 E25.61662
G1 X59.121 Y-0.498 E25.68980
G1 X57.594 Y0.142 E25.74537
G1 X57.473 Y0.176 E25.74958
G1 X52.093 Y0.970 E25.93210
G1 X46.791 Y1.053 E26.11005
G1 X41.512 Y0.837 E26.28738
G1 X39.260 Y0.396 E26.36437
G1 X34.359 Y0.009 E26.52938
G1 X33.038 Y-0.339 E26.57522
G1 X31.037 Y-0.417 E26.64242
G1 X29.611 Y-0.626 E26.69079
G1 X25.469 Y-0.767 E26.82987
G1 X22.901 Y-0.999 E26.91641
G1 X19.084 Y-0.944 E27.04453
G1 X14.014 Y-0.679 E27.21491
G1 X12.203 Y-0.726 E27.27570
G1 X10.137 Y-0.558 E27.34527
G1 X9.526 Y-0.627 E27.36592
G1 X8.968 Y-0.600 E27.38466
G1 X8.808 Y-0.617 E27.39007
G1 X8.340 Y-0.747 E27.40634
G1 X8.223 Y-0.758 E27.41028
G1 X7.870 Y-0.727 E27.42218
G1 X7.527 Y-0.348 E27.43934
G1 X7.530 Y0.046 E27.45257
G1 X7.378 Y1.503 E27.50172
G1 X6.910 Y2.992 E27.55412
G1 X6.144 Y4.353 E27.60651
G1 X5.123 Y5.517 E27.65848
G1 X4.437 Y6.083 E27.68833
G1 X3.432 Y6.702 E27.72795
G1 X1.978 Y7.265 E27.78026
G1 X0.457 Y7.516 E27.83202
G1 X-0.645 Y7.502 E27.86901
G1 X-1.801 Y7.311 E27.90833
G1 X-2.914 Y6.943 E27.94766
G1 X-3.956 Y6.407 E27.98699
G1 X-4.894 Y5.722 E28.02597
G1 X-5.486 Y5.159 E28.05339
G1 X-6.410 Y3.950 E28.10444
G1 X-6.633 Y3.513 E28.12091
G1 X-6.993 Y3.312 E28.13475
G1 X-8.968 Y3.516 E28.20138
G1 X-9.174 Y3.463 E28.20852
G1 X-15.717 Y4.223 E28.42957
G1 X-20.282 Y4.614 E28.58336
G1 X-25.604 Y4.892 E28.76222
G1 X-27.894 Y4.609 E28.83964
G1 X-31.014 Y4.530 E28.94439
G1 X-32.416 Y4.380 E28.99170
G1 X-34.019 Y4.017 E29.04686
G1 X-41.250 Y3.519 E29.29012
G1 X-44.843 Y3.159 E29.41131
G1 X-46.789 Y3.066 E29.47667
G1 X-51.891 Y3.269 E29.64806
G1 X-57.073 Y3.987 E29.82360
G1 X-59.438 Y4.172 E29.90322
G1 X-59.641 Y4.262 E29.91068
G1 X-59.710 Y4.326 E29.91381
G1 X-60.002 Y4.459 E29.92460
G1 X-61.152 Y4.586 E29.96342
G1 X-62.507 Y5.071 E30.01174
G1 X-63.328 Y4.522 E30.04486
G1 X-63.462 Y1.742 E30.13826
G1 X-62.937 Y1.146 E30.16491
G1 X-61.619 Y1.042 E30.20929
G1 X-61.421 Y0.956 E30.21655
G1 X-61.277 Y0.827 E30.22305
G1 X-59.121 Y0.498 E30.29623
G1 X-57.594 Y-0.142 E30.35180
G1 X-57.473 Y-0.176 E30.35601
G1 X-52.093 Y-0.970 E30.53853
G1 X-46.791 Y-1.053 E30.71648
G1 X-41.512 Y-0.837 E30.89380
G1 X-39.260 Y-0.396 E30.97080
G1 X-34.359 Y-0.009 E31.13581
G1 X-33.038 Y0.339 E31.18165
G1 X-31.037 Y0.417 E31.24885
G1 X-29.611 Y0.626 E31.29722
G1 X-25.469 Y0.767 E31.43630
G1 X-22.867 Y1.001 E31.52399
G1 X-19.084 Y0.944 E31.65096
G1 X-14.014 Y0.679 E31.82134
G1 X-12.203 Y0.726 E31.88213
G1 X-10.137 Y0.558 E31.95170
G1 X-9.526 Y0.627 E31.97235
G1 X-9.092 Y0.607 E31.98692
G1 F2880
G1 X-8.808 Y0.617 E31.81800
G1 F2880
G1 X-8.340 Y0.747 E31.53002
G1 F2880
G1 X-8.223 Y0.758 E31.46041
G1 F2880
G1 X-7.874 Y0.727 E31.25227
G1 F2880
G1 X-7.533 Y0.364 E30.95644
G1 F2880
G1 X-7.503 Y-0.630 E30.36580
G1 F2880
G1 X-7.333 Y-1.713 E29.71523
G1 F2880
G1 X-6.832 Y-3.165 E28.80330
G1 F2880
G1 X-6.323 Y-4.069 E28.18692
G1 E27.98692 F1800.00000
G92 E0
G1 X-62.622 Y1.776 F3600.000
G1 E4.00000 F1800.00000
G1 X-61.346 Y1.676 E4.04296 F900.000
G1 X-61.147 Y1.590 E4.05021
G1 X-60.984 Y1.443 E4.05759
G1 X-58.941 Y1.131 E4.12696
G1 X-57.336 Y0.464 E4.18529
G1 X-52.083 Y-0.316 E4.36353
G1 X-46.818 Y-0.400 E4.54024
G1 X-41.564 Y-0.186 E4.71671
G1 X-39.350 Y0.252 E4.79243
G1 X-34.442 Y0.640 E4.95769
G1 X-33.139 Y0.989 E5.00293
G1 X-31.081 Y1.069 E5.07208
G1 X-29.671 Y1.278 E5.11990
G1 X-25.519 Y1.418 E5.25932
G1 X-22.926 Y1.653 E5.34670
G1 X-19.062 Y1.596 E5.47639
G1 X-13.993 Y1.332 E5.64673
G1 X-12.186 Y1.379 E5.70740
G1 X-10.119 Y1.212 E5.77701
G1 X-9.549 Y1.282 E5.79627
G1 X-8.930 Y1.261 E5.81704
G1 X-8.401 Y1.408 E5.83548
G1 X-8.284 Y1.419 E5.83942
G1 X-7.130 Y1.317 E5.87831
G1 X-6.781 Y0.880 E5.89709
G1 X-6.875 Y0.175 E5.92098
G1 X-6.856 Y-0.529 E5.94459
G1 X-6.685 Y-1.611 E5.98136
G1 X-6.213 Y-2.947 E6.02892
G1 X-5.695 Y-3.854 E6.06399
G1 X-5.258 Y-4.432 E6.08830
G1 X-4.224 Y-5.426 E6.13643
G1 X-3.630 Y-5.840 E6.16075
G1 X-2.703 Y-6.323 E6.19581
G1 X-1.351 Y-6.742 E6.24330
G1 X-0.609 Y-6.849 E6.26847
G1 X0.428 Y-6.863 E6.30327
G1 X1.170 Y-6.776 E6.32834
G1 X2.205 Y-6.514 E6.36418
G1 X3.189 Y-6.093 E6.40010
G1 X4.075 Y-5.539 E6.43516
G1 X4.885 Y-4.840 E6.47108
G1 X5.592 Y-4.003 E6.50784
G1 X6.132 Y-3.111 E6.54284
G1 X6.257 Y-2.831 E6.55312
G1 X6.625 Y-2.617 E6.56739
G1 X8.785 Y-2.841 E6.64029
G1 X9.000 Y-2.786 E6.64772
G1 X15.787 Y-3.573 E6.87702
G1 X20.333 Y-3.962 E7.03013
G1 X25.609 Y-4.239 E7.20746
G1 X27.844 Y-3.957 E7.28306
G1 X30.946 Y-3.880 E7.38720
G1 X32.270 Y-3.743 E7.43186
G1 X33.923 Y-3.369 E7.48873
G1 X41.200 Y-2.868 E7.73354
G1 X44.795 Y-2.508 E7.85478
G1 X46.786 Y-2.413 E7.92167
G1 X51.950 Y-2.618 E8.09510
G1 X57.153 Y-3.339 E8.27139
G1 X59.717 Y-3.539 E8.35771
G1 X59.920 Y-3.629 E8.36517
G1 X60.078 Y-3.775 E8.37239
G1 X60.175 Y-3.820 E8.37599
G1 X61.297 Y-3.944 E8.41387
G1 X62.418 Y-4.345 E8.45382
G1 X62.691 Y-4.162 E8.46486
G1 X62.797 Y-1.975 E8.53834
G1 X62.622 Y-1.777 E8.54722
G1 X61.346 Y-1.676 E8.59018
G1 X61.147 Y-1.590 E8.59743
G1 X60.984 Y-1.443 E8.60481
G1 X58.941 Y-1.131 E8.67418
G1 X57.336 Y-0.464 E8.73251
G1 X52.083 Y0.316 E8.91075
G1 X46.818 Y0.400 E9.08746
G1 X41.564 Y0.186 E9.26393
G1 X39.350 Y-0.252 E9.33965
G1 X34.442 Y-0.640 E9.50491
G1 X33.139 Y-0.989 E9.55015
G1 X31.081 Y-1.069 E9.61930
G1 X29.671 Y-1.278 E9.66712
G1 X25.519 Y-1.418 E9.80654
G1 X22.926 Y-1.653 E9.89392
G1 X19.062 Y-1.596 E10.02361
G1 X13.993 Y-1.332 E10.19395
G1 X12.186 Y-1.379 E10.25462
G1 X10.119 Y-1.212 E10.32423
