; generated by Slic3r 1.2.9 on 2016-05-24 at 07:38:17

; external perimeters extrusion width = 0.40mm
; perimeters extrusion width = 0.56mm
; infill extrusion width = 0.56mm
; solid infill extrusion width = 0.56mm
; top infill extrusion width = 0.56mm

M190 S105 ; set bed temperature
G21; set mm units 
G92 E0; reset extruder distance 
G90; set absolute coordinates 
G28 ; home all axes
M106 S255; Set cooling fan on
M109 S240 ; set nozzle heater to first layer temperature
G29 ; Self Calibrate
G1 Z15 F2000; slightly raise from bed
G1 X55 Y-50 F2000; move to purging zone
G1 X-35 Y-50 E12 F300.000; extrude a line of filament across the front edge of the bed
G4 P2000; wait for ooze to slow
G1 Z0 F6000.000; lower nozzle height to 0
G1 X-55 F400; wipe nozzle
G1 Z100% F6000.000; set nozzle to first layer height
G1 F12000; ensure fast travel to first print move
G92 E0; set E to 0 again
G1 X0 F900; back to home
G1 Z0 F2000; back to home
G21 ; set units to millimeters
G90 ; use absolute coordinates
M82 ; use absolute distances for extrusion
G92 E0
M106 S255
G1 Z0.250 F3600.000
G1 E-4.00000 F1800.00000
G92 E0
G1 X-28.084 Y0.000 F3600.000
G1 E4.00000 F1800.00000
G1 X-28.084 Y-35.000 E5.80785 F900.000
G1 X-27.522 Y-37.749 E5.95280
G1 X-27.315 Y-38.233 E5.97998
G1 X-25.699 Y-40.561 E6.12639
G1 X-25.266 Y-40.973 E6.15724
G1 X-22.452 Y-42.605 E6.32525
G1 X-22.013 Y-42.737 E6.34894
G1 X-20.000 Y-43.033 E6.45403
G1 X20.000 Y-43.033 E8.52015
G1 X21.797 Y-42.798 E8.61375
G1 X22.143 Y-42.706 E8.63227 F900.000
G1 X24.052 Y-41.881 E8.73967
G1 X24.393 Y-41.668 E8.76041
G1 X26.437 Y-39.725 E8.90611
G1 X26.666 Y-39.395 E8.92686
G1 X27.394 Y-38.062 E9.00530
G1 X27.556 Y-37.669 E9.02728
G1 X28.084 Y-35.000 E9.16779
G1 X28.084 Y35.000 E12.78349
G1 X27.452 Y37.908 E12.93722
G1 X27.192 Y38.478 E12.96958
G1 X25.645 Y40.648 E13.10721
G1 X25.354 Y40.924 E13.12796
G1 X22.685 Y42.511 E13.28834
G1 X22.157 Y42.682 E13.31698
G1 X20.000 Y43.023 E13.42979
G1 X-20.000 Y43.023 E15.49590
G1 X-21.870 Y42.768 E15.59340
G1 X-22.310 Y42.647 E15.61694
G1 X-24.728 Y41.435 E15.75664
G1 X-25.045 Y41.189 E15.77738
G1 X-26.882 Y39.049 E15.92304
G1 X-27.077 Y38.698 E15.94378
G1 X-27.525 Y37.741 E15.99838
G1 X-28.084 Y35.000 E16.14288
G1 X-28.084 Y0.060 E17.94764
G1 X-27.581 Y0.000 F3600.000
G1 X-27.581 Y-35.000 E19.75549 F900.000
G1 X-27.060 Y-37.552 E19.89003
G1 X-26.853 Y-38.036 E19.91722
G1 X-25.352 Y-40.197 E20.05312
G1 X-24.919 Y-40.609 E20.08397
G1 X-22.308 Y-42.124 E20.23992
G1 X-21.869 Y-42.256 E20.26361
G1 X-20.000 Y-42.530 E20.36117
G1 X20.000 Y-42.530 E22.42728
G1 X21.668 Y-42.312 E22.51417
G1 X22.014 Y-42.220 E22.53268 F900.000
G1 X23.786 Y-41.454 E22.63238
G1 X24.127 Y-41.242 E22.65312
G1 X26.024 Y-39.438 E22.78837
G1 X26.254 Y-39.108 E22.80911
G1 X26.929 Y-37.870 E22.88193
G1 X27.091 Y-37.477 E22.90391
G1 X27.581 Y-35.000 E23.03433
G1 X27.581 Y35.000 E26.65004
G1 X26.994 Y37.700 E26.79274
G1 X26.734 Y38.269 E26.82509
G1 X25.298 Y40.283 E26.95285
G1 X25.007 Y40.560 E26.97359
G1 X22.530 Y42.033 E27.12247
G1 X22.002 Y42.204 E27.15111
G1 X20.000 Y42.520 E27.25582
G1 X-20.000 Y42.520 E29.32194
G1 X-21.736 Y42.284 E29.41244
G1 X-22.175 Y42.162 E29.43598
G1 X-24.420 Y41.037 E29.56566
G1 X-24.737 Y40.792 E29.58640
G1 X-26.442 Y38.806 E29.72160
G1 X-26.637 Y38.454 E29.74235
G1 X-27.063 Y37.544 E29.79423
G1 X-27.581 Y35.000 E29.92836
G1 X-27.581 Y0.060 E31.73312
G1 F2880
G1 X-27.581 Y-6.340 E27.93312
G1 E27.73312 F1800.00000
G92 E0
G1 X-24.346 Y0.000 F3600.000
G1 E4.00000 F1800.00000
G1 X-24.346 Y-36.353 E5.87776 F900.000
G1 X-23.852 Y-36.859 E5.91424
G1 X-23.461 Y-37.531 E5.95441
G1 X-22.412 Y-38.529 E6.02921
G1 X-21.746 Y-38.914 E6.06893
G1 X-20.710 Y-39.225 E6.12480
G1 X-20.238 Y-39.295 E6.14944
G1 X20.212 Y-39.295 E8.23884
G1 X20.633 Y-39.240 E8.26076
G1 X21.420 Y-39.031 E8.30282 F900.000
G1 X21.868 Y-38.837 E8.32801
G1 X22.697 Y-38.320 E8.37851
G1 X23.179 Y-37.862 E8.41284
G1 X23.788 Y-36.987 E8.46791
G1 X23.880 Y-36.820 E8.47776
G1 X24.346 Y-36.353 E8.51182
G1 X24.346 Y36.353 E12.26734
G1 X23.882 Y36.817 E12.30124
G1 X23.371 Y37.651 E12.35175
G1 X22.513 Y38.467 E12.41292
G1 X21.882 Y38.842 E12.45080
G1 X20.762 Y39.205 E12.51161
G1 X20.256 Y39.284 E12.53808
G1 X-20.221 Y39.284 E14.62885
G1 X-20.659 Y39.225 E14.65168
G1 X-21.618 Y38.959 E14.70309
G1 X-22.188 Y38.674 E14.73598
G1 X-23.020 Y38.030 E14.79032
G1 X-23.452 Y37.526 E14.82464
G1 X-23.825 Y36.874 E14.86342
G1 X-24.346 Y36.353 E14.90146
G1 X-24.346 Y0.060 E16.77612
G1 X-23.843 Y0.000 F3600.000
G1 X-23.843 Y-36.145 E18.64312 F900.000
G1 X-23.451 Y-36.549 E18.67223
G1 X-23.063 Y-37.216 E18.71206
G1 X-22.108 Y-38.123 E18.78010
G1 X-21.545 Y-38.450 E18.81371
G1 X-20.601 Y-38.733 E18.86463
G1 X-20.202 Y-38.792 E18.88548
G1 X20.180 Y-38.792 E20.97129
G1 X20.536 Y-38.745 E20.98984 F900.000
G1 X21.255 Y-38.555 E21.02828
G1 X21.634 Y-38.391 E21.04959
G1 X22.388 Y-37.920 E21.09551
G1 X22.796 Y-37.533 E21.12456
G1 X23.346 Y-36.742 E21.17435
G1 X23.456 Y-36.533 E21.18655
G1 X23.843 Y-36.145 E21.21485
G1 X23.843 Y36.145 E24.94885
G1 X23.439 Y36.549 E24.97837
G1 X23.351 Y36.734 E24.98893
G1 X22.978 Y37.331 E25.02530
G1 X22.207 Y38.064 E25.08026
G1 X21.674 Y38.381 E25.11230
G1 X20.645 Y38.714 E25.16816
G1 X20.217 Y38.782 E25.19056
G1 X-20.187 Y38.782 E27.27754
G1 X-20.558 Y38.731 E27.29686
G1 X-21.437 Y38.488 E27.34398
G1 X-21.919 Y38.247 E27.37181
G1 X-22.671 Y37.664 E27.42099
G1 X-23.038 Y37.237 E27.45003
G1 X-23.420 Y36.569 E27.48981
G1 X-23.843 Y36.145 E27.52074
G1 X-23.843 Y0.060 E29.38464
G1 X-23.341 Y0.000 F3600.000
G1 X-23.341 Y-35.937 E31.24088 F900.000
G1 X-23.058 Y-36.220 E31.26154
G1 X-22.665 Y-36.901 E31.30217
G1 X-21.805 Y-37.718 E31.36345
G1 X-21.344 Y-37.986 E31.39095
G1 X-20.492 Y-38.241 E31.43692
G1 X-20.165 Y-38.289 E31.45398
G1 X20.147 Y-38.289 E33.53621
G1 X20.438 Y-38.251 E33.55139
G1 X21.090 Y-38.078 E33.58620 F900.000
G1 X21.400 Y-37.944 E33.60364
G1 X22.079 Y-37.521 E33.64499
G1 X22.412 Y-37.204 E33.66875
G1 X22.905 Y-36.497 E33.71326
G1 X23.032 Y-36.245 E33.72781
G1 X23.341 Y-35.937 E33.75035
G1 X23.341 Y35.937 E37.46284
G1 X22.997 Y36.281 E37.48798
G1 X22.934 Y36.385 E37.49426
G1 X22.891 Y36.522 E37.50167
G1 X22.586 Y37.011 E37.53143
G1 X21.902 Y37.661 E37.58017
G1 X21.466 Y37.920 E37.60639
G1 X20.528 Y38.224 E37.65730
G1 X20.177 Y38.279 E37.67562
G1 X-20.153 Y38.279 E39.75881
G1 X-20.456 Y38.238 E39.77462
G1 X-21.256 Y38.017 E39.81745
G1 X-21.650 Y37.819 E39.84022
G1 X-22.323 Y37.298 E39.88423
G1 X-22.623 Y36.949 E39.90799
G1 X-22.972 Y36.319 E39.94518
G1 X-23.341 Y35.937 E39.97259
G1 X-23.341 Y0.060 E41.82573
G1 X-22.838 Y0.000 F3600.000
G1 X-22.838 Y-35.729 E43.67123 F900.000
G1 X-22.604 Y-35.963 E43.68834
G1 X-22.536 Y-36.082 E43.69542
G1 X-22.519 Y-36.152 E43.69912
G1 X-22.266 Y-36.586 E43.72507
G1 X-21.501 Y-37.313 E43.77959
G1 X-21.143 Y-37.521 E43.80098
G1 X-20.383 Y-37.749 E43.84200
G1 X-20.128 Y-37.787 E43.85526
G1 X20.114 Y-37.787 E45.93391
G1 X20.341 Y-37.757 E45.94572 F900.000
G1 X20.925 Y-37.602 E45.97691
G1 X21.166 Y-37.498 E45.99047
G1 X21.770 Y-37.121 E46.02724
G1 X22.029 Y-36.875 E46.04573
G1 X22.463 Y-36.252 E46.08495
G1 X22.555 Y-36.038 E46.09696
G1 X22.608 Y-35.958 E46.10191
G1 X22.838 Y-35.729 E46.11869
G1 X22.838 Y35.729 E49.80968
G1 X22.554 Y36.013 E49.83043
G1 X22.491 Y36.117 E49.83671
G1 X22.430 Y36.310 E49.84719
G1 X22.193 Y36.691 E49.87034
G1 X21.596 Y37.258 E49.91285
G1 X21.257 Y37.459 E49.93324
G1 X20.411 Y37.734 E49.97921
G1 X20.138 Y37.777 E49.99346
G1 X-20.119 Y37.777 E52.07285
G1 X-20.355 Y37.744 E52.08515
G1 X-21.074 Y37.545 E52.12370
G1 X-21.381 Y37.392 E52.14141
G1 X-21.975 Y36.931 E52.18024
G1 X-22.208 Y36.660 E52.19872
G1 X-22.567 Y36.013 E52.23692
G1 X-22.838 Y35.729 E52.25721
G1 X-22.838 Y0.060 E54.09960
G1 X-22.335 Y0.000 F3600.000
G1 X-22.335 Y-35.521 E55.93434 F900.000
G1 X-22.150 Y-35.706 E55.94791
G1 X-22.082 Y-35.826 E55.95499
G1 X-22.048 Y-35.961 E55.96220
G1 X-21.868 Y-36.271 E55.98074
G1 X-21.198 Y-36.908 E56.02849
G1 X-20.942 Y-37.057 E56.04377
G1 X-20.273 Y-37.257 E56.07984
G1 X-20.092 Y-37.284 E56.08931
G1 X20.082 Y-37.284 E58.16438
G1 X20.243 Y-37.263 E58.17281
G1 X20.759 Y-37.126 E58.20039 F900.000
G1 X20.932 Y-37.051 E58.21007
G1 X21.460 Y-36.722 E58.24226
G1 X21.646 Y-36.546 E58.25547
G1 X22.021 Y-36.006 E58.28941
G1 X22.131 Y-35.751 E58.30378
G1 X22.184 Y-35.671 E58.30873
G1 X22.335 Y-35.521 E58.31975
G1 X22.335 Y35.521 E61.98922
G1 X22.111 Y35.745 E62.00559
G1 X22.048 Y35.849 E62.01187
G1 X21.970 Y36.099 E62.02542
G1 X21.800 Y36.370 E62.04195
G1 X21.291 Y36.854 E62.07824
G1 X21.049 Y36.999 E62.09281
G1 X20.293 Y37.243 E62.13382
G1 X20.099 Y37.274 E62.14400
G1 X-20.085 Y37.274 E64.21960
G1 X-20.254 Y37.251 E64.22839
G1 X-20.893 Y37.074 E64.26265
G1 X-21.112 Y36.964 E64.27530
G1 X-21.627 Y36.565 E64.30896
G1 X-21.794 Y36.371 E64.32216
G1 X-22.178 Y35.677 E64.36315
G1 X-22.335 Y35.521 E64.37461
G1 X-22.335 Y0.060 E66.20625
G1 X-21.833 Y0.000 F3600.000
G1 X-21.833 Y-35.312 E68.03023 F900.000
G1 X-21.695 Y-35.450 E68.04026
G1 X-21.628 Y-35.569 E68.04734
G1 X-21.578 Y-35.770 E68.05806
G1 X-21.470 Y-35.956 E68.06918
G1 X-20.894 Y-36.503 E68.11017
G1 X-20.741 Y-36.592 E68.11934
G1 X-20.164 Y-36.765 E68.15045
G1 X-20.055 Y-36.781 E68.15614
G1 X20.049 Y-36.781 E70.22762
G1 X20.594 Y-36.650 E70.25660 F900.000
G1 X20.697 Y-36.605 E70.26241
G1 X21.151 Y-36.322 E70.29002
G1 X21.262 Y-36.217 E70.29794
G1 X21.579 Y-35.761 E70.32660
G1 X21.654 Y-35.551 E70.33813
G1 X21.724 Y-35.421 E70.34575
G1 X21.833 Y-35.312 E70.35369
G1 X21.833 Y35.312 E74.00166
G1 X21.669 Y35.476 E74.01364
G1 X21.606 Y35.580 E74.01992
G1 X21.509 Y35.887 E74.03653
G1 X21.408 Y36.050 E74.04645
G1 X20.986 Y36.451 E74.07653
G1 X20.840 Y36.538 E74.08527
G1 X20.176 Y36.753 E74.12133
G1 X20.059 Y36.771 E74.12744
G1 X-20.051 Y36.771 E76.19925
G1 X-20.711 Y36.603 E76.23445
G1 X-20.843 Y36.537 E76.24204
G1 X-21.279 Y36.199 E76.27054
G1 X-21.379 Y36.083 E76.27846
G1 X-21.739 Y35.406 E76.31805
G1 X-21.833 Y35.312 E76.32489
G1 X-21.833 Y0.060 E78.14578
G1 X-21.330 Y0.000 F3600.000
G1 X-21.330 Y-35.104 E79.95901 F900.000
G1 X-21.241 Y-35.193 E79.96549
G1 X-21.174 Y-35.312 E79.97257
G1 X-21.107 Y-35.579 E79.98680
G1 X-21.071 Y-35.642 E79.99050
G1 X-20.591 Y-36.098 E80.02473
G1 X-20.540 Y-36.128 E80.02779
G1 X-20.018 Y-36.279 E80.05583
G1 X20.049 Y-36.274 E82.12541
G1 X20.463 Y-36.159 E82.14765 F900.000
G1 X20.842 Y-35.923 E82.17068
G1 X21.138 Y-35.516 E82.19666
G1 X21.192 Y-35.302 E82.20806
G1 X21.262 Y-35.172 E82.21567
G1 X21.330 Y-35.104 E82.22065
G1 X21.330 Y35.104 E85.84711
G1 X21.226 Y35.208 E85.85471
G1 X21.163 Y35.312 E85.86099
G1 X21.049 Y35.676 E85.88067
G1 X21.015 Y35.730 E85.88397
G1 X20.680 Y36.048 E85.90783
G1 X20.020 Y36.269 E85.94380
G1 X-20.017 Y36.269 E88.01181
G1 X-20.530 Y36.131 E88.03924
G1 X-20.931 Y35.833 E88.06505
G1 X-21.183 Y35.400 E88.09092
G1 X-21.205 Y35.304 E88.09601
G1 X-21.278 Y35.156 E88.10452
G1 X-21.330 Y35.104 E88.10833
G1 X-21.330 Y0.060 E89.91846
G1 F2880
G1 X-21.330 Y-6.340 E86.11846
G1 E85.91846 F1800.00000
G92 E0
G1 X20.200 Y-2.200 F3600.000
G1 E4.00000 F1800.00000
G1 X-20.879 Y-2.200 E5.46203 F630.000
G1 X-20.879 Y-34.800 E6.62229
G1 X-20.836 Y-34.800 E6.62381
G1 X-20.692 Y-35.379 E6.64506
G1 X-20.336 Y-35.718 E6.66254
G1 X-19.971 Y-35.827 E6.67612
G1 X19.974 Y-35.827 E8.09778
G1 X20.266 Y-35.750 E8.10854
G1 X20.547 Y-35.575 E8.12030
G1 X20.729 Y-35.313 E8.13167
G1 X20.834 Y-34.800 E8.15030
G1 X20.879 Y-34.800 E8.15188
G1 X20.879 Y34.711 E10.62583
G1 X20.643 Y35.461 E10.65380
G1 X20.423 Y35.670 E10.66463
G1 X19.968 Y35.817 E10.68163
G1 X-19.973 Y35.817 E12.10318
G1 X-20.348 Y35.713 E12.11703
G1 X-20.602 Y35.517 E12.12846
G1 X-20.759 Y35.234 E12.13995
G1 X-20.818 Y34.800 E12.15556
G1 X-20.879 Y34.800 E12.15773
G1 X-20.879 Y0.700 E13.37138
G1 X20.200 Y0.700 E14.83340
G1 X20.200 Y-2.140 E14.93448
G1 X20.200 Y-2.600 F3600.000
G1 X20.454 Y-2.625 F3600.000
G1 X14.987 Y-2.625 E15.21690 F900.000
G1 X15.299 Y-2.922 E15.23918
G1 X15.599 Y-3.620 E15.27844
G1 X15.599 Y-4.380 E15.31768
G1 X15.299 Y-5.078 E15.35694
G1 X14.748 Y-5.602 E15.39619
G1 X14.065 Y-5.855 E15.43386
G1 X13.613 Y-5.875 E15.45723
G1 X12.918 Y-5.694 E15.49429
G1 X12.318 Y-5.229 E15.53351
G1 X11.949 Y-4.565 E15.57277
G1 X11.872 Y-3.809 E15.61202
G1 X12.100 Y-3.084 E15.65127
G1 X12.494 Y-2.625 E15.68255
G1 X-20.454 Y-2.625 E17.38442
G1 X-20.454 Y-34.576 E19.03481
G1 X-20.310 Y-35.157 E19.06572
G1 X-20.117 Y-35.340 E19.07947
G1 X-19.908 Y-35.403 E19.09072
G1 X19.919 Y-35.403 E21.14790
G1 X20.096 Y-35.356 E21.15736
G1 X20.248 Y-35.261 E21.16664
G1 X20.331 Y-35.142 E21.17412
G1 X20.454 Y-34.541 E21.20580
G1 X20.454 Y-2.685 E22.85129
G1 X9.678 Y-11.875 F3600.000
G1 X8.751 Y-10.794 E22.90198 F630.000
G1 X6.718 Y-9.221 E22.99345
G1 X4.411 Y-8.090 E23.08491
G1 X1.923 Y-7.445 E23.17638
G1 X-0.643 Y-7.315 E23.26784
G1 X-3.184 Y-7.704 E23.35931
G1 X-5.593 Y-8.597 E23.45077
G1 X-7.774 Y-9.956 E23.54224
G1 X-9.637 Y-11.727 E23.63370
G1 X-11.105 Y-13.836 E23.72517
G1 X-12.119 Y-16.198 E23.81663
G1 X-12.636 Y-18.715 E23.90810
G1 X-12.636 Y-21.285 E23.99956
G1 X-12.119 Y-23.802 E24.09102
G1 X-11.105 Y-26.164 E24.18249
G1 X-9.637 Y-28.273 E24.27395
G1 X-7.774 Y-30.044 E24.36542
G1 X-5.593 Y-31.403 E24.45688
G1 X-3.184 Y-32.296 E24.54835
G1 X-0.801 Y-32.661 E24.63414 F630.000
G1 X1.922 Y-32.555 E24.73112
G1 X4.411 Y-31.910 E24.82263
G1 X6.718 Y-30.779 E24.91410
G1 X8.751 Y-29.206 E25.00556
G1 X10.424 Y-27.256 E25.09702
G1 X11.672 Y-25.009 E25.18849
G1 X12.441 Y-22.557 E25.27996
G1 X12.701 Y-20.000 E25.37142
G1 X12.441 Y-17.443 E25.46288
G1 X11.672 Y-14.991 E25.55435
G1 X10.424 Y-12.744 E25.64582
G1 X9.718 Y-11.921 E25.68445
G1 X9.811 Y-11.498 F3600.000
G1 X10.001 Y-11.599 F3600.000
G1 X9.045 Y-10.485 E25.76025 F900.000
G1 X6.944 Y-8.859 E25.89746
G1 X4.559 Y-7.689 E26.03465
G1 X1.988 Y-7.024 E26.17186
G1 X-0.665 Y-6.889 E26.30906
G1 X-3.291 Y-7.291 E26.44626
G1 X-5.781 Y-8.214 E26.58346
G1 X-8.036 Y-9.619 E26.72066
G1 X-9.961 Y-11.449 E26.85786
G1 X-11.478 Y-13.629 E26.99506
G1 X-12.526 Y-16.070 E27.13227
G1 X-13.060 Y-18.672 E27.26947
G1 X-13.060 Y-21.328 E27.40667
G1 X-12.526 Y-23.930 E27.54387
G1 X-11.478 Y-26.371 E27.68107
G1 X-9.961 Y-28.551 E27.81828
G1 X-8.036 Y-30.381 E27.95548
G1 X-5.781 Y-31.786 E28.09268
G1 X-3.291 Y-32.709 E28.22988
G1 X-0.825 Y-33.086 E28.35872 F900.000
G1 X1.984 Y-32.977 E28.50393
G1 X4.559 Y-32.311 E28.64133
G1 X6.944 Y-31.141 E28.77852
G1 X9.045 Y-29.515 E28.91573
G1 X10.775 Y-27.500 E29.05293
G1 X12.064 Y-25.177 E29.19013
G1 X12.859 Y-22.643 E29.32733
G1 X13.128 Y-20.000 E29.46453
G1 X12.859 Y-17.357 E29.60173
G1 X12.064 Y-14.823 E29.73893
G1 X10.775 Y-12.501 E29.87614
G1 X10.040 Y-11.644 E29.93443
G1 X13.109 Y-5.306 F3600.000
G1 X13.658 Y-5.448 E29.95460 F450.000
G1 X13.979 Y-5.434 E29.96606
G1 X14.519 Y-5.234 E29.98655
G1 X14.944 Y-4.831 E30.00739
G1 X15.174 Y-4.293 E30.02822
G1 X15.174 Y-3.707 E30.04906
G1 X14.944 Y-3.169 E30.06989
G1 X14.519 Y-2.766 E30.09073
G1 X13.970 Y-2.563 E30.11157
G1 X13.386 Y-2.592 E30.13240
G1 X12.860 Y-2.850 E30.15324
G1 X12.479 Y-3.294 E30.17408
G1 X12.303 Y-3.853 E30.19491
G1 X12.362 Y-4.435 E30.21575
G1 X12.647 Y-4.947 E30.23659
G1 X13.062 Y-5.269 E30.25528
G1 X13.163 Y-5.702 F3600.000
G1 F2880
G1 X13.658 Y-5.448 E29.88589
G1 F2880
G1 X13.979 Y-5.434 E29.69464
G1 F2880
G1 X14.519 Y-5.234 E29.35288
G1 F2880
G1 X14.944 Y-4.831 E29.00525
G1 F2880
G1 X15.174 Y-4.293 E28.65763
G1 F2880
G1 X15.174 Y-3.707 E28.31006
G1 F2880
G1 X14.944 Y-3.169 E27.96244
G1 F2880
G1 X14.519 Y-2.766 E27.61481
G1 F2880
G1 X13.970 Y-2.563 E27.26721
G1 F2880
G1 X13.386 Y-2.592 E26.91960
G1 F2880
G1 X12.860 Y-2.850 E26.57200
G1 F2880
G1 X12.732 Y-2.999 E26.45528
G1 E26.25528 F1800.00000
G92 E0
G1 X15.741 Y-3.000 F3600.000
G1 X16.517 Y-3.543 F3600.000
G1 X17.976 Y-5.103 F3600.000
G1 X20.079 Y-3.000 F3600.000
G1 X20.454 Y1.125 F3600.000
G1 E4.00000 F1800.00000
G1 X20.454 Y34.646 E5.73146 F900.000
G1 X20.271 Y35.229 E5.76302
G1 X20.200 Y35.296 E5.76808
G1 X19.901 Y35.393 E5.78430
G1 X-19.915 Y35.393 E7.84094
G1 X-20.154 Y35.326 E7.85375
