; generated by Slic3r 1.2.1 on 2015-05-26 at 20:23:42

; external perimeters extrusion width = 0.35mm
; perimeters extrusion width = 0.52mm
; infill extrusion width = 0.52mm
; solid infill extrusion width = 0.52mm
; top infill extrusion width = 0.52mm

M107
G21; set mm units 
G92 E0; reset extruder distance 
G90; set absolute coordinates 
G28 ; home all axes
M109 S200 ; set nozzle heater to first layer temperature
G29 ; Self Calibrate
G1 Z15 F2000; slightly raise from bed
G1 X55 Y-50 F2000; move to purging zone
G1 X-35 Y-50 E12 F300.000; extrude a line of filament across the front edge of the bed
G4 P2000; wait for ooze to slow
G1 Z0 F6000.000; lower nozzle height to 0
G1 X-55 F400; wipe nozzle
G1 Z100% F6000.000; set nozzle to first layer height
G1 F12000; ensure fast travel to first print move
G92 E0; set E to 0 again
G1 X0 F900; back to home
G1 Z0 F2000; back to home
G21 ; set units to millimeters
G90 ; use absolute coordinates
M82 ; use absolute distances for extrusion
G92 E0
G1 E-1.00000 F1800.000
G92 E0
G1 Z0.200 F3600.000
G1 X-30.964 Y-30.867 F3600.000
G1 E1.00000 F1800.000
G1 X30.207 Y-38.892 E3.46783 F900.000
G1 X30.957 Y-38.961 E3.49795
G1 X31.934 Y-38.979 E3.53703
G1 X32.486 Y-38.953 E3.55912
G1 X33.457 Y-38.841 E3.59822
G1 X34.415 Y-38.647 E3.63732
G1 X34.826 Y-38.538 E3.65435
G1 X35.753 Y-38.228 E3.69345
G1 X36.651 Y-37.841 E3.73257
G1 X37.513 Y-37.379 E3.77166
G1 X37.981 Y-37.086 E3.79374
G1 X38.773 Y-36.514 E3.83285
G1 X39.104 Y-36.243 E3.84995
G1 X39.819 Y-35.580 E3.88896
G1 X40.476 Y-34.856 E3.92807
G1 X41.071 Y-34.079 E3.96721
G1 X46.957 Y-25.741 E4.37543
G1 X47.920 Y-23.688 E4.46616
G1 X48.113 Y-21.386 E4.55858
G1 X42.890 Y33.119 E6.74874
G1 X42.282 Y35.304 E6.83947
G1 X40.958 Y37.146 E6.93020
G1 X39.080 Y38.418 E7.02093
G1 X36.438 Y38.981 E7.12898
G1 X-37.638 Y38.981 E10.09205
G1 X-39.872 Y38.585 E10.18278
G1 X-41.831 Y37.442 E10.27351
G1 X-43.277 Y35.695 E10.36424
G1 X-44.119 Y32.584 E10.49316
G1 X-44.819 Y-21.921 E12.67351
G1 X-44.799 Y-22.515 E12.69729
G1 X-44.733 Y-23.078 E12.71999
G1 X-44.605 Y-23.700 E12.74538
G1 X-44.452 Y-24.216 E12.76690
G1 X-44.257 Y-24.725 E12.78873
G1 X-44.000 Y-25.261 E12.81249
G1 X-43.746 Y-25.699 E12.83274
G1 X-43.432 Y-26.158 E12.85500
G1 X-43.029 Y-26.655 E12.88057
G1 X-42.623 Y-27.078 E12.90403
G1 X-42.252 Y-27.414 E12.92404
G1 X-41.656 Y-27.873 E12.95414
G1 X-41.006 Y-28.288 E12.98497
G1 X-40.285 Y-28.668 E13.01759
G1 X-39.455 Y-29.026 E13.05375
G1 X-39.008 Y-29.191 E13.07281
G1 X-37.752 Y-29.586 E13.12546
G1 X-36.054 Y-30.004 E13.19541
G1 X-34.163 Y-30.374 E13.27249
G1 X-31.016 Y-30.860 E13.39985
G1 E12.39985 F1800.000
G92 E0
G1 X-27.057 Y-7.743 F3600.000
G1 E1.00000 F1800.000
G1 X-26.363 Y-7.743 E1.02776 F900.000
G1 X-26.194 Y-8.252 E1.04920
G1 X-26.022 Y-8.685 E1.06784
G1 X-25.822 Y-9.105 E1.08646
G1 X-25.594 Y-9.511 E1.10509
G1 X-25.339 Y-9.900 E1.12372
G1 X-24.959 Y-10.390 E1.14850
G1 X-24.646 Y-10.735 E1.16714
G1 X-24.311 Y-11.058 E1.18576
G1 X-23.705 Y-11.544 E1.21682
G1 X-23.184 Y-11.881 E1.24163
G1 X-22.492 Y-12.234 E1.27270
G1 X-22.061 Y-12.408 E1.29132
G1 X-21.618 Y-12.553 E1.30995
G1 X-20.841 Y-12.727 E1.34178
G1 X-20.091 Y-12.813 E1.37197
G1 X-19.626 Y-12.823 E1.39060
G1 X-19.161 Y-12.802 E1.40923
G1 X-18.698 Y-12.750 E1.42786
G1 X-18.240 Y-12.667 E1.44647
G1 X-16.567 Y-12.264 E1.51530
G1 X-16.332 Y-11.965 E1.53053
G1 X-16.266 Y-11.907 E1.53403
G1 X-15.702 Y-11.544 E1.56086
G1 X-15.096 Y-11.058 E1.59192
G1 X-14.760 Y-10.735 E1.61057
G1 X-14.447 Y-10.391 E1.62918
G1 X-14.158 Y-10.025 E1.64782
G1 X-13.894 Y-9.642 E1.66643
G1 X-13.657 Y-9.241 E1.68507
G1 X-13.447 Y-8.826 E1.70368
G1 X-13.212 Y-8.252 E1.72849
G1 X-13.070 Y-7.808 E1.74711
G1 X-12.958 Y-7.356 E1.76574
G1 X-12.878 Y-6.898 E1.78436
G1 X-12.828 Y-6.435 E1.80299
G1 X-12.809 Y-5.969 E1.82162
G1 X-12.823 Y-5.504 E1.84024
G1 X-12.867 Y-5.040 E1.85887
G1 X-12.943 Y-4.581 E1.87750
G1 X-13.049 Y-4.128 E1.89612
G1 X-13.186 Y-3.682 E1.91476
G1 X-13.353 Y-3.248 E1.93337
G1 X-13.548 Y-2.825 E1.95201
G1 X-13.772 Y-2.417 E1.97062
G1 X-14.023 Y-2.024 E1.98925
G1 X-14.299 Y-1.650 E2.00788
G1 X-14.601 Y-1.295 E2.02651
G1 X-14.925 Y-0.961 E2.04514
G1 X-15.272 Y-0.649 E2.06376
G1 X-15.638 Y-0.362 E2.08238
G1 X-16.023 Y-0.101 E2.10102
G1 X-16.425 Y0.134 E2.11964
G1 X-16.842 Y0.342 E2.13827
G1 X-17.272 Y0.521 E2.15689
G1 X-17.713 Y0.670 E2.17552
G1 X-18.468 Y0.852 E2.20659
G1 X-19.082 Y0.936 E2.23138
G1 X-19.859 Y0.962 E2.26245
G1 X-20.477 Y0.920 E2.28724
G1 X-21.243 Y0.789 E2.31831
G1 X-21.693 Y0.670 E2.33695
G1 X-22.278 Y0.465 E2.36173
G1 X-22.981 Y0.134 E2.39282
G1 X-23.512 Y-0.184 E2.41760
G1 X-24.135 Y-0.650 E2.44868
G1 X-24.591 Y-1.069 E2.47348
G1 X-25.107 Y-1.649 E2.50453
G1 X-25.470 Y-2.153 E2.52934
G1 X-25.858 Y-2.825 E2.56040
G1 X-26.112 Y-3.390 E2.58519
G1 X-26.363 Y-4.113 E2.61579
G1 X-27.057 Y-4.113 E2.64356
G1 X-27.308 Y-3.391 E2.67415
G1 X-27.563 Y-2.825 E2.69896
G1 X-27.951 Y-2.153 E2.73001
G1 X-28.219 Y-1.772 E2.74864
G1 X-28.615 Y-1.295 E2.77344
G1 X-29.169 Y-0.750 E2.80451
G1 X-29.652 Y-0.362 E2.82930
G1 X-30.038 Y-0.101 E2.84793
G1 X-30.716 Y0.276 E2.87898
G1 X-31.143 Y0.465 E2.89764
G1 X-31.727 Y0.670 E2.92242
G1 X-32.483 Y0.852 E2.95350
G1 X-33.097 Y0.936 E2.97828
G1 X-33.873 Y0.962 E3.00936
G1 X-34.491 Y0.920 E3.03415
G1 X-34.952 Y0.852 E3.05278
G1 X-35.407 Y0.753 E3.07141
G1 X-35.855 Y0.624 E3.09004
G1 X-36.292 Y0.465 E3.10865
G1 X-36.718 Y0.276 E3.12729
G1 X-37.130 Y0.060 E3.14592
G1 X-37.527 Y-0.184 E3.16453
G1 X-37.906 Y-0.455 E3.18316
G1 X-38.266 Y-0.750 E3.20179
G1 X-38.605 Y-1.069 E3.22042
G1 X-38.922 Y-1.410 E3.23904
G1 X-39.216 Y-1.772 E3.25768
G1 X-39.484 Y-2.152 E3.27629
G1 X-39.726 Y-2.550 E3.29492
G1 X-39.940 Y-2.963 E3.31354
G1 X-40.126 Y-3.391 E3.33219
G1 X-40.283 Y-3.829 E3.35079
G1 X-40.478 Y-4.581 E3.38187
G1 X-40.572 Y-5.194 E3.40666
G1 X-40.611 Y-5.969 E3.43773
G1 X-40.580 Y-6.588 E3.46253
G1 X-40.462 Y-7.356 E3.49359
G1 X-40.306 Y-7.956 E3.51840
G1 X-40.037 Y-8.685 E3.54947
G1 X-39.764 Y-9.241 E3.57426
G1 X-39.353 Y-9.900 E3.60533
G1 X-38.974 Y-10.390 E3.63012
G1 X-38.660 Y-10.735 E3.64876
G1 X-38.088 Y-11.261 E3.67982
G1 X-37.592 Y-11.632 E3.70460
G1 X-36.926 Y-12.032 E3.73569
G1 X-36.365 Y-12.295 E3.76049
G1 X-35.632 Y-12.553 E3.79155
G1 X-35.029 Y-12.698 E3.81634
G1 X-34.260 Y-12.802 E3.84742
G1 X-33.640 Y-12.823 E3.87221
G1 X-32.865 Y-12.771 E3.90328
G1 X-32.254 Y-12.667 E3.92807
G1 X-31.506 Y-12.459 E3.95915
G1 X-30.928 Y-12.234 E3.98394
G1 X-30.237 Y-11.881 E4.01500
G1 X-29.716 Y-11.544 E4.03979
G1 X-29.110 Y-11.058 E4.07087
G1 X-28.668 Y-10.623 E4.09568
G1 X-28.172 Y-10.026 E4.12674
G1 X-27.827 Y-9.511 E4.15152
G1 X-27.598 Y-9.105 E4.17016
G1 X-27.280 Y-8.397 E4.20122
G1 X-27.074 Y-7.793 E4.22674
G1 X-25.904 Y-7.557 F3600.000
G1 X-25.692 Y-8.222 E4.25466 F900.000
G1 X-25.394 Y-8.886 E4.28379
G1 X-25.108 Y-9.380 E4.30663
G1 X-24.682 Y-9.971 E4.33576
G1 X-24.303 Y-10.398 E4.35861
G1 X-23.767 Y-10.891 E4.38773
G1 X-23.168 Y-11.324 E4.41727
G1 X-22.562 Y-11.670 E4.44520
G1 X-21.893 Y-11.957 E4.47431
G1 X-21.348 Y-12.128 E4.49717
G1 X-20.635 Y-12.275 E4.52629
G1 X-20.205 Y-12.323 E4.54361
G1 X-19.772 Y-12.342 E4.56094
G1 X-19.201 Y-12.323 E4.58378
G1 X-18.480 Y-12.225 E4.61290
G1 X-16.842 Y-11.835 E4.68025
G1 X-16.647 Y-11.588 E4.69284
G1 X-16.574 Y-11.526 E4.69667
G1 X-16.097 Y-11.232 E4.71909
G1 X-15.747 Y-10.977 E4.73643
G1 X-15.314 Y-10.605 E4.75926
G1 X-15.008 Y-10.298 E4.77660
G1 X-14.724 Y-9.971 E4.79392
G1 X-14.298 Y-9.381 E4.82303
G1 X-14.077 Y-9.008 E4.84037
G1 X-13.882 Y-8.621 E4.85769
G1 X-13.714 Y-8.222 E4.87501
G1 X-13.534 Y-7.680 E4.89786
G1 X-13.375 Y-6.970 E4.92698
G1 X-13.320 Y-6.540 E4.94431
G1 X-13.293 Y-6.107 E4.96164
G1 X-13.303 Y-5.536 E4.98448
G1 X-13.344 Y-5.105 E5.00181
G1 X-13.478 Y-4.390 E5.03093
G1 X-13.640 Y-3.842 E5.05378
G1 X-13.916 Y-3.168 E5.08290
G1 X-14.184 Y-2.664 E5.10574
G1 X-14.590 Y-2.060 E5.13485
G1 X-14.863 Y-1.723 E5.15219
G1 X-15.257 Y-1.309 E5.17504
G1 X-15.809 Y-0.835 E5.20415
G1 X-16.278 Y-0.509 E5.22700
G1 X-16.914 Y-0.156 E5.25611
G1 X-17.439 Y0.070 E5.27896
G1 X-18.134 Y0.288 E5.30808
G1 X-18.693 Y0.403 E5.33094
G1 X-19.417 Y0.476 E5.36005
G1 X-19.989 Y0.476 E5.38290
G1 X-20.713 Y0.403 E5.41202
G1 X-21.272 Y0.288 E5.43487
G1 X-21.967 Y0.070 E5.46398
G1 X-22.492 Y-0.156 E5.48683
G1 X-23.128 Y-0.509 E5.51594
G1 X-23.597 Y-0.835 E5.53879
G1 X-24.150 Y-1.309 E5.56792
G1 X-24.543 Y-1.723 E5.59076
G1 X-24.989 Y-2.299 E5.61988
G1 X-25.222 Y-2.664 E5.63721
G1 X-25.490 Y-3.168 E5.66005
G1 X-25.766 Y-3.842 E5.68917
G1 X-25.928 Y-4.390 E5.71202
G1 X-26.062 Y-5.105 E5.74114
G1 X-26.111 Y-5.674 E5.76398
G1 X-26.098 Y-6.402 E5.79310
G1 X-26.031 Y-6.969 E5.81595
G1 X-25.917 Y-7.506 E5.83788
G1 X-25.439 Y-7.436 F3600.000
G1 X-25.244 Y-8.047 E5.86353 F900.000
G1 X-24.965 Y-8.667 E5.89071
G1 X-24.704 Y-9.119 E5.91160
G1 X-24.307 Y-9.670 E5.93877
G1 X-23.960 Y-10.061 E5.95967
G1 X-23.460 Y-10.520 E5.98685
G1 X-22.907 Y-10.920 E6.01412
G1 X-22.350 Y-11.238 E6.03977
G1 X-21.726 Y-11.506 E6.06693
G1 X-21.228 Y-11.662 E6.08784
G1 X-20.562 Y-11.799 E6.11501
G1 X-20.164 Y-11.844 E6.13103
G1 X-19.764 Y-11.861 E6.14706
G1 X-19.242 Y-11.844 E6.16796
G1 X-18.569 Y-11.752 E6.19512
G1 X-17.117 Y-11.406 E6.25483
G1 X-16.965 Y-11.214 E6.26462
G1 X-16.892 Y-11.152 E6.26846
G1 X-16.365 Y-10.833 E6.29311
G1 X-16.041 Y-10.596 E6.30915
G1 X-15.645 Y-10.256 E6.33003
G1 X-15.362 Y-9.972 E6.34607
G1 X-15.099 Y-9.670 E6.36209
G1 X-14.702 Y-9.119 E6.38926
G1 X-14.498 Y-8.774 E6.40529
G1 X-14.318 Y-8.416 E6.42131
G1 X-14.162 Y-8.047 E6.43734
G1 X-13.997 Y-7.551 E6.45824
G1 X-13.850 Y-6.889 E6.48540
G1 X-13.798 Y-6.491 E6.50143
G1 X-13.774 Y-6.091 E6.51747
G1 X-13.783 Y-5.569 E6.53836
G1 X-13.820 Y-5.170 E6.55439
G1 X-13.946 Y-4.502 E6.58155
G1 X-14.094 Y-4.001 E6.60246
G1 X-14.351 Y-3.373 E6.62962
G1 X-14.597 Y-2.912 E6.65052
G1 X-14.975 Y-2.348 E6.67768
G1 X-15.228 Y-2.037 E6.69372
G1 X-15.588 Y-1.658 E6.71462
G1 X-16.103 Y-1.216 E6.74178
G1 X-16.532 Y-0.917 E6.76268
G1 X-17.126 Y-0.588 E6.78984
G1 X-17.606 Y-0.382 E6.81074
G1 X-18.254 Y-0.178 E6.83791
G1 X-18.766 Y-0.073 E6.85882
G1 X-19.442 Y-0.004 E6.88598
G1 X-19.964 Y-0.004 E6.90688
G1 X-20.640 Y-0.073 E6.93405
G1 X-21.152 Y-0.178 E6.95495
G1 X-21.800 Y-0.382 E6.98211
G1 X-22.280 Y-0.588 E7.00301
G1 X-22.874 Y-0.917 E7.03018
G1 X-23.303 Y-1.216 E7.05108
G1 X-23.818 Y-1.658 E7.07825
G1 X-24.178 Y-2.037 E7.09914
G1 X-24.594 Y-2.574 E7.12632
G1 X-24.809 Y-2.912 E7.14235
G1 X-25.055 Y-3.373 E7.16324
G1 X-25.312 Y-4.001 E7.19041
G1 X-25.460 Y-4.502 E7.21131
G1 X-25.586 Y-5.170 E7.23848
G1 X-25.630 Y-5.690 E7.25937
G1 X-25.618 Y-6.370 E7.28654
G1 X-25.557 Y-6.888 E7.30744
G1 X-25.452 Y-7.385 E7.32775
G1 X-24.973 Y-7.316 F3600.000
G1 X-24.796 Y-7.872 E7.35112 F900.000
G1 X-24.537 Y-8.448 E7.37635
G1 X-24.300 Y-8.858 E7.39529
G1 X-23.931 Y-9.369 E7.42052
G1 X-23.617 Y-9.723 E7.43947
G1 X-23.153 Y-10.150 E7.46469
G1 X-22.646 Y-10.516 E7.48969
G1 X-22.139 Y-10.806 E7.51307
G1 X-21.559 Y-11.055 E7.53828
G1 X-21.107 Y-11.196 E7.55724
G1 X-20.489 Y-11.323 E7.58246
G1 X-20.018 Y-11.371 E7.60140
G1 X-19.388 Y-11.371 E7.62662
G1 X-18.916 Y-11.323 E7.64558
G1 X-18.554 Y-11.258 E7.66029
G1 X-17.392 Y-10.978 E7.70814
G1 X-17.210 Y-10.778 E7.71892
G1 X-16.853 Y-10.576 E7.73533
G1 X-16.336 Y-10.216 E7.76055
G1 X-15.789 Y-9.723 E7.78999
G1 X-15.475 Y-9.369 E7.80893
G1 X-15.252 Y-9.076 E7.82366
G1 X-14.974 Y-8.637 E7.84445
G1 X-14.753 Y-8.212 E7.86360
G1 X-14.611 Y-7.873 E7.87832
G1 X-14.461 Y-7.423 E7.89727
G1 X-14.324 Y-6.808 E7.92249
G1 X-14.277 Y-6.442 E7.93722
G1 X-14.255 Y-6.075 E7.95195
G1 X-14.263 Y-5.601 E7.97090
G1 X-14.297 Y-5.235 E7.98562
G1 X-14.414 Y-4.615 E8.01084
G1 X-14.548 Y-4.161 E8.02980
G1 X-14.787 Y-3.577 E8.05501
G1 X-15.009 Y-3.159 E8.07395
G1 X-15.361 Y-2.636 E8.09917
G1 X-15.593 Y-2.350 E8.11391
G1 X-15.920 Y-2.007 E8.13286
G1 X-16.398 Y-1.596 E8.15807
G1 X-16.787 Y-1.325 E8.17702
G1 X-17.338 Y-1.020 E8.20223
G1 X-17.773 Y-0.833 E8.22119
G1 X-18.375 Y-0.644 E8.24641
G1 X-18.839 Y-0.549 E8.26536
G1 X-19.466 Y-0.485 E8.29058
G1 X-19.940 Y-0.485 E8.30953
G1 X-20.567 Y-0.549 E8.33474
G1 X-21.031 Y-0.644 E8.35369
G1 X-21.633 Y-0.833 E8.37891
G1 X-22.068 Y-1.020 E8.39786
G1 X-22.619 Y-1.325 E8.42308
G1 X-23.008 Y-1.596 E8.44203
G1 X-23.487 Y-2.007 E8.46725
G1 X-23.813 Y-2.350 E8.48619
G1 X-24.199 Y-2.849 E8.51142
G1 X-24.397 Y-3.159 E8.52615
G1 X-24.619 Y-3.577 E8.54509
G1 X-24.858 Y-4.161 E8.57031
G1 X-24.992 Y-4.615 E8.58926
G1 X-25.109 Y-5.235 E8.61448
G1 X-25.149 Y-5.707 E8.63342
G1 X-25.138 Y-6.337 E8.65864
G1 X-25.082 Y-6.808 E8.67759
G1 X-24.986 Y-7.265 E8.69628
G1 X-24.507 Y-7.195 F3600.000
G1 X-24.347 Y-7.698 E8.71738 F900.000
G1 X-24.109 Y-8.228 E8.74065
G1 X-23.896 Y-8.596 E8.75765
G1 X-23.556 Y-9.068 E8.78092
G1 X-23.274 Y-9.386 E8.79792
G1 X-22.845 Y-9.780 E8.82120
G1 X-22.384 Y-10.112 E8.84392
G1 X-21.927 Y-10.374 E8.86503
G1 X-21.392 Y-10.603 E8.88829
G1 X-20.987 Y-10.731 E8.90530
G1 X-20.417 Y-10.848 E8.92857
G1 X-19.994 Y-10.891 E8.94557
G1 X-19.412 Y-10.891 E8.96884
G1 X-18.989 Y-10.848 E8.98584
G1 X-18.659 Y-10.788 E8.99926
G1 X-17.666 Y-10.549 E9.04011
G1 X-17.514 Y-10.392 E9.04887
G1 X-17.108 Y-10.168 E9.06742
G1 X-16.630 Y-9.835 E9.09069
G1 X-16.132 Y-9.386 E9.11754
G1 X-15.850 Y-9.068 E9.13453
G1 X-15.647 Y-8.801 E9.14795
G1 X-15.391 Y-8.396 E9.16712
G1 X-15.189 Y-8.007 E9.18464
G1 X-15.028 Y-7.614 E9.20165
G1 X-14.925 Y-7.294 E9.21507
G1 X-14.798 Y-6.727 E9.23834
G1 X-14.755 Y-6.394 E9.25177
G1 X-14.735 Y-6.059 E9.26520
G1 X-14.743 Y-5.634 E9.28219
G1 X-14.774 Y-5.300 E9.29562
G1 X-14.881 Y-4.728 E9.31889
G1 X-15.002 Y-4.320 E9.33589
G1 X-15.222 Y-3.782 E9.35916
G1 X-15.422 Y-3.407 E9.37615
G1 X-15.746 Y-2.924 E9.39942
G1 X-16.018 Y-2.597 E9.41643
G1 X-16.251 Y-2.355 E9.42986
G1 X-16.692 Y-1.977 E9.45312
G1 X-17.041 Y-1.734 E9.47012
G1 X-17.550 Y-1.452 E9.49339
G1 X-17.940 Y-1.284 E9.51039
G1 X-18.495 Y-1.110 E9.53366
G1 X-18.912 Y-1.024 E9.55067
G1 X-19.491 Y-0.965 E9.57393
G1 X-19.916 Y-0.965 E9.59093
G1 X-20.494 Y-1.024 E9.61420
G1 X-20.911 Y-1.110 E9.63120
G1 X-21.466 Y-1.284 E9.65447
G1 X-21.856 Y-1.451 E9.67147
G1 X-22.365 Y-1.734 E9.69473
G1 X-22.714 Y-1.977 E9.71173
G1 X-23.155 Y-2.356 E9.73501
G1 X-23.448 Y-2.664 E9.75200
G1 X-23.804 Y-3.124 E9.77528
G1 X-23.984 Y-3.407 E9.78871
G1 X-24.184 Y-3.782 E9.80570
G1 X-24.404 Y-4.320 E9.82897
G1 X-24.525 Y-4.728 E9.84597
G1 X-24.632 Y-5.300 E9.86924
G1 X-24.668 Y-5.723 E9.88624
G1 X-24.658 Y-6.305 E9.90951
G1 X-24.608 Y-6.727 E9.92651
G1 X-24.520 Y-7.144 E9.94357
G1 X-24.041 Y-7.074 F3600.000
G1 X-23.899 Y-7.523 E9.96239 F900.000
G1 X-23.681 Y-8.009 E9.98372
G1 X-23.492 Y-8.335 E9.99877
G1 X-23.181 Y-8.767 E10.02009
G1 X-22.931 Y-9.049 E10.03514
G1 X-22.538 Y-9.409 E10.05646
G1 X-22.123 Y-9.708 E10.07692
G1 X-21.715 Y-9.942 E10.09575
G1 X-21.225 Y-10.152 E10.11706
G1 X-20.866 Y-10.265 E10.13212
G1 X-20.344 Y-10.372 E10.15344
G1 X-19.970 Y-10.410 E10.16849
G1 X-19.437 Y-10.410 E10.18981
G1 X-19.062 Y-10.372 E10.20486
G1 X-18.764 Y-10.319 E10.21698
G1 X-17.941 Y-10.121 E10.25084
G1 X-17.812 Y-9.999 E10.25792
G1 X-17.425 Y-9.797 E10.27539
G1 X-17.109 Y-9.593 E10.29043
G1 X-16.639 Y-9.210 E10.31467
G1 X-16.272 Y-8.824 E10.33599
G1 X-16.085 Y-8.585 E10.34813
G1 X-15.875 Y-8.273 E10.36317
G1 X-15.726 Y-8.009 E10.37530
G1 X-15.507 Y-7.523 E10.39662
G1 X-15.409 Y-7.236 E10.40875
G1 X-15.331 Y-6.943 E10.42087
G1 X-15.261 Y-6.574 E10.43592
G1 X-15.216 Y-6.042 E10.45725
G1 X-15.223 Y-5.666 E10.47229
G1 X-15.251 Y-5.364 E10.48442
G1 X-15.349 Y-4.841 E10.50574
G1 X-15.456 Y-4.480 E10.52079
G1 X-15.658 Y-3.986 E10.54211
G1 X-15.835 Y-3.654 E10.55716
G1 X-16.132 Y-3.212 E10.57848
G1 X-16.323 Y-2.977 E10.59061
G1 X-16.583 Y-2.704 E10.60566
G1 X-16.987 Y-2.357 E10.62697
G1 X-17.296 Y-2.142 E10.64203
G1 X-17.762 Y-1.883 E10.66334
G1 X-18.107 Y-1.735 E10.67839
G1 X-18.616 Y-1.576 E10.69971
G1 X-18.985 Y-1.500 E10.71477
G1 X-19.515 Y-1.446 E10.73609
G1 X-19.891 Y-1.446 E10.75114
G1 X-20.421 Y-1.500 E10.77246
G1 X-20.790 Y-1.576 E10.78751
G1 X-21.299 Y-1.735 E10.80882
G1 X-21.644 Y-1.883 E10.82387
