; generated by Slic3r 1.2.9 on 2016-05-27 at 20:09:25

; external perimeters extrusion width = 0.40mm
; perimeters extrusion width = 0.56mm
; infill extrusion width = 0.56mm
; solid infill extrusion width = 0.56mm
; top infill extrusion width = 0.56mm
; support material extrusion width = 0.40mm

M190 S105 ; set bed temperature
G21; set mm units 
G92 E0; reset extruder distance 
G90; set absolute coordinates 
G28 ; home all axes
M106 S255; Set cooling fan on
M109 S240 ; set nozzle heater to first layer temperature
G29 ; Self Calibrate
G1 Z15 F2000; slightly raise from bed
G1 X55 Y-50 F2000; move to purging zone
G1 X-35 Y-50 E12 F300.000; extrude a line of filament across the front edge of the bed
G4 P2000; wait for ooze to slow
G1 Z0 F6000.000; lower nozzle height to 0
G1 X-55 F400; wipe nozzle
G1 Z100% F6000.000; set nozzle to first layer height
G1 F12000; ensure fast travel to first print move
G92 E0; set E to 0 again
G1 X0 F900; back to home
G1 Z0 F2000; back to home
G21 ; set units to millimeters
G90 ; use absolute coordinates
M82 ; use absolute distances for extrusion
G92 E0
M106 S255
G1 Z0.250 F3600.000
G1 E-4.00000 F1800.00000
G92 E0
G1 X10.679 Y0.000 F3600.000
G1 E4.00000 F1800.00000
G1 X10.679 Y21.577 E5.11453 F900.000
G1 X10.282 Y23.902 E5.23637
G1 X9.135 Y25.964 E5.35821
G1 X7.370 Y27.528 E5.48006
G1 X4.293 Y28.555 E5.64761
G1 X-1.365 Y29.057 E5.94099
G1 X-4.137 Y28.746 E6.08506
G1 X-5.826 Y28.200 E6.17676
G1 X-7.917 Y27.108 E6.29860
G1 X-9.526 Y25.383 E6.42044
G1 X-10.472 Y23.222 E6.54228
G1 X-10.679 Y21.534 E6.63016
G1 X-10.679 Y-21.582 E8.85722
G1 X-10.282 Y-23.908 E8.97907
G1 X-9.135 Y-25.969 E9.10091
G1 X-7.370 Y-27.533 E9.22275
G1 X-4.293 Y-28.560 E9.39031
G1 X1.307 Y-29.057 E9.68070
G1 X3.997 Y-28.772 E9.82039
G1 X5.744 Y-28.231 E9.91485 F900.000
G1 X7.848 Y-27.165 E10.03669
G1 X9.478 Y-25.460 E10.15853
G1 X10.451 Y-23.311 E10.28037
G1 X10.679 Y-21.539 E10.37267
G1 X10.679 Y-0.060 E11.48211
G1 X10.176 Y0.000 F3600.000
G1 X10.176 Y21.577 E12.59664 F900.000
G1 X9.779 Y23.814 E12.71400
G1 X8.637 Y25.778 E12.83135
G1 X6.889 Y27.229 E12.94871
G1 X4.248 Y28.054 E13.09161
G1 X-1.409 Y28.556 E13.38498
G1 X-3.982 Y28.267 E13.51871
G1 X-5.672 Y27.722 E13.61041
G1 X-7.679 Y26.657 E13.72777
G1 X-9.197 Y24.966 E13.84513
G1 X-10.040 Y22.856 E13.96248
G1 X-10.176 Y21.534 E14.03117
G1 X-10.176 Y-21.582 E16.25824
G1 X-9.779 Y-23.819 E16.37559
G1 X-8.637 Y-25.783 E16.49295
G1 X-6.889 Y-27.235 E16.61031
G1 X-4.248 Y-28.060 E16.75320
G1 X1.352 Y-28.556 E17.04359
G1 X3.848 Y-28.291 E17.17326
G1 X5.595 Y-27.751 E17.26772 F900.000
G1 X7.615 Y-26.711 E17.38508
G1 X9.154 Y-25.039 E17.50243
G1 X10.023 Y-22.940 E17.61979
G1 X10.176 Y-21.539 E17.69259
G1 X10.176 Y-0.060 E18.80203
G1 F2880
G1 X10.176 Y6.340 E15.00203
G1 E14.80203 F1800.00000
G92 E0
G1 X7.260 Y-0.013 F3600.000
G1 E4.00000 F1800.00000
G1 X7.253 Y1.552 E4.08086 F900.000
G1 X7.219 Y1.679 E4.08765
G1 X7.219 Y22.298 E5.15265
G1 X6.775 Y23.439 E5.21592
G1 X5.802 Y24.502 E5.29035
G1 X4.704 Y25.045 E5.35361
G1 X-3.019 Y25.730 E5.75411
G1 X-3.687 Y25.171 E5.79912
G1 X-3.878 Y25.111 E5.80945
G1 X-4.167 Y25.137 E5.82445
G1 X-5.470 Y24.696 E5.89548
G1 X-6.665 Y23.602 E5.97916
G1 X-7.219 Y22.344 E6.05019
G1 X-7.219 Y14.554 E6.45253
G1 X-7.143 Y14.360 E6.46330
G1 X-7.148 Y14.160 E6.47363
G1 X-7.219 Y13.999 E6.48274
G1 X-7.219 Y5.511 E6.92114
G1 X-7.234 Y5.425 E6.92567
G1 X-7.458 Y4.807 E6.95964
G1 X-7.219 Y4.014 E7.00239
G1 X-7.219 Y-5.613 E7.49966
G1 X-7.143 Y-5.807 E7.51043
G1 X-7.148 Y-6.007 E7.52076
G1 X-7.219 Y-6.169 E7.52987
G1 X-7.219 Y-15.349 E8.00405
G1 X-7.143 Y-15.543 E8.01482
G1 X-7.148 Y-15.743 E8.02515
G1 X-7.219 Y-15.904 E8.03426
G1 X-7.219 Y-22.303 E8.36476
G1 X-6.775 Y-23.445 E8.42802
G1 X-5.802 Y-24.508 E8.50245
G1 X-4.704 Y-25.050 E8.56572
G1 X2.961 Y-25.730 E8.96323
G1 X3.629 Y-25.171 E9.00824
G1 X3.820 Y-25.111 E9.01857 F900.000
G1 X4.167 Y-25.142 E9.03655
G1 X5.470 Y-24.701 E9.10758
G1 X6.665 Y-23.607 E9.19126
G1 X7.219 Y-22.349 E9.26229
G1 X7.219 Y-0.232 E10.40471
G1 X7.260 Y-0.073 E10.41316
G1 X6.757 Y0.034 F3600.000
G1 X6.751 Y1.424 E10.48496 F900.000
G1 X6.716 Y1.552 E10.49182
G1 X6.716 Y22.204 E11.55854
G1 X6.341 Y23.170 E11.61207
G1 X5.495 Y24.094 E11.67677
G1 X4.566 Y24.553 E11.73030
G1 X-2.856 Y25.211 E12.11518
G1 X-3.524 Y24.652 E12.16019
G1 X-3.715 Y24.592 E12.17052
G1 X-4.106 Y24.627 E12.19081
G1 X-5.208 Y24.254 E12.25091
G1 X-6.247 Y23.303 E12.32366
G1 X-6.716 Y22.238 E12.38376
G1 X-6.716 Y14.649 E12.77577
G1 X-6.599 Y14.348 E12.79243
G1 X-6.604 Y14.148 E12.80276
G1 X-6.716 Y13.893 E12.81716
G1 X-6.716 Y5.423 E13.25467
G1 X-6.731 Y5.336 E13.25919
G1 X-6.927 Y4.796 E13.28889
G1 X-6.716 Y4.092 E13.32685
G1 X-6.716 Y-5.519 E13.82327
G1 X-6.599 Y-5.819 E13.83993
G1 X-6.604 Y-6.019 E13.85026
G1 X-6.716 Y-6.274 E13.86466
G1 X-6.716 Y-15.254 E14.32851
G1 X-6.599 Y-15.555 E14.34517
G1 X-6.604 Y-15.755 E14.35550
G1 X-6.716 Y-16.010 E14.36990
G1 X-6.716 Y-22.209 E14.69007
G1 X-6.341 Y-23.175 E14.74360
G1 X-5.495 Y-24.099 E14.80830
G1 X-4.566 Y-24.558 E14.86183
G1 X2.798 Y-25.211 E15.24372
G1 X3.466 Y-24.652 E15.28873 F900.000
G1 X3.657 Y-24.592 E15.29906
G1 X4.106 Y-24.632 E15.32234
G1 X5.208 Y-24.259 E15.38244
G1 X6.247 Y-23.308 E15.45519
G1 X6.716 Y-22.243 E15.51529
G1 X6.716 Y-0.107 E16.65871
G1 X6.737 Y-0.023 E16.66317
G1 X6.254 Y0.158 F3600.000
G1 X6.249 Y1.295 E16.72192 F900.000
G1 X6.214 Y1.424 E16.72883
G1 X6.214 Y22.109 E17.79728
G1 X5.907 Y22.900 E17.84108
G1 X5.188 Y23.685 E17.89604
G1 X4.428 Y24.060 E17.93984
G1 X-2.693 Y24.692 E18.30909
G1 X-3.361 Y24.133 E18.35410
G1 X-3.552 Y24.073 E18.36443
G1 X-4.045 Y24.117 E18.39001
G1 X-4.947 Y23.812 E18.43919
G1 X-5.830 Y23.003 E18.50101
G1 X-6.214 Y22.132 E18.55019
G1 X-6.214 Y14.743 E18.93187
G1 X-6.056 Y14.336 E18.95441
G1 X-6.060 Y14.136 E18.96474
G1 X-6.214 Y13.787 E18.98443
G1 X-6.214 Y5.334 E19.42104
G1 X-6.229 Y5.248 E19.42557
G1 X-6.397 Y4.785 E19.45100
G1 X-6.214 Y4.170 E19.48415
G1 X-6.214 Y2.921 E19.54869
G1 X-6.199 Y2.883 E19.55076
G1 X-6.214 Y2.660 E19.56230
G1 X-6.214 Y-3.338 E19.87213
G1 X-6.199 Y-3.376 E19.87421
G1 X-6.214 Y-3.598 E19.88575
G1 X-6.214 Y-5.424 E19.98006
G1 X-6.056 Y-5.831 E20.00261
G1 X-6.060 Y-6.031 E20.01294
G1 X-6.214 Y-6.380 E20.03263
G1 X-6.214 Y-15.160 E20.48615
G1 X-6.056 Y-15.567 E20.50870
G1 X-6.060 Y-15.767 E20.51903
G1 X-6.214 Y-16.116 E20.53872
G1 X-6.214 Y-22.114 E20.84856
G1 X-5.907 Y-22.905 E20.89236
G1 X-5.188 Y-23.690 E20.94732
G1 X-4.428 Y-24.066 E20.99112
G1 X2.635 Y-24.692 E21.35739
G1 X3.304 Y-24.133 E21.40240
G1 X3.494 Y-24.073 E21.41273 F900.000
G1 X4.045 Y-24.122 E21.44129
G1 X4.947 Y-23.817 E21.49047
G1 X5.830 Y-23.008 E21.55229
G1 X6.214 Y-22.137 E21.60147
G1 X6.214 Y-3.621 E22.55787
G1 X6.199 Y-3.584 E22.55995
G1 X6.214 Y-3.361 E22.57148
G1 X6.206 Y-0.126 E22.73859
G1 X6.226 Y0.105 E22.75053
G1 X5.750 Y0.282 F3600.000
G1 X5.746 Y1.166 E22.79622 F900.000
G1 X5.711 Y1.297 E22.80320
G1 X5.711 Y22.015 E23.87337
G1 X5.472 Y22.630 E23.90743
G1 X4.881 Y23.276 E23.95267
G1 X4.290 Y23.568 E23.98673
G1 X-2.530 Y24.173 E24.34036
G1 X-3.198 Y23.614 E24.38537
G1 X-3.389 Y23.554 E24.39570
G1 X-3.984 Y23.607 E24.42658
G1 X-4.686 Y23.369 E24.46482
G1 X-5.413 Y22.704 E24.51572
G1 X-5.711 Y22.026 E24.55397
G1 X-5.711 Y14.837 E24.92532
G1 X-5.512 Y14.324 E24.95375
G1 X-5.516 Y14.124 E24.96408
G1 X-5.711 Y13.681 E24.98906
G1 X-5.711 Y5.246 E25.42477
G1 X-5.726 Y5.160 E25.42929
G1 X-5.866 Y4.775 E25.45046
G1 X-5.711 Y4.248 E25.47880
G1 X-5.711 Y3.015 E25.54250
G1 X-5.655 Y2.871 E25.55047
G1 X-5.660 Y2.671 E25.56079
G1 X-5.711 Y2.555 E25.56738
G1 X-5.711 Y-3.244 E25.86689
G1 X-5.655 Y-3.388 E25.87485
G1 X-5.660 Y-3.587 E25.88518
G1 X-5.711 Y-3.704 E25.89177
G1 X-5.711 Y-5.330 E25.97575
G1 X-5.512 Y-5.843 E26.00419
G1 X-5.516 Y-6.043 E26.01452
G1 X-5.711 Y-6.486 E26.03950
G1 X-5.711 Y-15.066 E26.48269
G1 X-5.512 Y-15.579 E26.51112
G1 X-5.516 Y-15.779 E26.52145
G1 X-5.711 Y-16.222 E26.54644
G1 X-5.711 Y-22.020 E26.84595
G1 X-5.472 Y-22.635 E26.88001
G1 X-4.881 Y-23.281 E26.92524
G1 X-4.290 Y-23.573 E26.95931
G1 X2.472 Y-24.173 E27.30996
G1 X3.141 Y-23.614 E27.35497 F900.000
G1 X3.331 Y-23.554 E27.36530
G1 X3.984 Y-23.612 E27.39915
G1 X4.686 Y-23.374 E27.43740
G1 X5.413 Y-22.709 E27.48830
G1 X5.711 Y-22.031 E27.52654
G1 X5.711 Y-3.715 E28.47262
G1 X5.655 Y-3.572 E28.48058
G1 X5.660 Y-3.372 E28.49091
G1 X5.711 Y-3.255 E28.49750
G1 X5.711 Y-0.238 E28.65332
G1 X5.655 Y-0.093 E28.66136
G1 X5.667 Y0.125 E28.67268
G1 X5.722 Y0.229 E28.67872
G1 X5.247 Y0.406 F3600.000
G1 X5.244 Y1.038 E28.71136 F900.000
G1 X5.208 Y1.169 E28.71839
G1 X5.208 Y21.921 E29.79029
G1 X5.038 Y22.360 E29.81462
G1 X4.574 Y22.867 E29.85012
G1 X4.151 Y23.076 E29.87445
G1 X-2.367 Y23.654 E30.21246
G1 X-3.035 Y23.095 E30.25747
G1 X-3.226 Y23.035 E30.26780
G1 X-3.923 Y23.097 E30.30396
G1 X-4.424 Y22.927 E30.33128
G1 X-4.995 Y22.405 E30.37125
G1 X-5.208 Y21.921 E30.39857
G1 X-5.208 Y14.931 E30.75959
G1 X-4.968 Y14.312 E30.79391
G1 X-4.972 Y14.112 E30.80424
G1 X-5.208 Y13.576 E30.83452
G1 X-5.208 Y5.158 E31.26932
G1 X-5.335 Y4.764 E31.29069
G1 X-5.208 Y4.326 E31.31423
G1 X-5.208 Y3.109 E31.37709
G1 X-5.111 Y2.859 E31.39094
G1 X-5.116 Y2.659 E31.40127
G1 X-5.208 Y2.449 E31.41315
G1 X-5.208 Y-3.150 E31.70233
G1 X-5.111 Y-3.400 E31.71618
G1 X-5.116 Y-3.600 E31.72651
G1 X-5.208 Y-3.810 E31.73838
G1 X-5.208 Y-5.236 E31.81204
G1 X-4.968 Y-5.855 E31.84636
G1 X-4.972 Y-6.055 E31.85669
G1 X-5.208 Y-6.592 E31.88697
G1 X-5.208 Y-14.972 E32.31982
G1 X-4.968 Y-15.591 E32.35415
G1 X-4.972 Y-15.791 E32.36448
G1 X-5.208 Y-16.328 E32.39475
G1 X-5.208 Y-21.926 E32.68393
G1 X-5.038 Y-22.365 E32.70826
G1 X-4.574 Y-22.872 E32.74376
G1 X-4.151 Y-23.081 E32.76809
G1 X2.309 Y-23.654 E33.10312
G1 X2.978 Y-23.095 E33.14813
G1 X3.168 Y-23.035 E33.15846 F900.000
G1 X3.923 Y-23.102 E33.19761
G1 X4.424 Y-22.932 E33.22492
G1 X4.995 Y-22.410 E33.26490
G1 X5.208 Y-21.926 E33.29222
G1 X5.208 Y-3.810 E34.22796
G1 X5.111 Y-3.560 E34.24181
G1 X5.116 Y-3.360 E34.25214
G1 X5.208 Y-3.149 E34.26402
G1 X5.208 Y-0.333 E34.40951
G1 X5.103 Y-0.061 E34.42457
G1 X5.116 Y0.158 E34.43589
G1 X5.219 Y0.353 E34.44729
G1 X4.744 Y0.530 F3600.000
G1 X4.742 Y0.909 E34.46687 F900.000
G1 X4.706 Y1.041 E34.47397
G1 X4.706 Y21.827 E35.54758
G1 X4.603 Y22.090 E35.56218
G1 X4.267 Y22.458 E35.58795
G1 X4.013 Y22.583 E35.60255
G1 X-2.204 Y23.135 E35.92494
G1 X-2.872 Y22.576 E35.96995
G1 X-3.063 Y22.516 E35.98028
G1 X-3.862 Y22.587 E36.02173
G1 X-4.163 Y22.485 E36.03812
G1 X-4.578 Y22.105 E36.06717
G1 X-4.706 Y21.815 E36.08356
G1 X-4.706 Y15.025 E36.43425
G1 X-4.603 Y14.762 E36.44885
G1 X-4.509 Y14.659 E36.45606
G1 X-4.441 Y14.459 E36.46699
G1 X-4.488 Y13.935 E36.49413
G1 X-4.706 Y13.470 E36.52068
G1 X-4.706 Y5.290 E36.94321
G1 X-4.689 Y5.070 E36.95457
G1 X-4.804 Y4.753 E36.97198
G1 X-4.706 Y4.404 E36.99073
G1 X-4.706 Y3.203 E37.05275
G1 X-4.567 Y2.847 E37.07248
G1 X-4.572 Y2.647 E37.08281
G1 X-4.706 Y2.343 E37.09998
G1 X-4.706 Y-3.055 E37.37883
G1 X-4.567 Y-3.412 E37.39857
G1 X-4.572 Y-3.612 E37.40890
G1 X-4.706 Y-3.916 E37.42606
G1 X-4.706 Y-5.142 E37.48939
G1 X-4.603 Y-5.405 E37.50399
G1 X-4.509 Y-5.508 E37.51120
G1 X-4.441 Y-5.709 E37.52213
G1 X-4.488 Y-6.232 E37.54927
G1 X-4.706 Y-6.697 E37.57582
G1 X-4.706 Y-14.878 E37.99835
G1 X-4.603 Y-15.141 E38.01295
G1 X-4.509 Y-15.244 E38.02016
G1 X-4.441 Y-15.444 E38.03109
G1 X-4.488 Y-15.968 E38.05823
G1 X-4.706 Y-16.433 E38.08478
G1 X-4.706 Y-21.832 E38.36363
G1 X-4.603 Y-22.095 E38.37823
G1 X-4.267 Y-22.463 E38.40399
G1 X-4.013 Y-22.588 E38.41859
G1 X2.146 Y-23.135 E38.73800
G1 X2.815 Y-22.576 E38.78301 F900.000
G1 X3.005 Y-22.516 E38.79334
G1 X3.862 Y-22.592 E38.83777
G1 X4.163 Y-22.490 E38.85416
G1 X4.578 Y-22.110 E38.88321
G1 X4.706 Y-21.820 E38.89960
G1 X4.706 Y-3.904 E39.82502
G1 X4.567 Y-3.548 E39.84475
G1 X4.572 Y-3.348 E39.85508
G1 X4.706 Y-3.044 E39.87225
G1 X4.706 Y-0.427 E40.00742
G1 X4.551 Y-0.028 E40.02949
G1 X4.564 Y0.190 E40.04081
G1 X4.716 Y0.477 E40.05757
G1 F2880
G1 X4.742 Y0.909 E39.80053
G1 F2880
G1 X4.706 Y1.041 E39.71898
G1 F2880
G1 X4.706 Y6.871 E36.25757
G1 E36.05757 F1800.00000
G92 E0
G1 X4.078 Y-21.993 F3600.000
G1 X3.493 Y-22.578 F3600.000
G1 X2.664 Y-21.750 F3600.000
G1 X2.485 Y-21.965 F3600.000
G1 E4.00000 F1800.00000
G1 X3.801 Y-22.082 E4.06829 F900.000
G1 X3.902 Y-22.048 E4.07375
G1 X4.160 Y-21.811 E4.09187
G1 X4.203 Y-21.714 E4.09733
G1 X4.203 Y-20.688 E4.15033
G1 X4.167 Y-20.595 E4.15548
G1 X4.171 Y-20.395 E4.16581
G1 X4.203 Y-20.323 E4.16987
G1 X4.203 Y-19.297 E4.22286
G1 X4.167 Y-19.204 E4.22801
G1 X4.171 Y-19.004 E4.23834
G1 X4.203 Y-18.932 E4.24241
G1 X4.203 Y-17.906 E4.29540
G1 X4.167 Y-17.814 E4.30055
G1 X4.171 Y-17.614 E4.31088
G1 X4.203 Y-17.542 E4.31494
G1 X4.203 Y-16.516 E4.36794
G1 X4.167 Y-16.423 E4.37309
G1 X4.171 Y-16.223 E4.38342
G1 X4.203 Y-16.151 E4.38748
G1 X4.203 Y-15.125 E4.44048
G1 X4.167 Y-15.032 E4.44563
G1 X4.171 Y-14.832 E4.45596
G1 X4.203 Y-14.760 E4.46002
G1 X4.203 Y-13.734 E4.51301
G1 X4.167 Y-13.641 E4.51817
G1 X4.171 Y-13.441 E4.52849
G1 X4.203 Y-13.369 E4.53256
G1 X4.203 Y-12.343 E4.58555
G1 X4.167 Y-12.250 E4.59070
G1 X4.171 Y-12.050 E4.60103
G1 X4.203 Y-11.978 E4.60509
G1 X4.203 Y-10.952 E4.65809
G1 X4.167 Y-10.859 E4.66324
G1 X4.171 Y-10.659 E4.67357
G1 X4.203 Y-10.587 E4.67763
G1 X4.203 Y-9.561 E4.73063
G1 X4.167 Y-9.468 E4.73578
G1 X4.171 Y-9.269 E4.74611
G1 X4.203 Y-9.197 E4.75017
G1 X4.203 Y-8.171 E4.80316
G1 X4.167 Y-8.078 E4.80832
G1 X4.171 Y-7.878 E4.81864
G1 X4.203 Y-7.806 E4.82271
G1 X4.203 Y-6.780 E4.87570
G1 X4.167 Y-6.687 E4.88085
G1 X4.171 Y-6.487 E4.89118
G1 X4.203 Y-6.415 E4.89524
G1 X4.203 Y-5.389 E4.94824
G1 X4.167 Y-5.296 E4.95339
G1 X4.171 Y-5.096 E4.96372
G1 X4.203 Y-5.024 E4.96778
G1 X4.203 Y-3.998 E5.02078
G1 X4.169 Y-3.910 E5.02564
G1 X3.928 Y-3.647 E5.04410
G1 X3.946 Y-3.231 E5.06561
G1 X4.160 Y-3.035 E5.08061
G1 X4.203 Y-2.938 E5.08607
G1 X4.203 Y-1.912 E5.13907
G1 X4.167 Y-1.819 E5.14422
G1 X4.171 Y-1.619 E5.15455
G1 X4.203 Y-1.547 E5.15861
G1 X4.203 Y-0.521 E5.21161
G1 X4.169 Y-0.433 E5.21647
G1 X3.981 Y-0.228 E5.23085
G1 X3.941 Y0.089 E5.24733
G1 X4.241 Y0.654 E5.28039
G1 X4.240 Y0.780 E5.28692
G1 X4.171 Y0.908 E5.29440
G1 X4.162 Y1.141 E5.30645
G1 X4.203 Y1.235 E5.31175
G1 X4.203 Y2.261 E5.36475
G1 X4.167 Y2.354 E5.36990
G1 X4.171 Y2.554 E5.38023
G1 X4.203 Y2.626 E5.38429
G1 X4.203 Y3.652 E5.43728
G1 X4.167 Y3.744 E5.44244
G1 X4.171 Y3.944 E5.45277
G1 X4.203 Y4.016 E5.45683
G1 X4.203 Y5.042 E5.50982
G1 X4.167 Y5.135 E5.51497
G1 X4.171 Y5.335 E5.52530
G1 X4.203 Y5.407 E5.52937
G1 X4.203 Y6.433 E5.58236
G1 X4.167 Y6.526 E5.58751
G1 X4.171 Y6.726 E5.59784
G1 X4.203 Y6.798 E5.60190
G1 X4.203 Y7.824 E5.65490
G1 X4.167 Y7.917 E5.66005
G1 X4.171 Y8.117 E5.67038
G1 X4.203 Y8.189 E5.67444
G1 X4.203 Y9.215 E5.72744
G1 X4.167 Y9.308 E5.73259
G1 X4.171 Y9.508 E5.74292
G1 X4.203 Y9.580 E5.74698
G1 X4.203 Y10.606 E5.79997
G1 X4.167 Y10.699 E5.80512
G1 X4.171 Y10.899 E5.81545
G1 X4.203 Y10.971 E5.81952
G1 X4.203 Y11.997 E5.87251
G1 X4.167 Y12.090 E5.87766
G1 X4.171 Y12.289 E5.88799
G1 X4.203 Y12.361 E5.89205
G1 X4.203 Y13.387 E5.94505
G1 X4.167 Y13.480 E5.95020
G1 X4.171 Y13.680 E5.96053
G1 X4.203 Y13.752 E5.96459
G1 X4.203 Y14.778 E6.01759
G1 X4.167 Y14.871 E6.02274
G1 X4.171 Y15.071 E6.03307
G1 X4.203 Y15.143 E6.03713
G1 X4.203 Y16.169 E6.09012
G1 X4.167 Y16.262 E6.09528
G1 X4.171 Y16.462 E6.10560
G1 X4.203 Y16.534 E6.10967
G1 X4.203 Y17.560 E6.16266
G1 X4.167 Y17.653 E6.16781
G1 X4.171 Y17.853 E6.17814
G1 X4.203 Y17.925 E6.18220
G1 X4.203 Y18.951 E6.23520
G1 X4.167 Y19.044 E6.24035
G1 X4.171 Y19.244 E6.25068
G1 X4.203 Y19.316 E6.25474
G1 X4.203 Y20.342 E6.30774
G1 X4.167 Y20.435 E6.31289
G1 X4.171 Y20.634 E6.32322
G1 X4.203 Y20.706 E6.32728
G1 X4.203 Y21.732 E6.38027
G1 X4.169 Y21.820 E6.38514
G1 X3.959 Y22.049 E6.40117
G1 X3.875 Y22.091 E6.40604
G1 X-2.041 Y22.616 E6.71281
G1 X-2.201 Y22.482 E6.72356
G1 X-2.223 Y22.232 E6.73653
G1 X-2.542 Y21.965 E6.75804
G1 X-3.801 Y22.077 E6.82334
G1 X-3.902 Y22.043 E6.82880
G1 X-4.160 Y21.806 E6.84692
G1 X-4.203 Y21.709 E6.85238
G1 X-4.203 Y20.683 E6.90538
