; generated by Slic3r 1.2.9 on 2016-06-03 at 21:59:47

; external perimeters extrusion width = 0.40mm
; perimeters extrusion width = 0.56mm
; infill extrusion width = 0.56mm
; solid infill extrusion width = 0.56mm
; top infill extrusion width = 0.56mm
; support material extrusion width = 0.40mm

M107
M190 S110 ; set bed temperature
G21; set mm units 
G92 E0; reset extruder distance 
G90; set absolute coordinates 
G28 ; home all axes
M106 S255; Set cooling fan on
M109 S240 ; set nozzle heater to first layer temperature
G29 ; Self Calibrate
G1 Z15 F2000; slightly raise from bed
G1 X55 Y-50 F2000; move to purging zone
G1 X-35 Y-50 E12 F300.000; extrude a line of filament across the front edge of the bed
G4 P2000; wait for ooze to slow
G1 Z0 F6000.000; lower nozzle height to 0
G1 X-55 F400; wipe nozzle
G1 Z0.35 F6000.000; set nozzle to first layer height
G1 F12000; ensure fast travel to first print move
G92 E0; set E to 0 again
G1 X0 F900; back to home
G1 Z0 F2000; back to home
G21 ; set units to millimeters
G90 ; use absolute coordinates
M82 ; use absolute distances for extrusion
G92 E0
G1 Z0.350 F3600.000
G1 E-4.00000 F1800.00000
G92 E0
G1 X-20.585 Y-0.972 F3600.000
G1 E4.00000 F1800.00000
G1 X-20.552 Y-1.673 E4.03626 F900.000
G1 X-20.552 Y-17.141 E4.83524
G1 X-20.526 Y-17.422 E4.84981
G1 X-20.245 Y-18.922 E4.92865
G1 X-20.041 Y-19.450 E4.95786
G1 X-19.163 Y-20.868 E5.04403
G1 X-18.782 Y-21.286 E5.07324
G1 X-17.488 Y-22.263 E5.15696
G1 X-17.073 Y-22.486 E5.18129
G1 X-15.990 Y-22.868 E5.24065
G1 X-15.646 Y-22.946 E5.25887
G1 X-14.582 Y-23.052 E5.31407
G1 X19.739 Y-23.051 E7.08685
G1 X20.062 Y-23.016 E7.10363 F900.000
G1 X21.592 Y-22.686 E7.18451
G1 X22.118 Y-22.464 E7.21395
G1 X23.510 Y-21.541 E7.30023
G1 X23.916 Y-21.148 E7.32943
G1 X24.851 Y-19.826 E7.41306
G1 X25.060 Y-19.408 E7.43723
G1 X25.408 Y-18.323 E7.49608
G1 X25.470 Y-18.037 E7.51121
G1 X25.558 Y-17.205 E7.55443
G1 X25.569 Y16.860 E9.31394
G1 X25.484 Y17.955 E9.37069
G1 X25.416 Y18.296 E9.38867
G1 X25.060 Y19.408 E9.44895
G1 X24.851 Y19.826 E9.47311
G1 X23.916 Y21.148 E9.55674
G1 X23.510 Y21.541 E9.58595
G1 X22.159 Y22.437 E9.66967
G1 X21.731 Y22.634 E9.69399
G1 X20.648 Y22.942 E9.75214
G1 X20.347 Y22.996 E9.76793
G1 X19.559 Y23.052 E9.80877
G1 X-14.629 Y23.052 E11.57468
G1 X-14.887 Y23.030 E11.58804
G1 X-16.279 Y22.792 E11.66097
G1 X-16.788 Y22.608 E11.68896
G1 X-18.223 Y21.780 E11.77451
G1 X-18.652 Y21.412 E11.80372
G1 X-19.668 Y20.149 E11.88744
G1 X-19.904 Y19.741 E11.91177
G1 X-20.323 Y18.659 E11.97174
G1 X-20.415 Y18.294 E11.99118
G1 X-20.552 Y17.094 E12.05354
G1 X-20.552 Y1.673 E12.85008
G1 X-20.627 Y0.072 E12.93287
G1 X-20.588 Y-0.912 E12.98373
G1 X-20.226 Y-0.955 F3600.000
G1 X-20.193 Y-1.665 E13.02043 F900.000
G1 X-20.193 Y-17.124 E13.81898
G1 X-20.170 Y-17.372 E13.83184
G1 X-19.899 Y-18.824 E13.90810
G1 X-19.718 Y-19.289 E13.93388
G1 X-18.875 Y-20.651 E14.01661
G1 X-18.539 Y-21.020 E14.04239
G1 X-17.294 Y-21.960 E14.12296
G1 X-16.928 Y-22.156 E14.14442
G1 X-15.890 Y-22.522 E14.20128
G1 X-15.586 Y-22.591 E14.21735
G1 X-14.573 Y-22.693 E14.26998
G1 X19.720 Y-22.692 E16.04127 F900.000
G1 X20.005 Y-22.661 E16.05608
G1 X21.484 Y-22.342 E16.13424
G1 X21.947 Y-22.146 E16.16022
G1 X23.284 Y-21.261 E16.24304
G1 X23.642 Y-20.913 E16.26882
G1 X24.542 Y-19.641 E16.34931
G1 X24.727 Y-19.272 E16.37063
G1 X25.061 Y-18.230 E16.42717
G1 X25.116 Y-17.977 E16.44052
G1 X25.199 Y-17.194 E16.48121
G1 X25.210 Y16.852 E18.23979
G1 X25.128 Y17.905 E18.29434
G1 X25.068 Y18.206 E18.31020
G1 X24.727 Y19.272 E18.36800
G1 X24.542 Y19.641 E18.38932
G1 X23.642 Y20.913 E18.46981
G1 X23.284 Y21.261 E18.49558
G1 X21.984 Y22.122 E18.57615
G1 X21.606 Y22.296 E18.59761
G1 X20.567 Y22.591 E18.65340
G1 X20.302 Y22.639 E18.66733
G1 X19.655 Y22.689 E18.70082
G1 X-14.614 Y22.693 E20.47094
G1 X-14.841 Y22.673 E20.48273
G1 X-16.187 Y22.443 E20.55322
G1 X-16.636 Y22.281 E20.57792
G1 X-18.014 Y21.485 E20.66011
G1 X-18.393 Y21.161 E20.68588
G1 X-19.371 Y19.946 E20.76645
G1 X-19.579 Y19.586 E20.78791
G1 X-19.980 Y18.550 E20.84531
G1 X-20.061 Y18.227 E20.86247
G1 X-20.193 Y17.083 E20.92197
G1 X-20.193 Y1.665 E21.71838
G1 X-20.268 Y0.064 E21.80117
G1 X-20.229 Y-0.895 E21.85071
G1 X-19.867 Y-0.938 F3600.000
G1 X-19.834 Y-1.656 E21.88785 F900.000
G1 X-19.834 Y-17.108 E22.68598
G1 X-19.814 Y-17.323 E22.69713
G1 X-19.552 Y-18.725 E22.77082
G1 X-19.395 Y-19.128 E22.79315
G1 X-18.587 Y-20.434 E22.87244
G1 X-18.296 Y-20.753 E22.89479
G1 X-17.100 Y-21.656 E22.97221
G1 X-16.783 Y-21.827 E22.99081
G1 X-15.790 Y-22.176 E23.04516
G1 X-15.527 Y-22.236 E23.05909
G1 X-14.563 Y-22.334 E23.10915
G1 X19.701 Y-22.333 E24.87896
G1 X19.948 Y-22.306 E24.89179 F900.000
G1 X21.375 Y-21.998 E24.96723
G1 X21.777 Y-21.828 E24.98975
G1 X23.058 Y-20.980 E25.06912
G1 X23.368 Y-20.679 E25.09145
G1 X24.233 Y-19.456 E25.16881
G1 X24.393 Y-19.136 E25.18728
G1 X24.714 Y-18.136 E25.24152
G1 X24.761 Y-17.918 E25.25308
G1 X24.840 Y-17.183 E25.29124
G1 X24.847 Y16.941 E27.05387
G1 X24.772 Y17.855 E27.10124
G1 X24.720 Y18.116 E27.11499
G1 X24.393 Y19.136 E27.17031
G1 X24.233 Y19.456 E27.18879
G1 X23.368 Y20.679 E27.26614
G1 X23.058 Y20.980 E27.28847
G1 X21.808 Y21.808 E27.36589
G1 X21.481 Y21.958 E27.38449
G1 X20.486 Y22.241 E27.43792
G1 X20.256 Y22.282 E27.44999
G1 X19.545 Y22.334 E27.48683
G1 X-14.599 Y22.334 E29.25046
G1 X-14.796 Y22.317 E29.26067
G1 X-16.095 Y22.095 E29.32873
G1 X-16.485 Y21.954 E29.35014
G1 X-17.806 Y21.191 E29.42896
G1 X-18.134 Y20.910 E29.45130
G1 X-19.074 Y19.742 E29.52872
G1 X-19.254 Y19.430 E29.54732
G1 X-19.638 Y18.440 E29.60214
G1 X-19.708 Y18.161 E29.61701
G1 X-19.834 Y17.072 E29.67366
G1 X-19.834 Y1.656 E30.46993
G1 X-19.909 Y0.055 E30.55272
G1 X-19.870 Y-0.878 E30.60095
G1 X-19.509 Y-0.921 F3600.000
G1 X-19.475 Y-1.648 E30.63853 F900.000
G1 X-19.475 Y-17.091 E31.43624
G1 X-19.458 Y-17.273 E31.44567
G1 X-19.205 Y-18.626 E31.51679
G1 X-19.073 Y-18.968 E31.53569
G1 X-18.300 Y-20.216 E31.61154
G1 X-18.053 Y-20.487 E31.63044
G1 X-16.906 Y-21.353 E31.70472
G1 X-16.637 Y-21.497 E31.72046
G1 X-15.690 Y-21.831 E31.77231
G1 X-15.468 Y-21.881 E31.78409
G1 X-14.553 Y-21.975 E31.83158
G1 X19.681 Y-21.974 E33.59990 F900.000
G1 X19.890 Y-21.951 E33.61076
G1 X21.267 Y-21.654 E33.68348
G1 X21.606 Y-21.511 E33.70253
G1 X22.832 Y-20.699 E33.77845
G1 X23.094 Y-20.444 E33.79735
G1 X23.925 Y-19.271 E33.87157
G1 X24.060 Y-19.001 E33.88720
G1 X24.366 Y-18.043 E33.93912
G1 X24.407 Y-17.858 E33.94891
G1 X24.481 Y-17.172 E33.98454
G1 X24.492 Y16.838 E35.74126
G1 X24.416 Y17.805 E35.79140
G1 X24.372 Y18.026 E35.80303
G1 X24.060 Y19.001 E35.85588
G1 X23.925 Y19.271 E35.87151
G1 X23.094 Y20.444 E35.94572
G1 X22.832 Y20.699 E35.96462
G1 X21.633 Y21.493 E36.03889
G1 X21.356 Y21.620 E36.05463
G1 X20.405 Y21.891 E36.10569
G1 X20.211 Y21.926 E36.11591
G1 X19.614 Y21.972 E36.14683
G1 X-14.584 Y21.975 E37.91324
G1 X-14.750 Y21.961 E37.92188
G1 X-16.003 Y21.746 E37.98751
G1 X-16.333 Y21.627 E38.00562
G1 X-17.598 Y20.897 E38.08108
G1 X-17.876 Y20.659 E38.09998
G1 X-18.777 Y19.539 E38.17425
G1 X-18.929 Y19.275 E38.18999
G1 X-19.295 Y18.331 E38.24224
G1 X-19.354 Y18.095 E38.25482
G1 X-19.475 Y17.061 E38.30861
G1 X-19.475 Y1.648 E39.10475
G1 X-19.550 Y0.047 E39.18754
G1 X-19.512 Y-0.861 E39.23446
G1 X-19.150 Y-0.904 F3600.000
G1 X-19.116 Y-1.639 E39.27247 F900.000
G1 X-19.116 Y-17.075 E40.06976
G1 X-19.102 Y-17.223 E40.07748
G1 X-18.858 Y-18.528 E40.14602
G1 X-18.750 Y-18.807 E40.16148
G1 X-18.012 Y-19.999 E40.23390
G1 X-17.810 Y-20.220 E40.24936
G1 X-16.711 Y-21.050 E40.32048
G1 X-16.492 Y-21.168 E40.33336
G1 X-15.591 Y-21.485 E40.38271
G1 X-15.409 Y-21.527 E40.39235
G1 X-14.544 Y-21.616 E40.43727
G1 X19.662 Y-21.615 E42.20410
G1 X19.833 Y-21.596 E42.21299 F900.000
G1 X21.158 Y-21.310 E42.28299
G1 X21.436 Y-21.193 E42.29858
G1 X22.606 Y-20.418 E42.37105
G1 X22.821 Y-20.209 E42.38651
G1 X23.616 Y-19.086 E42.45758
G1 X23.726 Y-18.865 E42.47038
G1 X24.019 Y-17.950 E42.51999
G1 X24.052 Y-17.799 E42.52799
G1 X24.122 Y-17.162 E42.56109
G1 X24.130 Y16.897 E44.32033
G1 X24.060 Y17.756 E44.36482
G1 X24.024 Y17.936 E44.37434
G1 X23.726 Y18.865 E44.42470
G1 X23.616 Y19.086 E44.43749
G1 X22.821 Y20.209 E44.50857
G1 X22.606 Y20.418 E44.52403
G1 X21.458 Y21.178 E44.59515
G1 X21.231 Y21.283 E44.60802
G1 X20.325 Y21.541 E44.65673
G1 X20.165 Y21.569 E44.66509
G1 X19.531 Y21.616 E44.69793
G1 X-14.568 Y21.616 E46.45927
G1 X-15.911 Y21.398 E46.52952
G1 X-16.181 Y21.300 E46.54434
G1 X-17.389 Y20.603 E46.61643
G1 X-17.617 Y20.408 E46.63189
G1 X-18.480 Y19.335 E46.70301
G1 X-18.605 Y19.119 E46.71589
G1 X-18.952 Y18.222 E46.76557
G1 X-19.001 Y18.029 E46.77586
G1 X-19.116 Y17.050 E46.82679
G1 X-19.116 Y1.639 E47.62280
G1 X-19.191 Y0.038 E47.70559
G1 X-19.153 Y-0.844 E47.75120
G1 X-18.792 Y-0.887 F3600.000
G1 X-18.757 Y-1.631 E47.78965 F900.000
G1 X-18.757 Y-17.058 E48.58652
G1 X-18.511 Y-18.429 E48.65846
G1 X-18.427 Y-18.646 E48.67049
G1 X-17.724 Y-19.782 E48.73947
G1 X-17.567 Y-19.954 E48.75150
G1 X-16.517 Y-20.747 E48.81947
G1 X-16.346 Y-20.839 E48.82948
G1 X-15.491 Y-21.140 E48.87633
G1 X-15.349 Y-21.172 E48.88383
G1 X-14.534 Y-21.257 E48.92617
G1 X19.643 Y-21.255 E50.69152 F900.000
G1 X19.776 Y-21.241 E50.69843
G1 X21.049 Y-20.966 E50.76571
G1 X21.266 Y-20.875 E50.77783
G1 X22.380 Y-20.137 E50.84686
G1 X22.547 Y-19.975 E50.85888
G1 X23.307 Y-18.901 E50.92682
G1 X23.393 Y-18.729 E50.93677
G1 X23.672 Y-17.857 E50.98407
G1 X23.763 Y-17.151 E51.02084
G1 X23.774 Y16.823 E52.77570
G1 X23.704 Y17.706 E52.82143
G1 X23.676 Y17.846 E52.82883
G1 X23.393 Y18.729 E52.87671
G1 X23.307 Y18.901 E52.88666
G1 X22.547 Y19.975 E52.95460
G1 X22.380 Y20.137 E52.96662
G1 X21.283 Y20.864 E53.03459
G1 X21.107 Y20.945 E53.04461
G1 X20.244 Y21.190 E53.09095
G1 X19.573 Y21.255 E53.12577
G1 X-14.553 Y21.257 E54.88847
G1 X-15.819 Y21.049 E54.95471
G1 X-16.029 Y20.974 E54.96624
G1 X-17.181 Y20.308 E55.03497
G1 X-17.358 Y20.157 E55.04700
G1 X-18.183 Y19.132 E55.11496
G1 X-18.280 Y18.964 E55.12498
G1 X-18.609 Y18.113 E55.17208
G1 X-18.647 Y17.963 E55.18009
G1 X-18.757 Y17.039 E55.22817
G1 X-18.757 Y1.631 E56.02404
G1 X-18.832 Y0.030 E56.10682
G1 X-18.794 Y-0.827 E56.15112
G1 X-18.433 Y-0.870 F3600.000
G1 X-18.398 Y-1.622 E56.19001 F900.000
G1 X-18.390 Y-17.124 E56.99073
G1 X-18.164 Y-18.330 E57.05412
G1 X-18.104 Y-18.485 E57.06271
G1 X-17.436 Y-19.564 E57.12825
G1 X-17.324 Y-19.687 E57.13684
G1 X-16.323 Y-20.444 E57.20167
G1 X-16.201 Y-20.509 E57.20882
G1 X-15.391 Y-20.794 E57.25316
G1 X-14.524 Y-20.898 E57.29826
G1 X19.624 Y-20.896 E59.06211
G1 X20.941 Y-20.622 E59.13159 F900.000
G1 X21.095 Y-20.557 E59.14025
G1 X22.154 Y-19.856 E59.20582
G1 X22.273 Y-19.740 E59.21441
G1 X22.998 Y-18.716 E59.27920
G1 X23.059 Y-18.593 E59.28631
G1 X23.325 Y-17.764 E59.33130
G1 X23.404 Y-17.140 E59.36377
G1 X23.414 Y16.853 E61.11961
G1 X23.327 Y17.756 E61.16648
G1 X23.059 Y18.593 E61.21189
G1 X22.998 Y18.716 E61.21899
G1 X22.273 Y19.740 E61.28379
G1 X22.154 Y19.856 E61.29238
G1 X21.107 Y20.549 E61.35720
G1 X20.982 Y20.607 E61.36435
G1 X20.163 Y20.840 E61.40834
G1 X19.517 Y20.898 E61.44180
G1 X-14.538 Y20.898 E63.20086
G1 X-15.727 Y20.701 E63.26310
G1 X-15.877 Y20.647 E63.27134
G1 X-16.973 Y20.014 E63.33670
G1 X-17.099 Y19.906 E63.34529
G1 X-17.886 Y18.928 E63.41011
G1 X-17.955 Y18.808 E63.41727
G1 X-18.266 Y18.004 E63.46179
G1 X-18.394 Y17.083 E63.50984
G1 X-18.398 Y1.622 E64.30843
G1 X-18.473 Y0.021 E64.39122
G1 X-18.436 Y-0.810 E64.43420
G1 X-18.074 Y-0.853 F3600.000
G1 X-18.039 Y-1.614 E64.47353 F900.000
G1 X-18.034 Y-17.074 E65.27212
G1 X-17.818 Y-18.232 E65.33293
G1 X-17.782 Y-18.325 E65.33809
G1 X-17.149 Y-19.347 E65.40019
G1 X-17.081 Y-19.421 E65.40535
G1 X-16.055 Y-20.180 E65.47127
G1 X-15.291 Y-20.449 E65.51310
G1 X-14.515 Y-20.539 E65.55350
G1 X19.605 Y-20.537 E67.31587 F900.000
G1 X20.832 Y-20.278 E67.38066
G1 X20.925 Y-20.239 E67.38586
G1 X21.927 Y-19.575 E67.44798
G1 X21.999 Y-19.506 E67.45313
G1 X22.726 Y-18.458 E67.51900
G1 X22.978 Y-17.671 E67.56168
G1 X23.045 Y-17.130 E67.58985
G1 X23.056 Y16.809 E69.34285
G1 X22.979 Y17.666 E69.38732
G1 X22.726 Y18.458 E69.43025
G1 X21.999 Y19.506 E69.49612
G1 X21.927 Y19.575 E69.50127
G1 X20.932 Y20.235 E69.56294
G1 X20.082 Y20.490 E69.60882
G1 X19.531 Y20.538 E69.63736
G1 X-14.523 Y20.539 E71.39635
G1 X-15.635 Y20.352 E71.45459
G1 X-15.725 Y20.320 E71.45953
G1 X-16.764 Y19.720 E71.52153
G1 X-16.840 Y19.655 E71.52668
G1 X-17.589 Y18.725 E71.58835
G1 X-17.924 Y17.895 E71.63455
G1 X-18.037 Y17.050 E71.67861
G1 X-18.039 Y1.614 E72.47593
G1 X-18.114 Y0.013 E72.55872
G1 X-18.077 Y-0.793 E72.60039
G1 X-17.716 Y-0.836 F3600.000
G1 X-17.680 Y-1.605 E72.64015 F900.000
G1 X-17.678 Y-17.025 E73.43662
G1 X-17.459 Y-18.164 E73.49654
G1 X-16.861 Y-19.130 E73.55521
G1 X-15.910 Y-19.850 E73.61684
G1 X-15.192 Y-20.103 E73.65617
G1 X-14.505 Y-20.180 E73.69187
G1 X19.586 Y-20.178 E75.45275
G1 X20.755 Y-19.922 E75.51456 F900.000
G1 X21.725 Y-19.271 E75.57492
G1 X22.392 Y-18.322 E75.63484
G1 X22.631 Y-17.578 E75.67520
G1 X22.686 Y-17.119 E75.69907
G1 X22.697 Y16.809 E77.45152
G1 X22.631 Y17.576 E77.49131
G1 X22.380 Y18.346 E77.53316
G1 X21.725 Y19.271 E77.59168
G1 X20.757 Y19.920 E77.65189
G1 X20.001 Y20.140 E77.69257
G1 X19.503 Y20.180 E77.71833
G1 X-14.508 Y20.180 E79.47510
G1 X-15.573 Y19.993 E79.53097
G1 X-16.556 Y19.425 E79.58960
G1 X-17.292 Y18.521 E79.64981
G1 X-17.581 Y17.786 E79.69060
G1 X-17.679 Y17.017 E79.73068
G1 X-17.680 Y1.605 E80.52672
G1 X-17.755 Y0.004 E80.60951
G1 X-17.718 Y-0.776 E80.64987
G1 F2880
G1 X-17.680 Y-1.605 E80.15717
G1 F2880
G1 X-17.679 Y-7.175 E76.84987
G1 E76.64987 F1800.00000
G92 E0
G1 X-17.300 Y-16.981 F3600.000
G1 E4.00000 F1800.00000
G1 X-17.108 Y-18.010 E4.04892 F420.000
G1 X-16.567 Y-18.884 E4.09695
G1 X-15.741 Y-19.507 E4.14528
G1 X-15.097 Y-19.734 E4.17721
G1 X-14.489 Y-19.800 E4.20580
G1 X19.555 Y-19.799 E5.79701
G1 X20.590 Y-19.575 E5.84653 F420.000
G1 X21.447 Y-19.008 E5.89455
G1 X22.044 Y-18.164 E5.94289
G1 X22.261 Y-17.488 E5.97603
G1 X22.307 Y-17.102 E5.99423
G1 X22.317 Y16.789 E7.57829
G1 X22.260 Y17.492 E7.61123
G1 X22.044 Y18.164 E7.64420
G1 X21.447 Y19.008 E7.69254
G1 X20.585 Y19.579 E7.74088
G1 X19.925 Y19.767 E7.77295
G1 X19.492 Y19.800 E7.79322
G1 X-14.483 Y19.800 E9.38123
G1 X-15.428 Y19.638 E9.42604
G1 X-16.319 Y19.124 E9.47415
G1 X-16.968 Y18.318 E9.52248
G1 X-17.214 Y17.683 E9.55434
G1 X-17.300 Y16.988 E9.58707
G1 X-17.300 Y1.592 E10.30666
G1 X-17.375 Y-0.000 E10.38115
G1 X-17.300 Y-1.592 E10.45565
G1 X-17.300 Y-16.921 E11.17214
G1 X-16.932 Y-17.137 F3600.000
G1 X-16.958 Y-16.950 F3600.000
G1 X-16.783 Y-17.885 E11.22126 F600.000
G1 X-16.310 Y-18.650 E11.26775
G1 X-15.578 Y-19.202 E11.31511
G1 X-15.021 Y-19.398 E11.34561
G1 X-14.471 Y-19.458 E11.37419
G1 X19.518 Y-19.457 E13.12983
G1 X20.455 Y-19.255 E13.17933 F600.000
G1 X21.205 Y-18.758 E13.22577
G1 X21.735 Y-18.009 E13.27317
G1 X21.925 Y-17.415 E13.30537
G1 X21.965 Y-17.081 E13.32274
G1 X21.976 Y16.775 E15.07154
G1 X21.922 Y17.425 E15.10519
G1 X21.735 Y18.009 E15.13688
G1 X21.205 Y18.758 E15.18428
G1 X20.440 Y19.264 E15.23165
G1 X19.864 Y19.428 E15.26257
G1 X19.479 Y19.458 E15.28253
G1 X-14.454 Y19.458 E17.03527
G1 X-15.310 Y19.312 E17.08013
G1 X-16.093 Y18.860 E17.12684
G1 X-16.668 Y18.145 E17.17420
G1 X-16.880 Y17.599 E17.20448
G1 X-16.958 Y16.967 E17.23737
G1 X-16.958 Y1.584 E18.03192
G1 X-17.033 Y-0.000 E18.11383
G1 X-16.958 Y-1.584 E18.19574
G1 X-16.958 Y-16.890 E18.98633
G1 X-16.500 Y-5.221 F3600.000
G1 X-15.022 Y-11.834 F3600.000
G1 X-11.880 Y-13.521 F3600.000
G1 X-10.917 Y-14.508 F3600.000
G1 X-8.909 Y-17.605 F3600.000
G1 X-2.457 Y-18.797 F3600.000
G1 X5.416 Y-18.637 F3600.000
G1 X13.787 Y-17.069 F3600.000
G1 X17.252 Y-12.551 F3600.000
G1 X20.837 Y-5.972 F3600.000
G1 X21.251 Y1.503 F3600.000
G1 X19.613 Y11.307 F3600.000
G1 X16.710 Y12.954 F3600.000
G1 X10.431 Y17.914 F3600.000
G1 X4.102 Y18.668 F3600.000
G1 X-2.413 Y18.799 F3600.000
G1 X-8.909 Y17.606 F3600.000
G1 X-10.076 Y15.694 F3600.000
G1 X-10.896 Y14.502 F3600.000
G1 X-11.630 Y13.713 F3600.000
G1 X-13.251 Y12.580 F3600.000
G1 X-13.718 Y12.368 F3600.000
G1 X-14.146 Y12.161 F3600.000
