; generated by Slic3r 1.2.9 on 2016-04-21 at 22:32:02

; external perimeters extrusion width = 0.40mm
; perimeters extrusion width = 0.56mm
; infill extrusion width = 0.56mm
; solid infill extrusion width = 0.56mm
; top infill extrusion width = 0.56mm
; support material extrusion width = 0.40mm

M190 S85 ; set bed temperature
G21; set mm units 
G92 E0; reset extruder distance 
G90; set absolute coordinates 
G28 ; home all axes
M106 S255; Set cooling fan on
M109 S220 ; set nozzle heater to first layer temperature
G29 ; Self Calibrate
G1 Z15 F2000; slightly raise from bed
G1 X55 Y-50 F2000; move to purging zone
G1 X-35 Y-50 E12 F300.000; extrude a line of filament across the front edge of the bed
G4 P2000; wait for ooze to slow
G1 Z0 F6000.000; lower nozzle height to 0
G1 X-55 F400; wipe nozzle
G1 Z100% F6000.000; set nozzle to first layer height
G1 F12000; ensure fast travel to first print move
G92 E0; set E to 0 again
G1 X0 F900; back to home
G1 Z0 F2000; back to home
G21 ; set units to millimeters
G90 ; use absolute coordinates
M82 ; use absolute distances for extrusion
G92 E0
M106 S255
G1 Z0.250 F3600.000
G1 E-2.00000 F1800.00000
G92 E0
G1 Z0.550 F3600.000
G1 X19.003 Y0.000 F3600.000
G1 Z0.250 F3600.000
G1 E2.00000 F1800.00000
G1 X19.003 Y12.500 E2.64566 F900.000
G1 X18.606 Y14.737 E2.76302
G1 X17.463 Y16.701 E2.88038
G1 X15.715 Y18.152 E2.99773
G1 X12.500 Y19.003 E3.16952
G1 X-12.500 Y19.003 E4.46084
G1 X-14.737 Y18.606 E4.57820
G1 X-16.701 Y17.463 E4.69555
G1 X-18.152 Y15.715 E4.81291
G1 X-19.003 Y12.500 E4.98469
G1 X-19.003 Y-12.500 E6.27602
G1 X-18.606 Y-14.737 E6.39337
G1 X-17.463 Y-16.701 E6.51073
G1 X-15.715 Y-18.152 E6.62809
G1 X-12.500 Y-19.003 E6.79987
G1 X12.500 Y-19.003 E8.09119
G1 X14.737 Y-18.606 E8.20855
G1 X16.701 Y-17.463 E8.32591 F900.000
G1 X18.152 Y-15.715 E8.44326
G1 X19.003 Y-12.500 E8.61505
G1 X19.003 Y-0.060 E9.25761
G1 F2880
G1 X19.003 Y3.140 E7.35761
G1 E7.25761 F1800.00000
G92 E0
G1 Z0.550 F3600.000
G1 X16.773 Y0.000 F3600.000
G1 Z0.250 F3600.000
G1 E2.00000 F1800.00000
G1 X16.773 Y14.270 E2.73707 F900.000
G1 X14.270 Y16.773 E2.91990
G1 X-14.270 Y16.773 E4.39405
G1 X-16.773 Y14.270 E4.57687
G1 X-16.773 Y-14.270 E6.05102
G1 X-14.270 Y-16.773 E6.23385
G1 X14.270 Y-16.773 E7.70800
G1 X16.773 Y-14.270 E7.89082
G1 X16.773 Y-0.060 E8.62480 F900.000
G1 X16.270 Y0.000 F3600.000
G1 X16.270 Y14.062 E9.35112 F900.000
G1 X14.062 Y16.270 E9.51243
G1 X-14.062 Y16.270 E10.96507
G1 X-16.270 Y14.062 E11.12639
G1 X-16.270 Y-14.062 E12.57903
G1 X-14.062 Y-16.270 E12.74034
G1 X14.062 Y-16.270 E14.19298
G1 X16.270 Y-14.062 E14.35430 F900.000
G1 X16.270 Y-0.060 E15.07752
G1 X15.767 Y0.000 F3600.000
G1 X15.767 Y13.853 E15.79309 F900.000
G1 X13.853 Y15.767 E15.93289
G1 X-13.853 Y15.767 E17.36402
G1 X-15.767 Y13.853 E17.50383
G1 X-15.767 Y-13.853 E18.93496
G1 X-13.853 Y-15.767 E19.07477
G1 X13.853 Y-15.767 E20.50590
G1 X15.767 Y-13.853 E20.64571
G1 X15.767 Y-0.060 E21.35817 F900.000
G1 X15.265 Y0.000 F3600.000
G1 X15.265 Y13.645 E22.06298 F900.000
G1 X13.645 Y15.265 E22.18128
G1 X-13.645 Y15.265 E23.59090
G1 X-15.265 Y13.645 E23.70920
G1 X-15.265 Y-13.645 E25.11883
G1 X-13.645 Y-15.265 E25.23712
G1 X13.645 Y-15.265 E26.64675
G1 X15.265 Y-13.645 E26.76504 F900.000
G1 X15.265 Y-0.060 E27.46676
G1 X14.762 Y0.000 F3600.000
G1 X14.762 Y13.437 E28.16081 F900.000
G1 X13.437 Y14.762 E28.25760
G1 X-13.437 Y14.762 E29.64571
G1 X-14.762 Y13.437 E29.74250
G1 X-14.762 Y-13.437 E31.13062
G1 X-13.437 Y-14.762 E31.22741
G1 X13.437 Y-14.762 E32.61552
G1 X14.762 Y-13.437 E32.71231
G1 X14.762 Y-0.060 E33.40327 F900.000
G1 X14.259 Y0.000 F3600.000
G1 X14.259 Y13.229 E34.08657 F900.000
G1 X13.229 Y14.259 E34.16185
G1 X-13.229 Y14.259 E35.52845
G1 X-14.259 Y13.229 E35.60373
G1 X-14.259 Y-13.229 E36.97034
G1 X-13.229 Y-14.259 E37.04562
G1 X13.229 Y-14.259 E38.41222
G1 X14.259 Y-13.229 E38.48750 F900.000
G1 X14.259 Y-0.060 E39.16771
G1 X13.757 Y0.000 F3600.000
G1 X13.757 Y13.021 E39.84025 F900.000
G1 X13.021 Y13.757 E39.89403
G1 X-13.021 Y13.757 E41.23912
G1 X-13.757 Y13.021 E41.29289
G1 X-13.757 Y-13.021 E42.63799
G1 X-13.021 Y-13.757 E42.69176
G1 X13.021 Y-13.757 E44.03686
G1 X13.757 Y-13.021 E44.09063
G1 X13.757 Y-0.060 E44.76008 F900.000
G1 X13.254 Y0.000 F3600.000
G1 X13.254 Y12.812 E45.42187 F900.000
G1 X12.812 Y13.254 E45.45413
G1 X-12.812 Y13.254 E46.77772
G1 X-13.254 Y12.812 E46.80998
G1 X-13.254 Y-12.812 E48.13357
G1 X-12.812 Y-13.254 E48.16583
G1 X12.812 Y-13.254 E49.48942
G1 X13.254 Y-12.812 E49.52168 F900.000
G1 X13.254 Y-0.060 E50.18037
G1 F2880
G1 X13.254 Y3.140 E48.28037
G1 E48.18037 F1800.00000
G92 E0
G1 Z0.550 F3600.000
G1 X12.751 Y-12.604 F3600.000
G1 Z0.250 F3600.000
G1 E2.00000 F1800.00000
G1 X12.751 Y12.604 E3.30208 F900.000
G1 X12.604 Y12.751 E3.31283
G1 X-12.604 Y12.751 E4.61491
G1 X-12.751 Y12.604 E4.62566
G1 X-12.751 Y-12.604 E5.92774
G1 X-12.604 Y-12.751 E5.93849
G1 X12.604 Y-12.751 E7.24057
G1 X12.709 Y-12.647 E7.24823
G1 X12.300 Y-12.300 F3600.000
G1 X12.300 Y12.300 E8.12376 F420.000
G1 X-12.300 Y12.300 E8.99930
G1 X-12.300 Y-12.300 E9.87484
G1 X12.240 Y-12.300 E10.74824
G1 X12.100 Y-11.954 F3600.000
G1 X11.875 Y-11.875 F3600.000
G1 X11.875 Y11.875 E11.97505 F600.000
G1 X-11.875 Y11.875 E13.20185
G1 X-11.875 Y-11.875 E14.42866
G1 X11.815 Y-11.875 E15.65237
G1 X2.752 Y-8.911 F3600.000
G1 X3.210 Y-7.500 E15.70518 F600.000
G1 X2.597 Y-5.613 E15.77580
G1 X0.992 Y-4.447 E15.84641
G1 X-0.992 Y-4.447 E15.91703
G1 X-2.597 Y-5.613 E15.98765
G1 X-3.210 Y-7.500 E16.05826
G1 X-2.597 Y-9.387 E16.12888
G1 X-0.992 Y-10.553 E16.19949
G1 X0.992 Y-10.553 E16.27011 F600.000
G1 X2.597 Y-9.387 E16.34072
G1 X2.733 Y-8.968 E16.35639
G1 X3.143 Y-8.828 F3600.000
G1 X3.156 Y-9.042 F3600.000
G1 X3.657 Y-7.500 E16.44016 F600.000
G1 X2.958 Y-5.351 E16.55689
G1 X1.130 Y-4.022 E16.67362
G1 X-1.130 Y-4.022 E16.79036
G1 X-2.958 Y-5.351 E16.90709
G1 X-3.657 Y-7.500 E17.02382
G1 X-2.958 Y-9.649 E17.14056
G1 X-1.130 Y-10.978 E17.25729
G1 X1.130 Y-10.978 E17.37402 F600.000
G1 X2.958 Y-9.649 E17.49076
G1 X3.137 Y-9.100 E17.52062
G1 F2880
G1 X3.657 Y-7.500 E16.52204
G1 F2880
G1 X3.188 Y-6.056 E15.62062
G1 E15.52062 F1800.00000
G92 E0
G1 Z0.550 F3600.000
G1 X1.252 Y-3.647 F3600.000
G1 X1.252 Y-0.000 F3600.000
G1 X1.252 Y-0.000 F3600.000
G1 X1.252 Y3.647 F3600.000
G1 X0.992 Y4.447 F3600.000
G1 Z0.250 F3600.000
G1 E2.00000 F1800.00000
G1 X2.597 Y5.613 E2.07061 F600.000
G1 X3.210 Y7.500 E2.14123
G1 X2.597 Y9.387 E2.21185
G1 X0.992 Y10.553 E2.28246
G1 X-0.992 Y10.553 E2.35308
G1 X-2.597 Y9.387 E2.42369
G1 X-3.210 Y7.500 E2.49431
G1 X-2.597 Y5.613 E2.56493
G1 X-0.992 Y4.447 E2.63554
G1 X0.932 Y4.447 E2.70402 F600.000
G1 X1.316 Y4.212 F3600.000
G1 X1.242 Y4.103 F3600.000
G1 X2.958 Y5.351 E2.81363 F600.000
G1 X3.657 Y7.500 E2.93036
G1 X2.958 Y9.649 E3.04710
G1 X1.130 Y10.978 E3.16383
G1 X-1.130 Y10.978 E3.28056
G1 X-2.958 Y9.649 E3.39730
G1 X-3.657 Y7.500 E3.51403
G1 X-2.958 Y5.351 E3.63076
G1 X-1.130 Y4.022 E3.74749
G1 X1.130 Y4.022 E3.86423 F600.000
G1 X1.193 Y4.068 E3.86826
G1 X4.051 Y7.500 F3600.000
G1 X4.454 Y10.263 F3600.000
G1 X3.804 Y10.605 F3600.000
G1 X1.300 Y11.419 F3600.000
G1 X1.549 Y11.427 F3600.000
G1 X-1.549 Y11.427 E4.20539 F600.000
G1 X-4.454 Y10.263 F3600.000
G1 X-6.322 Y-0.929 F3600.000
G1 X-6.958 Y-8.444 F3600.000
G1 X-3.804 Y-10.605 F3600.000
G1 X-1.300 Y-11.419 F3600.000
G1 X-1.549 Y-11.427 F3600.000
G1 X1.549 Y-11.427 E4.54251 F600.000
G1 X-2.268 Y-11.550 F3600.000
G1 X-1.875 Y-11.156 E4.57140 F600.000
G1 X-2.074 Y-10.642 E4.60001
G1 X-2.982 Y-11.550 E4.66663
G1 X-3.696 Y-11.550 E4.70366
G1 X-2.488 Y-10.341 E4.79232
G1 X-2.902 Y-10.041 E4.81883
G1 X-4.410 Y-11.550 E4.92953
G1 X-5.124 Y-11.550 E4.96657
G1 X-3.260 Y-9.685 E5.10334
G1 X-3.435 Y-9.147 E5.13274
G1 X-5.838 Y-11.550 E5.30905
G1 X-6.552 Y-11.550 E5.34608
G1 X-3.610 Y-8.608 E5.56193
G1 X-3.785 Y-8.069 E5.59132
G1 X-7.266 Y-11.550 E5.84670
G1 X-7.980 Y-11.550 E5.88374
G1 X-3.960 Y-7.530 E6.17866
G1 X-3.748 Y-6.604 E6.22794
G1 X-8.694 Y-11.550 E6.59080
G1 X-9.408 Y-11.550 E6.62784
G1 X-3.405 Y-5.546 E7.06828
G1 X-2.027 Y-4.169 F3600.000
G1 X11.550 Y9.408 E8.06433 F600.000
G1 X11.550 Y10.122 E8.10137
G1 X-10.122 Y-11.550 E9.69132
G1 X-10.836 Y-11.550 E9.72835
G1 X11.550 Y10.836 E11.37068
G1 X11.530 Y11.530 E11.40669
G1 X-11.530 Y-11.530 E13.09846
G1 X-11.550 Y-10.836 E13.13448
G1 X10.836 Y11.550 E14.77680
G1 X10.122 Y11.550 E14.81384
G1 X-11.550 Y-10.122 E16.40378
G1 X-11.550 Y-9.408 E16.44082
G1 X2.026 Y4.168 E17.43683
G1 X0.841 Y3.697 F3600.000
G1 X-11.550 Y-8.694 E18.34587 F600.000
G1 X-11.550 Y-7.980 E18.38290
G1 X0.127 Y3.697 E19.23956
G1 X-0.587 Y3.697 E19.27659
G1 X-11.550 Y-7.266 E20.08087
G1 X-11.550 Y-6.552 E20.11791
G1 X-1.243 Y3.754 E20.87404
G1 X-1.657 Y4.055 E20.90055
G1 X-11.550 Y-5.838 E21.62635
G1 X-11.550 Y-5.124 E21.66339
G1 X-2.070 Y4.355 E22.35884
G1 X-2.484 Y4.656 E22.38536
G1 X-11.550 Y-4.410 E23.05048
G1 X-11.550 Y-3.696 E23.08751
G1 X-2.897 Y4.956 E23.72230
G1 X-3.258 Y5.309 E23.74849
G1 X-11.550 Y-2.982 E24.35680
G1 X-11.550 Y-2.268 E24.39384
G1 X-3.433 Y5.848 E24.98930
G1 X-3.608 Y6.387 E25.01870
G1 X-11.550 Y-1.554 E25.60132
G1 X-11.550 Y-0.841 E25.63836
G1 X-3.783 Y6.926 E26.20814
G1 X-3.959 Y7.465 E26.23753
G1 X-11.550 Y-0.127 E26.79446
G1 X-11.550 Y0.587 E26.83150
G1 X-3.752 Y8.386 E27.40362
G1 X-3.408 Y9.443 E27.46130
G1 X-11.550 Y1.301 E28.05863
G1 X-11.550 Y2.015 E28.09567
G1 X-2.015 Y11.550 E28.79517
G1 X-2.729 Y11.550 E28.83220
G1 X-11.550 Y2.729 E29.47932
G1 X-11.550 Y3.443 E29.51636
G1 X-3.443 Y11.550 E30.11110
G1 X-4.157 Y11.550 E30.14814
G1 X-11.550 Y4.157 E30.69051
G1 X-11.550 Y4.871 E30.72754
G1 X-4.871 Y11.550 E31.21753
G1 X-5.585 Y11.550 E31.25457
G1 X-11.550 Y5.585 E31.69217
G1 X-11.550 Y6.299 E31.72921
G1 X-6.299 Y11.550 E32.11444
G1 X-7.013 Y11.550 E32.15147
G1 X-11.550 Y7.013 E32.48432
G1 X-11.550 Y7.727 E32.52136
G1 X-7.727 Y11.550 E32.80183
G1 X-8.441 Y11.550 E32.83886
G1 X-11.550 Y8.441 E33.06695
G1 X-11.550 Y9.155 E33.10399
G1 X-9.155 Y11.550 E33.27970
G1 X-9.869 Y11.550 E33.31674
G1 X-11.550 Y9.869 E33.44007
G1 X-11.550 Y10.583 E33.47711
G1 X-10.583 Y11.550 E33.54806
G1 X-11.297 Y11.550 E33.58510
G1 X-11.550 Y11.297 E33.60367
G1 X1.875 Y11.156 F3600.000
G1 X2.268 Y11.550 E33.63255 F600.000
G1 X2.982 Y11.550 E33.66959
G1 X2.074 Y10.642 E33.73620
G1 X2.488 Y10.341 E33.76271
G1 X3.696 Y11.550 E33.85136
G1 X4.410 Y11.550 E33.88840
G1 X2.901 Y10.041 E33.99909
G1 X3.260 Y9.686 E34.02528
G1 X5.124 Y11.550 E34.16205
G1 X5.838 Y11.550 E34.19909
G1 X3.435 Y9.147 E34.37540
G1 X3.610 Y8.608 E34.40479
G1 X6.552 Y11.550 E34.62063
G1 X7.266 Y11.550 E34.65767
G1 X3.785 Y8.069 E34.91304
G1 X3.960 Y7.530 E34.94244
G1 X7.980 Y11.550 E35.23735
G1 X8.694 Y11.550 E35.27439
G1 X3.748 Y6.604 E35.63723
G1 X3.405 Y5.546 E35.69492
G1 X9.408 Y11.550 E36.13535
G1 X-0.841 Y-3.697 F3600.000
G1 X11.550 Y8.694 E37.04439 F600.000
G1 X11.550 Y7.980 E37.08143
G1 X-0.127 Y-3.697 E37.93809
G1 X0.587 Y-3.697 E37.97513
G1 X11.550 Y7.266 E38.77941
G1 X11.550 Y6.552 E38.81645
G1 X1.243 Y-3.754 E39.57258
G1 X1.657 Y-4.055 E39.59910
G1 X11.550 Y5.838 E40.32490
G1 X11.550 Y5.124 E40.36194
G1 X2.070 Y-4.355 E41.05740
G1 X2.484 Y-4.656 E41.08391
G1 X11.550 Y4.410 E41.74904
G1 X11.550 Y3.696 E41.78608
G1 X2.897 Y-4.956 E42.42086
G1 X3.258 Y-5.309 E42.44705
G1 X11.550 Y2.982 E43.05537
G1 X11.550 Y2.268 E43.09240
G1 X3.433 Y-5.848 E43.68787
G1 X3.608 Y-6.387 E43.71727
G1 X11.550 Y1.555 E44.29989
G1 X11.550 Y0.841 E44.33693
G1 X3.783 Y-6.926 E44.90671
G1 X3.958 Y-7.465 E44.93610
G1 X11.550 Y0.127 E45.49304
G1 X11.550 Y-0.587 E45.53008
G1 X3.752 Y-8.385 E46.10219
G1 X3.408 Y-9.443 E46.15988
G1 X11.550 Y-1.301 E46.75720
G1 X11.550 Y-2.015 E46.79424
G1 X2.015 Y-11.550 E47.49374
G1 X2.729 Y-11.550 E47.53078
G1 X11.550 Y-2.729 E48.17791
G1 X11.550 Y-3.443 E48.21495
G1 X3.443 Y-11.550 E48.80969
G1 X4.157 Y-11.550 E48.84673
G1 X11.550 Y-4.157 E49.38910
G1 X11.550 Y-4.871 E49.42614
G1 X4.871 Y-11.550 E49.91613
G1 X5.585 Y-11.550 E49.95317
G1 X11.550 Y-5.585 E50.39078
G1 X11.550 Y-6.299 E50.42782
G1 X6.299 Y-11.550 E50.81305
G1 X7.013 Y-11.550 E50.85009
G1 X11.550 Y-7.013 E51.18294
G1 X11.550 Y-7.727 E51.21998
G1 X7.727 Y-11.550 E51.50045
G1 X8.441 Y-11.550 E51.53749
G1 X11.550 Y-8.441 E51.76559
G1 X11.550 Y-9.155 E51.80262
G1 X9.155 Y-11.550 E51.97834
G1 X9.869 Y-11.550 E52.01538
G1 X11.550 Y-9.869 E52.13872
G1 X11.550 Y-10.583 E52.17575
G1 X10.583 Y-11.550 E52.24671
G1 X11.296 Y-11.550 E52.28375
G1 X11.550 Y-11.297 E52.30233
G1 Z0.250 F3600.000
G1 Z0.500 F3600.000
G1 X1.242 Y4.103 F3600.000
G1 X2.958 Y5.351 E52.41194 F1200.000
G1 X3.657 Y7.500 E52.52867
G1 X2.958 Y9.649 E52.64541
G1 X1.130 Y10.978 E52.76214
G1 X-1.130 Y10.978 E52.87887
G1 X-2.958 Y9.649 E52.99561
G1 X-3.657 Y7.500 E53.11234
G1 X-2.958 Y5.351 E53.22907
G1 X-1.130 Y4.022 E53.34580
G1 X1.130 Y4.022 E53.46254 F1200.000
G1 X1.193 Y4.068 E53.46657
G1 X0.992 Y4.447 F3600.000
G1 X2.597 Y5.613 E53.53718 F1200.000
G1 X3.210 Y7.500 E53.60780
G1 X2.597 Y9.387 E53.67841
G1 X0.992 Y10.553 E53.74903
G1 X-0.992 Y10.553 E53.81964
G1 X-2.597 Y9.387 E53.89026
G1 X-3.210 Y7.500 E53.96088
G1 X-2.597 Y5.613 E54.03149
G1 X-0.992 Y4.447 E54.10211
G1 X0.932 Y4.447 E54.17059 F1200.000
G1 X1.316 Y4.212 F3600.000
G1 X0.992 Y-4.022 F3600.000
G1 X-1.130 Y-4.022 E54.28020 F1200.000
G1 X-2.958 Y-5.351 E54.39693
G1 X-3.657 Y-7.500 E54.51366
G1 X-2.958 Y-9.649 E54.63040
G1 X-1.130 Y-10.978 E54.74713
G1 X1.130 Y-10.978 E54.86386 F1200.000
G1 X2.958 Y-9.649 E54.98060
G1 X3.657 Y-7.500 E55.09733
G1 X2.958 Y-5.351 E55.21406
G1 X1.130 Y-4.022 E55.33079
G1 X1.052 Y-4.022 E55.33482
G1 X0.992 Y-4.447 F3600.000
G1 X-0.992 Y-4.447 E55.40543 F1200.000
G1 X-2.597 Y-5.613 E55.47605
G1 X-3.210 Y-7.500 E55.54666
G1 X-2.597 Y-9.387 E55.61728
G1 X-0.992 Y-10.553 E55.68789
G1 X0.992 Y-10.553 E55.75851 F1200.000
G1 X2.597 Y-9.387 E55.82913
G1 X3.210 Y-7.500 E55.89974
G1 X2.597 Y-5.613 E55.97035
G1 X1.041 Y-4.482 E56.03883
G1 X0.868 Y-4.066 F3600.000
G1 X11.875 Y-11.875 F3600.000
G1 X11.875 Y11.875 E57.26564 F1200.000
G1 X-11.875 Y11.875 E58.49245
G1 X-11.875 Y-11.875 E59.71926
G1 X11.815 Y-11.875 E60.94297
G1 X12.300 Y-12.300 F3600.000
G1 X12.300 Y12.300 E61.81850 F840.000
G1 X-12.300 Y12.300 E62.69404
G1 X-12.300 Y-12.300 E63.56958
G1 X12.240 Y-12.300 E64.44298
G1 X12.100 Y-11.954 F3600.000
G1 X1.549 Y-11.427 F3600.000
G1 X-1.549 Y-11.427 E64.78010 F1200.000
G1 X-2.015 Y-11.550 F3600.000
G1 X-11.550 Y-2.015 E65.47960 F1200.000
G1 X-11.550 Y-2.729 E65.51664
G1 X-2.729 Y-11.550 E66.16376
G1 X-3.443 Y-11.550 E66.20080
G1 X-11.550 Y-3.443 E66.79554
G1 X-11.550 Y-4.157 E66.83258
G1 X-4.157 Y-11.550 E67.37494
G1 X-4.871 Y-11.550 E67.41198
G1 X-11.550 Y-4.871 E67.90196
G1 X-11.550 Y-5.585 E67.93900
G1 X-5.585 Y-11.550 E68.37661
G1 X-6.299 Y-11.550 E68.41364
G1 X-11.550 Y-6.299 E68.79887
G1 X-11.550 Y-7.013 E68.83591
G1 X-7.013 Y-11.550 E69.16876
G1 X-7.727 Y-11.550 E69.20579
G1 X-11.550 Y-7.727 E69.48626
G1 X-11.550 Y-8.441 E69.52330
G1 X-8.441 Y-11.550 E69.75139
G1 X-9.155 Y-11.550 E69.78843
G1 X-11.550 Y-9.155 E69.96414
G1 X-11.550 Y-9.869 E70.00118
G1 X-9.869 Y-11.550 E70.12451
G1 X-10.583 Y-11.550 E70.16155
G1 X-11.550 Y-10.583 E70.23250
G1 X-11.550 Y-11.297 E70.26954
G1 X-11.297 Y-11.550 E70.28811
G1 X-3.408 Y-9.443 F3600.000
G1 X-11.550 Y-1.301 E70.88544 F1200.000
G1 X-11.550 Y-0.587 E70.92247
G1 X-3.752 Y-8.386 E71.49459
G1 X-3.959 Y-7.465 E71.54356
G1 X-11.550 Y0.127 E72.10049
G1 X-11.550 Y0.841 E72.13753
G1 X-3.783 Y-6.926 E72.70731
G1 X-3.608 Y-6.387 E72.73670
G1 X-11.550 Y1.554 E73.31932
G1 X-11.550 Y2.268 E73.35636
G1 X-3.433 Y-5.848 E73.95183
G1 X-3.258 Y-5.309 E73.98122
G1 X-11.550 Y2.982 E74.58954
G1 X-11.550 Y3.696 E74.62657
G1 X-2.897 Y-4.956 E75.26136
G1 X-2.484 Y-4.656 E75.28787
G1 X-11.550 Y4.410 E75.95299
G1 X-11.550 Y5.124 E75.99003
G1 X-2.070 Y-4.355 E76.68549
G1 X-1.657 Y-4.055 E76.71201
G1 X-11.550 Y5.838 E77.43780
G1 X-11.550 Y6.552 E77.47484
G1 X-1.243 Y-3.754 E78.23097
G1 X-0.587 Y-3.697 E78.26515
G1 X-11.550 Y7.266 E79.06942
G1 X-11.550 Y7.980 E79.10646
G1 X0.127 Y-3.697 E79.96311
G1 X0.841 Y-3.697 E80.00015
