; generated by Slic3r 1.2.9 on 2016-04-19 at 17:11:56

; external perimeters extrusion width = 0.40mm
; perimeters extrusion width = 0.67mm
; infill extrusion width = 0.67mm
; solid infill extrusion width = 0.67mm
; top infill extrusion width = 0.67mm
; support material extrusion width = 0.40mm

M190 S85 ; set bed temperature
G21; set mm units 
G92 E0; reset extruder distance 
G90; set absolute coordinates 
G28 ; home all axes
M106 S255; Set cooling fan on
M109 S220 ; set nozzle heater to first layer temperature
G29 ; Self Calibrate
G1 Z15 F2000; slightly raise from bed
G1 X55 Y-50 F2000; move to purging zone
G1 X-35 Y-50 E12 F300.000; extrude a line of filament across the front edge of the bed
G4 P2000; wait for ooze to slow
G1 Z0 F6000.000; lower nozzle height to 0
G1 X-55 F400; wipe nozzle
G1 Z100% F6000.000; set nozzle to first layer height
G1 F12000; ensure fast travel to first print move
G92 E0; set E to 0 again
G1 X0 F900; back to home
G1 Z0 F2000; back to home
G21 ; set units to millimeters
G90 ; use absolute coordinates
M82 ; use absolute distances for extrusion
G92 E0
M106 S255
G1 Z0.200 F3600.000
G1 E-3.50000 F1800.00000
G92 E0
G1 X39.128 Y0.000 F3600.000
G1 E3.50000 F1800.00000
G1 X39.128 Y19.000 E4.49265 F900.000
G1 X39.092 Y19.693 E4.52890
G1 X38.721 Y23.227 E4.71458
G1 X38.432 Y24.583 E4.78697
G1 X37.334 Y27.963 E4.97265
G1 X36.771 Y29.229 E5.04505
G1 X34.994 Y32.307 E5.23072
G1 X34.179 Y33.427 E5.30311
G1 X31.801 Y36.069 E5.48879
G1 X30.771 Y36.996 E5.56120
G1 X27.896 Y39.085 E5.74687
G1 X26.696 Y39.778 E5.81926
G1 X23.449 Y41.223 E6.00493
G1 X22.131 Y41.651 E6.07733
G1 X18.655 Y42.390 E6.26301
G1 X17.277 Y42.535 E6.33541
G1 X-17.277 Y42.535 E8.14068
G1 X-18.655 Y42.390 E8.21307
G1 X-22.131 Y41.651 E8.39875
G1 X-23.449 Y41.223 E8.47115
G1 X-26.696 Y39.778 E8.65683
G1 X-27.896 Y39.085 E8.72921
G1 X-30.771 Y36.996 E8.91489
G1 X-31.801 Y36.069 E8.98729
G1 X-34.179 Y33.427 E9.17297
G1 X-34.994 Y32.307 E9.24536
G1 X-36.771 Y29.229 E9.43104
G1 X-37.334 Y27.963 E9.50344
G1 X-38.432 Y24.583 E9.68911
G1 X-38.721 Y23.227 E9.76150
G1 X-39.092 Y19.693 E9.94718
G1 X-39.128 Y19.000 E9.98343
G1 X-39.128 Y-19.000 E11.96874
G1 X-39.092 Y-19.693 E12.00498
G1 X-38.721 Y-23.227 E12.19066
G1 X-38.432 Y-24.583 E12.26305
G1 X-37.334 Y-27.963 E12.44873
G1 X-36.771 Y-29.229 E12.52113
G1 X-34.994 Y-32.307 E12.70681
G1 X-34.179 Y-33.428 E12.77920
G1 X-31.801 Y-36.069 E12.96488
G1 X-30.771 Y-36.996 E13.03728
G1 X-27.896 Y-39.085 E13.22295
G1 X-26.696 Y-39.778 E13.29534
G1 X-23.449 Y-41.223 E13.48102
G1 X-22.131 Y-41.651 E13.55342
G1 X-18.655 Y-42.390 E13.73910
G1 X-17.270 Y-42.535 E13.81186
G1 X17.458 Y-42.498 E15.62621
G1 X18.829 Y-42.353 E15.69824 F900.000
G1 X22.131 Y-41.651 E15.87463
G1 X23.449 Y-41.223 E15.94703
G1 X26.696 Y-39.778 E16.13271
G1 X27.896 Y-39.085 E16.20509
G1 X30.771 Y-36.996 E16.39077
G1 X31.801 Y-36.069 E16.46317
G1 X34.179 Y-33.428 E16.64885
G1 X34.994 Y-32.307 E16.72124
G1 X36.771 Y-29.229 E16.90692
G1 X37.334 Y-27.963 E16.97932
G1 X38.432 Y-24.583 E17.16499
G1 X38.721 Y-23.227 E17.23739
G1 X39.092 Y-19.693 E17.42306
G1 X39.128 Y-19.000 E17.45931
G1 X39.128 Y-0.060 E18.44883
G1 F2880
G1 X39.128 Y5.540 E15.12383
G1 E14.94883 F1800.00000
G92 E0
G1 X36.584 Y0.000 F3600.000
G1 E3.50000 F1800.00000
G1 X36.573 Y19.321 E4.50940 F900.000
G1 X36.168 Y23.174 E4.71185
G1 X36.079 Y23.593 E4.73421
G1 X34.848 Y27.380 E4.94225
G1 X34.674 Y27.771 E4.96462
G1 X32.683 Y31.220 E5.17266
G1 X32.432 Y31.566 E5.19502
G1 X29.767 Y34.525 E5.40307
G1 X29.449 Y34.812 E5.42543
G1 X26.227 Y37.152 E5.63347
G1 X25.857 Y37.366 E5.65583
G1 X22.219 Y38.986 E5.86387
G1 X21.812 Y39.118 E5.88624
G1 X17.917 Y39.946 E6.09428
G1 X17.491 Y39.991 E6.11665
G1 X-17.491 Y39.991 E7.94428
G1 X-17.917 Y39.946 E7.96665
G1 X-21.812 Y39.118 E8.17469
G1 X-22.219 Y38.986 E8.19705
G1 X-25.857 Y37.366 E8.40510
G1 X-26.227 Y37.152 E8.42746
G1 X-29.449 Y34.812 E8.63550
G1 X-29.767 Y34.525 E8.65786
G1 X-32.432 Y31.566 E8.86591
G1 X-32.683 Y31.220 E8.88827
G1 X-34.674 Y27.771 E9.09631
G1 X-34.848 Y27.380 E9.11868
G1 X-36.079 Y23.593 E9.32672
G1 X-36.168 Y23.174 E9.34908
G1 X-36.584 Y19.107 E9.56269
G1 X-36.584 Y-19.107 E11.55917
G1 X-36.168 Y-23.174 E11.77278
G1 X-36.079 Y-23.593 E11.79514
G1 X-34.848 Y-27.380 E12.00318
G1 X-34.674 Y-27.771 E12.02555
G1 X-32.683 Y-31.220 E12.23359
G1 X-32.432 Y-31.566 E12.25595
G1 X-29.767 Y-34.525 E12.46400
G1 X-29.449 Y-34.812 E12.48636
G1 X-26.227 Y-37.152 E12.69440
G1 X-25.857 Y-37.366 E12.71676
G1 X-22.219 Y-38.986 E12.92481
G1 X-21.812 Y-39.118 E12.94717
G1 X-17.916 Y-39.946 E13.15527
G1 X-17.488 Y-39.991 E13.17775
G1 X17.668 Y-39.954 E15.01447
G1 X18.092 Y-39.909 E15.03672 F900.000
G1 X21.812 Y-39.118 E15.23542
G1 X22.219 Y-38.986 E15.25778
G1 X25.857 Y-37.366 E15.46583
G1 X26.227 Y-37.152 E15.48819
G1 X29.449 Y-34.812 E15.69622
G1 X29.767 Y-34.525 E15.71859
G1 X32.432 Y-31.566 E15.92664
G1 X32.683 Y-31.220 E15.94900
G1 X34.674 Y-27.771 E16.15704
G1 X34.848 Y-27.380 E16.17941
G1 X36.079 Y-23.593 E16.38745
G1 X36.168 Y-23.174 E16.40981
G1 X36.573 Y-19.321 E16.61226
G1 X36.584 Y-0.060 E17.61852
G1 X35.956 Y0.000 F3600.000
G1 X35.956 Y19.090 E18.61590 F900.000
G1 X35.546 Y23.076 E18.82521
G1 X35.471 Y23.430 E18.84414
G1 X34.261 Y27.155 E19.04874
G1 X34.114 Y27.486 E19.06766
G1 X32.156 Y30.877 E19.27226
G1 X31.943 Y31.170 E19.29118
G1 X29.322 Y34.080 E19.49579
G1 X29.053 Y34.323 E19.51472
G1 X25.885 Y36.625 E19.71931
G1 X25.571 Y36.806 E19.73823
G1 X21.993 Y38.399 E19.94283
G1 X21.649 Y38.511 E19.96176
G1 X17.818 Y39.325 E20.16636
G1 X17.458 Y39.363 E20.18529
G1 X-17.458 Y39.363 E22.00948
G1 X-17.818 Y39.325 E22.02840
G1 X-21.649 Y38.511 E22.23300
G1 X-21.993 Y38.399 E22.25193
G1 X-25.571 Y36.806 E22.45653
G1 X-25.885 Y36.625 E22.47545
G1 X-29.053 Y34.323 E22.68005
G1 X-29.322 Y34.080 E22.69898
G1 X-31.943 Y31.170 E22.90358
G1 X-32.156 Y30.877 E22.92250
G1 X-34.114 Y27.486 E23.12710
G1 X-34.261 Y27.155 E23.14603
G1 X-35.471 Y23.430 E23.35063
G1 X-35.546 Y23.076 E23.36955
G1 X-35.956 Y19.090 E23.57886
G1 X-35.956 Y-19.090 E25.57362
G1 X-35.546 Y-23.076 E25.78293
G1 X-35.471 Y-23.430 E25.80185
G1 X-34.261 Y-27.155 E26.00645
G1 X-34.114 Y-27.486 E26.02538
G1 X-32.156 Y-30.877 E26.22998
G1 X-31.943 Y-31.170 E26.24891
G1 X-29.322 Y-34.080 E26.45351
G1 X-29.053 Y-34.323 E26.47243
G1 X-25.885 Y-36.625 E26.67703
G1 X-25.571 Y-36.806 E26.69595
G1 X-21.993 Y-38.399 E26.90055
G1 X-21.649 Y-38.511 E26.91948
G1 X-17.817 Y-39.325 E27.12413
G1 X-17.455 Y-39.363 E27.14315
G1 X17.635 Y-39.326 E28.97642 F900.000
G1 X17.993 Y-39.288 E28.99525
G1 X21.649 Y-38.511 E29.19052
G1 X21.993 Y-38.399 E29.20945
G1 X25.571 Y-36.806 E29.41405
G1 X25.885 Y-36.625 E29.43297
G1 X29.053 Y-34.323 E29.63757
G1 X29.322 Y-34.080 E29.65649
G1 X31.943 Y-31.170 E29.86109
G1 X32.156 Y-30.877 E29.88002
G1 X34.114 Y-27.486 E30.08462
G1 X34.261 Y-27.155 E30.10354
G1 X35.471 Y-23.430 E30.30814
G1 X35.546 Y-23.076 E30.32707
G1 X35.956 Y-19.090 E30.53638
G1 X35.956 Y-0.060 E31.53062
G1 X35.327 Y0.000 F3600.000
G1 X35.320 Y19.222 E32.53487 F900.000
G1 X34.925 Y22.977 E32.73216
G1 X34.863 Y23.267 E32.74764
G1 X33.674 Y26.929 E32.94880
G1 X33.553 Y27.200 E32.96428
G1 X31.628 Y30.534 E33.16544
G1 X31.454 Y30.774 E33.18092
G1 X28.877 Y33.636 E33.38209
G1 X28.657 Y33.834 E33.39757
G1 X25.542 Y36.097 E33.59873
G1 X25.285 Y36.245 E33.61421
G1 X21.768 Y37.811 E33.81537
G1 X21.486 Y37.903 E33.83086
G1 X17.720 Y38.703 E34.03202
G1 X17.425 Y38.734 E34.04750
G1 X-17.425 Y38.734 E35.86825
G1 X-17.720 Y38.703 E35.88373
G1 X-21.486 Y37.903 E36.08490
G1 X-21.768 Y37.811 E36.10038
G1 X-25.285 Y36.245 E36.30154
G1 X-25.542 Y36.097 E36.31702
G1 X-28.657 Y33.834 E36.51818
G1 X-28.877 Y33.636 E36.53366
G1 X-31.454 Y30.774 E36.73483
G1 X-31.628 Y30.534 E36.75031
G1 X-33.553 Y27.200 E36.95147
G1 X-33.674 Y26.929 E36.96695
G1 X-34.863 Y23.267 E37.16811
G1 X-34.925 Y22.977 E37.18359
G1 X-35.327 Y19.074 E37.38861
G1 X-35.327 Y-19.074 E39.38165
G1 X-34.925 Y-22.977 E39.58666
G1 X-34.863 Y-23.267 E39.60214
G1 X-33.674 Y-26.929 E39.80330
G1 X-33.553 Y-27.200 E39.81879
G1 X-31.628 Y-30.534 E40.01995
G1 X-31.454 Y-30.774 E40.03543
G1 X-28.877 Y-33.636 E40.23659
G1 X-28.657 Y-33.834 E40.25208
G1 X-25.542 Y-36.097 E40.45324
G1 X-25.285 Y-36.245 E40.46872
G1 X-21.768 Y-37.811 E40.66988
G1 X-21.486 Y-37.903 E40.68536
G1 X-17.719 Y-38.704 E40.88656
G1 X-17.423 Y-38.734 E40.90212
G1 X17.601 Y-38.697 E42.73196
G1 X17.894 Y-38.666 E42.74736 F900.000
G1 X21.486 Y-37.903 E42.93920
G1 X21.768 Y-37.811 E42.95468
G1 X25.285 Y-36.245 E43.15585
G1 X25.542 Y-36.097 E43.17133
G1 X28.657 Y-33.834 E43.37248
G1 X28.877 Y-33.636 E43.38797
G1 X31.454 Y-30.774 E43.58913
G1 X31.628 Y-30.534 E43.60461
G1 X33.553 Y-27.200 E43.80577
G1 X33.674 Y-26.929 E43.82126
G1 X34.863 Y-23.267 E44.02242
G1 X34.925 Y-22.977 E44.03790
G1 X35.320 Y-19.222 E44.23518
G1 X35.327 Y-0.060 E45.23630
G1 X34.699 Y0.000 F3600.000
G1 X34.699 Y19.058 E46.23196 F900.000
G1 X34.304 Y22.879 E46.43268
G1 X34.256 Y23.104 E46.44472
G1 X33.086 Y26.704 E46.64243
G1 X32.992 Y26.914 E46.65448
G1 X31.100 Y30.192 E46.85220
G1 X30.965 Y30.378 E46.86424
G1 X28.432 Y33.191 E47.06196
G1 X28.261 Y33.345 E47.07401
G1 X25.199 Y35.569 E47.27172
G1 X25.000 Y35.685 E47.28376
G1 X21.542 Y37.224 E47.48148
G1 X21.323 Y37.295 E47.49353
G1 X17.621 Y38.082 E47.69125
G1 X17.392 Y38.106 E47.70329
G1 X-17.392 Y38.106 E49.52060
G1 X-17.621 Y38.082 E49.53264
G1 X-21.323 Y37.295 E49.73036
G1 X-21.542 Y37.224 E49.74241
G1 X-25.000 Y35.685 E49.94013
G1 X-25.199 Y35.569 E49.95217
G1 X-28.261 Y33.345 E50.14988
G1 X-28.432 Y33.191 E50.16193
G1 X-30.965 Y30.378 E50.35965
G1 X-31.100 Y30.192 E50.37169
G1 X-32.992 Y26.914 E50.56941
G1 X-33.086 Y26.704 E50.58145
G1 X-34.256 Y23.104 E50.77917
G1 X-34.304 Y22.879 E50.79121
G1 X-34.699 Y19.058 E50.99193
G1 X-34.699 Y-19.058 E52.98325
G1 X-34.304 Y-22.879 E53.18397
G1 X-34.256 Y-23.104 E53.19601
G1 X-33.086 Y-26.704 E53.39373
G1 X-32.992 Y-26.914 E53.40577
G1 X-31.100 Y-30.192 E53.60349
G1 X-30.965 Y-30.378 E53.61553
G1 X-28.432 Y-33.191 E53.81326
G1 X-28.261 Y-33.345 E53.82530
G1 X-25.199 Y-35.569 E54.02301
G1 X-25.000 Y-35.685 E54.03506
G1 X-21.542 Y-37.224 E54.23278
G1 X-21.323 Y-37.295 E54.24482
G1 X-17.621 Y-38.082 E54.44257
G1 X-17.390 Y-38.106 E54.45467
G1 X17.568 Y-38.069 E56.28107 F900.000
G1 X17.796 Y-38.045 E56.29305
G1 X21.323 Y-37.295 E56.48145
G1 X21.543 Y-37.224 E56.49350
G1 X25.000 Y-35.685 E56.69122
G1 X25.199 Y-35.569 E56.70326
G1 X28.261 Y-33.345 E56.90097
G1 X28.432 Y-33.191 E56.91302
G1 X30.965 Y-30.378 E57.11074
G1 X31.100 Y-30.192 E57.12278
G1 X32.992 Y-26.914 E57.32050
G1 X33.086 Y-26.704 E57.33254
G1 X34.256 Y-23.104 E57.53026
G1 X34.304 Y-22.879 E57.54230
G1 X34.699 Y-19.058 E57.74302
G1 X34.699 Y-0.060 E58.73555
G1 X34.071 Y0.000 F3600.000
G1 X34.066 Y19.123 E59.73464 F900.000
G1 X33.682 Y22.781 E59.92677
G1 X33.648 Y22.942 E59.93537
G1 X32.499 Y26.478 E60.12965
G1 X32.432 Y26.629 E60.13825
G1 X30.572 Y29.849 E60.33253
G1 X30.476 Y29.982 E60.34113
G1 X27.987 Y32.746 E60.53541
G1 X27.865 Y32.856 E60.54401
G1 X24.857 Y35.042 E60.73829
G1 X24.714 Y35.124 E60.74689
G1 X21.317 Y36.636 E60.94117
G1 X21.160 Y36.687 E60.94977
G1 X17.523 Y37.460 E61.14405
G1 X17.359 Y37.478 E61.15265
G1 X-17.359 Y37.478 E62.96652
G1 X-17.523 Y37.460 E62.97512
G1 X-21.160 Y36.687 E63.16940
G1 X-21.317 Y36.636 E63.17801
G1 X-24.714 Y35.124 E63.37229
G1 X-24.857 Y35.042 E63.38089
G1 X-27.865 Y32.856 E63.57516
G1 X-27.987 Y32.746 E63.58376
G1 X-30.476 Y29.982 E63.77805
G1 X-30.572 Y29.849 E63.78665
G1 X-32.432 Y26.629 E63.98093
G1 X-32.499 Y26.478 E63.98953
G1 X-33.648 Y22.942 E64.18381
G1 X-33.682 Y22.781 E64.19241
G1 X-34.071 Y19.041 E64.38883
G1 X-34.071 Y-19.041 E66.37843
G1 X-33.682 Y-22.781 E66.57485
G1 X-33.648 Y-22.942 E66.58345
G1 X-32.499 Y-26.478 E66.77773
G1 X-32.432 Y-26.629 E66.78633
G1 X-30.572 Y-29.849 E66.98061
G1 X-30.476 Y-29.982 E66.98921
G1 X-27.987 Y-32.746 E67.18349
G1 X-27.865 Y-32.856 E67.19209
G1 X-24.857 Y-35.042 E67.38637
G1 X-24.714 Y-35.124 E67.39497
G1 X-21.317 Y-36.636 E67.58925
G1 X-21.160 Y-36.687 E67.59785
G1 X-17.523 Y-37.461 E67.79215
G1 X-17.358 Y-37.478 E67.80080
G1 X17.534 Y-37.441 E69.62375
G1 X17.697 Y-37.423 E69.63231 F900.000
G1 X21.160 Y-36.687 E69.81728
G1 X21.317 Y-36.636 E69.82589
G1 X24.714 Y-35.124 E70.02016
G1 X24.857 Y-35.042 E70.02877
G1 X27.865 Y-32.856 E70.22304
G1 X27.987 Y-32.746 E70.23164
G1 X30.476 Y-29.982 E70.42592
G1 X30.572 Y-29.849 E70.43453
G1 X32.432 Y-26.629 E70.62880
G1 X32.499 Y-26.478 E70.63741
G1 X33.648 Y-22.942 E70.83169
G1 X33.682 Y-22.781 E70.84029
G1 X34.066 Y-19.123 E71.03241
G1 X34.071 Y-0.060 E72.02837
G1 X33.442 Y0.000 F3600.000
G1 X33.442 Y19.025 E73.02232 F900.000
G1 X33.040 Y22.779 E73.21957
G1 X31.871 Y26.343 E73.41554
G1 X29.987 Y29.586 E73.61151
G1 X27.543 Y32.301 E73.80235
G1 X24.514 Y34.514 E73.99832
G1 X21.092 Y36.049 E74.19429
G1 X17.326 Y36.849 E74.39540
G1 X-17.326 Y36.849 E76.20583
G1 X-20.998 Y36.080 E76.40180
G1 X-24.514 Y34.514 E76.60290
G1 X-27.543 Y32.301 E76.79887
G1 X-30.045 Y29.506 E76.99485
G1 X-31.911 Y26.253 E77.19082
G1 X-33.061 Y22.682 E77.38679
G1 X-33.442 Y19.025 E77.57891
G1 X-33.440 Y-19.074 E79.56937
G1 X-33.040 Y-22.779 E79.76405
G1 X-31.871 Y-26.343 E79.96002
G1 X-30.045 Y-29.506 E80.15086
G1 X-27.543 Y-32.301 E80.34683
G1 X-24.514 Y-34.514 E80.54280
G1 X-21.092 Y-36.049 E80.73877
G1 X-17.326 Y-36.849 E80.93992
G1 X17.501 Y-36.812 E82.75943 F900.000
G1 X21.092 Y-36.049 E82.95121
G1 X24.514 Y-34.514 E83.14718
G1 X27.543 Y-32.301 E83.34315
G1 X30.045 Y-29.506 E83.53912
G1 X31.871 Y-26.343 E83.72996
G1 X33.040 Y-22.779 E83.92593
G1 X33.442 Y-19.025 E84.12319
G1 X33.442 Y-0.060 E85.11400
G1 X32.814 Y0.000 F3600.000
G1 X32.813 Y19.025 E86.10794 F900.000
G1 X32.432 Y22.616 E86.29661
G1 X31.324 Y26.027 E86.48401
G1 X29.517 Y29.164 E86.67312
G1 X27.098 Y31.856 E86.86223
G1 X24.171 Y33.986 E87.05134
G1 X20.866 Y35.462 E87.24044
G1 X17.293 Y36.221 E87.43126
G1 X-17.326 Y36.218 E89.23996
G1 X-20.866 Y35.462 E89.42907
G1 X-24.143 Y34.003 E89.61647
G1 X-27.073 Y31.878 E89.80558
G1 X-29.498 Y29.190 E89.99469
G1 X-31.324 Y26.027 E90.18551
G1 X-32.439 Y22.584 E90.37461
G1 X-32.814 Y19.008 E90.56244
G1 X-32.814 Y-19.008 E92.54860
G1 X-32.439 Y-22.584 E92.73643
G1 X-31.324 Y-26.027 E92.92554
G1 X-29.498 Y-29.190 E93.11636
G1 X-27.098 Y-31.856 E93.30375
G1 X-24.171 Y-33.986 E93.49286
G1 X-20.866 Y-35.462 E93.68197
G1 X-17.326 Y-36.218 E93.87108
G1 X17.468 Y-36.184 E95.68887
G1 X20.866 Y-35.462 E95.87040 F900.000
G1 X24.143 Y-34.003 E96.05779
G1 X27.073 Y-31.878 E96.24690
G1 X29.498 Y-29.190 E96.43601
G1 X31.324 Y-26.027 E96.62683
G1 X32.432 Y-22.616 E96.81422
G1 X32.813 Y-19.025 E97.00290
G1 X32.814 Y-0.060 E97.99371
G1 F2880
G1 X32.814 Y5.540 E94.66871
G1 E94.49371 F1800.00000
G92 E0
G1 X0.314 Y-35.688 F3600.000
G1 E3.50000 F1800.00000
G1 X17.430 Y-35.670 E4.00819 F420.000
G1 X20.691 Y-34.977 E4.10719 F420.000
G1 X23.899 Y-33.548 E4.21146
G1 X26.741 Y-31.484 E4.31574
G1 X29.091 Y-28.874 E4.42001
G1 X30.847 Y-25.833 E4.52428
G1 X31.932 Y-22.493 E4.62856
G1 X32.300 Y-18.990 E4.73314
G1 X32.300 Y18.990 E5.86079
G1 X31.932 Y22.493 E5.96538
G1 X30.847 Y25.833 E6.06965
G1 X29.091 Y28.874 E6.17392
G1 X26.741 Y31.484 E6.27820
G1 X23.899 Y33.548 E6.38247
G1 X20.691 Y34.977 E6.48675
G1 X17.256 Y35.707 E6.59102
G1 X-17.256 Y35.707 E7.61572
G1 X-20.691 Y34.977 E7.72000
G1 X-23.899 Y33.548 E7.82427
G1 X-26.741 Y31.484 E7.92854
G1 X-29.091 Y28.874 E8.03282
G1 X-30.847 Y25.833 E8.13709
G1 X-31.932 Y22.493 E8.24137
G1 X-32.300 Y18.990 E8.34595
G1 X-32.300 Y-18.990 E9.47360
G1 X-31.932 Y-22.493 E9.57819
G1 X-30.847 Y-25.833 E9.68246
G1 X-29.091 Y-28.874 E9.78673
G1 X-26.741 Y-31.484 E9.89101
G1 X-23.899 Y-33.548 E9.99528
G1 X-20.691 Y-34.977 E10.09955
G1 X-17.256 Y-35.707 E10.20383
G1 X0.254 Y-35.688 E10.72372
G1 X0.514 Y-35.342 F3600.000
G1 X0.313 Y-35.195 F3600.000
G1 X17.378 Y-35.177 E11.61524 F600.000
G1 X20.538 Y-34.506 E11.78404 F600.000
G1 X23.652 Y-33.119 E11.96211
G1 X26.409 Y-31.116 E12.14018
G1 X28.690 Y-28.583 E12.31825
