; generated by Slic3r 1.2.9 on 2016-05-16 at 18:26:11

; external perimeters extrusion width = 0.40mm
; perimeters extrusion width = 0.56mm
; infill extrusion width = 0.56mm
; solid infill extrusion width = 0.56mm
; top infill extrusion width = 0.56mm

M190 S85 ; set bed temperature
G21; set mm units 
G92 E0; reset extruder distance 
G90; set absolute coordinates 
G28 ; home all axes
M106 S255; Set cooling fan on
M109 S220 ; set nozzle heater to first layer temperature
G29 ; Self Calibrate
G1 Z15 F2000; slightly raise from bed
G1 X55 Y-50 F2000; move to purging zone
G1 X-35 Y-50 E12 F300.000; extrude a line of filament across the front edge of the bed
G4 P2000; wait for ooze to slow
G1 Z0 F6000.000; lower nozzle height to 0
G1 X-55 F400; wipe nozzle
G1 Z100% F6000.000; set nozzle to first layer height
G1 F12000; ensure fast travel to first print move
G92 E0; set E to 0 again
G1 X0 F900; back to home
G1 Z0 F2000; back to home
G21 ; set units to millimeters
G90 ; use absolute coordinates
M82 ; use absolute distances for extrusion
G92 E0
M106 S255
G1 Z0.250 F3600.000
G1 E-4.00000 F1800.00000
G92 E0
G1 X11.813 Y17.320 F3600.000
G1 E4.00000 F1800.00000
G1 X10.224 Y18.606 E4.10557 F900.000
G1 X10.025 Y18.735 E4.11782
G1 X6.089 Y20.741 E4.34603
G1 X5.867 Y20.826 E4.35828
G1 X1.600 Y21.969 E4.58649
G1 X1.365 Y22.006 E4.59874
G1 X-3.047 Y22.238 E4.82696
G1 X-3.283 Y22.225 E4.83920
G1 X-7.647 Y21.534 E5.06742
G1 X-7.876 Y21.473 E5.07966
G1 X-12.001 Y19.889 E5.30788
G1 X-12.212 Y19.782 E5.32012
G1 X-15.987 Y17.320 E5.55289
G1 X-16.149 Y17.262 E5.56181
G1 X-28.437 Y17.262 E6.19650
G1 X-29.762 Y15.937 E6.29329
G1 X-29.762 Y-15.937 E7.93966
G1 X-28.437 Y-17.262 E8.03645
G1 X-15.975 Y-17.262 E8.68013
G1 X-15.813 Y-17.320 E8.68905
G1 X-14.224 Y-18.606 E8.79462
G1 X-14.025 Y-18.735 E8.80687
G1 X-10.089 Y-20.741 E9.03508
G1 X-9.867 Y-20.826 E9.04733
G1 X-5.599 Y-21.969 E9.27557
G1 X-5.364 Y-22.007 E9.28788
G1 X-0.930 Y-22.234 E9.51719
G1 X-0.695 Y-22.222 E9.52937
G1 X3.647 Y-21.534 E9.75644 F900.000
G1 X3.876 Y-21.473 E9.76869
G1 X8.001 Y-19.889 E9.99690
G1 X8.212 Y-19.782 E10.00915
G1 X11.987 Y-17.320 E10.24191
G1 X12.149 Y-17.262 E10.25084
G1 X28.437 Y-17.262 E11.09213
G1 X29.762 Y-15.937 E11.18892
G1 X29.762 Y15.937 E12.83530
G1 X28.437 Y17.262 E12.93209
G1 X11.975 Y17.262 E13.78237
G1 X11.869 Y17.300 E13.78820
G1 X11.496 Y16.929 F3600.000
G1 X9.928 Y18.199 E13.89241 F900.000
G1 X9.774 Y18.299 E13.90193
G1 X5.884 Y20.281 E14.12743
G1 X5.712 Y20.347 E14.13695
G1 X1.495 Y21.477 E14.36245
G1 X1.313 Y21.506 E14.37197
G1 X-3.047 Y21.734 E14.59746
G1 X-3.231 Y21.725 E14.60699
G1 X-7.543 Y21.042 E14.83248
G1 X-7.721 Y20.994 E14.84201
G1 X-11.796 Y19.429 E15.06750
G1 X-11.961 Y19.346 E15.07702
G1 X-15.622 Y16.968 E15.30252
G1 X-15.809 Y16.817 E15.31493
G1 X-15.971 Y16.759 E15.32385
G1 X-28.229 Y16.759 E15.95697
G1 X-29.259 Y15.729 E16.03225
G1 X-29.259 Y-15.729 E17.65712
G1 X-28.229 Y-16.759 E17.73240
G1 X-15.797 Y-16.759 E18.37452
G1 X-15.635 Y-16.817 E18.38344
G1 X-13.928 Y-18.199 E18.49685
G1 X-13.774 Y-18.299 E18.50637
G1 X-9.884 Y-20.281 E18.73186
G1 X-9.712 Y-20.347 E18.74139
G1 X-5.495 Y-21.477 E18.96691
G1 X-5.311 Y-21.506 E18.97648
G1 X-0.931 Y-21.731 E19.20306
G1 X-0.747 Y-21.721 E19.21254 F900.000
G1 X3.543 Y-21.042 E19.43689
G1 X3.721 Y-20.994 E19.44642
G1 X7.796 Y-19.430 E19.67191
G1 X7.961 Y-19.346 E19.68144
G1 X11.622 Y-16.968 E19.90693
G1 X11.809 Y-16.817 E19.91934
G1 X11.971 Y-16.759 E19.92826
G1 X28.229 Y-16.759 E20.76800
G1 X29.259 Y-15.729 E20.84328
G1 X29.259 Y15.729 E22.46815
G1 X28.229 Y16.759 E22.54343
G1 X11.797 Y16.759 E23.39215
G1 X11.635 Y16.817 E23.40107
G1 X11.543 Y16.891 E23.40717
G1 X11.180 Y16.538 F3600.000
G1 X9.632 Y17.791 E23.51002 F900.000
G1 X9.522 Y17.863 E23.51682
G1 X5.679 Y19.821 E23.73959
G1 X5.556 Y19.868 E23.74640
G1 X1.390 Y20.985 E23.96917
G1 X1.260 Y21.005 E23.97598
G1 X-3.047 Y21.231 E24.19875
G1 X-3.178 Y21.224 E24.20555
G1 X-7.438 Y20.549 E24.42832
G1 X-7.565 Y20.515 E24.43513
G1 X-11.592 Y18.970 E24.65790
G1 X-11.709 Y18.910 E24.66470
G1 X-15.326 Y16.561 E24.88747
G1 X-15.573 Y16.333 E24.90484
G1 X-15.758 Y16.257 E24.91516
G1 X-28.021 Y16.257 E25.54856
G1 X-28.757 Y15.521 E25.60233
G1 X-28.757 Y-15.521 E27.20569
G1 X-28.021 Y-16.257 E27.25946
G1 X-15.619 Y-16.257 E27.90001
G1 X-15.457 Y-16.314 E27.90894
G1 X-13.632 Y-17.791 E28.03018
G1 X-13.522 Y-17.863 E28.03698
G1 X-9.679 Y-19.821 E28.25975
G1 X-9.556 Y-19.868 E28.26655
G1 X-5.390 Y-20.985 E28.48935
G1 X-5.259 Y-21.005 E28.49618
G1 X-0.931 Y-21.228 E28.72004
G1 X-0.800 Y-21.221 E28.72681
G1 X3.438 Y-20.549 E28.94845 F900.000
G1 X3.565 Y-20.515 E28.95526
G1 X7.592 Y-18.970 E29.17803
G1 X7.709 Y-18.910 E29.18483
G1 X11.326 Y-16.561 E29.40760
G1 X11.573 Y-16.333 E29.42497
G1 X11.758 Y-16.257 E29.43530
G1 X28.021 Y-16.257 E30.27530
G1 X28.757 Y-15.521 E30.32907
G1 X28.757 Y15.521 E31.93243
G1 X28.021 Y16.257 E31.98620
G1 X11.619 Y16.257 E32.83337
G1 X11.457 Y16.314 E32.84229
G1 X11.227 Y16.501 E32.85758
G1 X10.864 Y16.148 F3600.000
G1 X9.270 Y17.427 E32.96313 F900.000
G1 X5.401 Y19.390 E33.18724
G1 X1.286 Y20.492 E33.40729
G1 X-3.047 Y20.728 E33.63140
G1 X-7.333 Y20.057 E33.85552
G1 X-11.387 Y18.510 E34.07963
G1 X-15.030 Y16.154 E34.30373
G1 X-15.365 Y15.831 E34.32778
G1 X-15.550 Y15.754 E34.33810
G1 X-27.812 Y15.754 E34.97150
G1 X-28.254 Y15.312 E35.00376
G1 X-28.254 Y-15.312 E36.58561
G1 X-27.812 Y-15.754 E36.61787
G1 X-15.441 Y-15.754 E37.25687
G1 X-15.279 Y-15.812 E37.26579
G1 X-13.270 Y-17.427 E37.39892
G1 X-9.401 Y-19.390 E37.62303
G1 X-5.207 Y-20.505 E37.84718
G1 X-0.931 Y-20.724 E38.06831
G1 X3.333 Y-20.057 E38.29128 F900.000
G1 X7.387 Y-18.510 E38.51539
G1 X11.030 Y-16.154 E38.73950
G1 X11.365 Y-15.831 E38.76354
G1 X11.550 Y-15.754 E38.77387
G1 X27.812 Y-15.754 E39.61388
G1 X28.254 Y-15.312 E39.64614
G1 X28.254 Y15.312 E41.22799
G1 X27.812 Y15.754 E41.26025
G1 X11.441 Y15.754 E42.10586
G1 X11.279 Y15.812 E42.11478
G1 X10.910 Y16.110 E42.13926
G1 F2880
G1 X9.270 Y17.427 E40.89031
G1 F2880
G1 X5.438 Y19.371 E38.33926
G1 E38.13926 F1800.00000
G92 E0
G1 X27.604 Y15.251 F3600.000
G1 E4.00000 F1800.00000
G1 X11.263 Y15.251 E4.84404 F900.000
G1 X11.101 Y15.309 E4.85297
G1 X9.019 Y16.991 E4.99123
G1 X5.245 Y18.911 E5.20991
G1 X1.181 Y20.000 E5.42724
G1 X-3.047 Y20.224 E5.64592
G1 X-7.229 Y19.565 E5.86460
G1 X-11.182 Y18.050 E6.08328
G1 X-14.734 Y15.747 E6.30197
G1 X-15.157 Y15.328 E6.33269
G1 X-15.342 Y15.251 E6.34302
G1 X-27.604 Y15.251 E6.97641
G1 X-27.751 Y15.104 E6.98717
G1 X-27.751 Y-15.104 E8.54751
G1 X-27.604 Y-15.251 E8.55826
G1 X-15.263 Y-15.251 E9.19569
G1 X-15.101 Y-15.309 E9.20462
G1 X-13.019 Y-16.991 E9.34288
G1 X-9.245 Y-18.911 E9.56156
G1 X-5.155 Y-20.004 E9.78025
G1 X-0.932 Y-20.221 E9.99867
G1 X3.229 Y-19.565 E10.21623
G1 X7.182 Y-18.050 E10.43491
G1 X10.734 Y-15.747 E10.65359
G1 X11.157 Y-15.328 E10.68432
G1 X11.342 Y-15.251 E10.69465
G1 X27.604 Y-15.251 E11.53465
G1 X27.751 Y-15.104 E11.54541
G1 X27.751 Y15.104 E13.10575
G1 X27.647 Y15.209 E13.11340
G1 F2880
G1 X21.247 Y15.225 E9.31340
G1 E9.11340 F1800.00000
G92 E0
G1 X27.300 Y-14.800 F3600.000
G1 E4.00000 F1800.00000
G1 X27.300 Y14.800 E5.05349 F420.000
G1 X11.012 Y14.800 E5.63320
G1 X8.783 Y16.605 E5.73527
G1 X5.095 Y18.484 E5.88258
G1 X1.097 Y19.555 E6.02989
G1 X-3.036 Y19.772 E6.17721
G1 X-7.124 Y19.124 E6.32452
G1 X-10.989 Y17.641 E6.47184
G1 X-14.460 Y15.387 E6.61915
G1 X-15.046 Y14.800 E6.64868
G1 X-27.300 Y14.800 E7.08479
G1 X-27.300 Y-14.800 E8.13829
G1 X-15.012 Y-14.800 E8.57563
G1 X-12.783 Y-16.605 E8.67769
G1 X-9.095 Y-18.484 E8.82501
G1 X-5.097 Y-19.555 E8.97232
G1 X-0.943 Y-19.768 E9.12038
G1 X3.124 Y-19.124 E9.26694
G1 X6.989 Y-17.641 E9.41425
G1 X10.460 Y-15.387 E9.56156
G1 X11.046 Y-14.800 E9.59109
G1 X27.240 Y-14.800 E10.16743
G1 X27.100 Y-14.454 F3600.000
G1 X26.875 Y-14.376 F3600.000
G1 X26.875 Y14.375 E11.65251 F600.000
G1 X10.862 Y14.375 E12.47967
G1 X8.551 Y16.247 E12.63326
G1 X4.942 Y18.085 E12.84245
G1 X1.030 Y19.134 E13.05163
G1 X-3.014 Y19.346 E13.26082
G1 X-7.014 Y18.712 E13.47001
G1 X-10.795 Y17.261 E13.67920
G1 X-14.191 Y15.055 E13.88838
G1 X-14.871 Y14.375 E13.93801
G1 X-26.875 Y14.375 E14.55810
G1 X-26.875 Y-14.376 E16.04317
G1 X-14.862 Y-14.376 E16.66372
G1 X-12.551 Y-16.247 E16.81731
G1 X-8.942 Y-18.085 E17.02650
G1 X-5.031 Y-19.133 E17.23567
G1 X-0.965 Y-19.342 E17.44594
G1 X3.014 Y-18.712 E17.65404
G1 X6.795 Y-17.261 E17.86322
G1 X10.191 Y-15.055 E18.07241
G1 X10.871 Y-14.376 E18.12204
G1 X26.815 Y-14.376 E18.94564
G1 X12.599 Y-10.707 F3600.000
G1 X12.097 Y-13.873 E19.11119 F600.000
G1 X26.373 Y-13.873 E19.84855
G1 X26.373 Y13.873 E21.28170
G1 X12.097 Y13.873 E22.01907
G1 X12.599 Y10.707 E22.18462
G1 X10.742 Y9.761 E22.29227
G1 X11.531 Y8.787 E22.35702
G1 X13.062 Y5.782 E22.53124
G1 X13.935 Y2.524 E22.70545
G1 X14.111 Y-0.844 E22.87966
G1 X13.584 Y-4.176 E23.05388
G1 X12.375 Y-7.324 E23.22809
G1 X10.780 Y-9.781 E23.37937
G1 X12.545 Y-10.680 E23.48170
G1 F2880
G1 X12.097 Y-13.873 E21.56744
G1 F2880
G1 X15.273 Y-13.873 E19.68170
G1 E19.48170 F1800.00000
G92 E0
G1 X12.459 Y-10.779 F3600.000
G1 X8.779 Y14.459 F3600.000
G1 X8.707 Y14.599 F3600.000
G1 E4.00000 F1800.00000
G1 X9.608 Y14.456 E4.04712 F600.000
G1 X9.702 Y14.667 E4.05908
G1 X8.276 Y15.823 E4.15392
G1 X4.761 Y17.614 E4.35765
G1 X0.951 Y18.634 E4.56138
G1 X-2.987 Y18.841 E4.76511
G1 X-6.883 Y18.224 E4.96884
G1 X-10.565 Y16.810 E5.17257
G1 X-13.886 Y14.654 E5.37707
G1 X-13.798 Y14.426 E5.38969
G1 X-12.707 Y14.599 E5.44675
G1 X-11.781 Y12.780 E5.55218
G1 X-9.326 Y14.374 E5.70339
G1 X-6.211 Y15.578 E5.87588
G1 X-2.844 Y16.111 E6.05193
G1 X0.524 Y15.935 E6.22614
G1 X3.782 Y15.062 E6.40035
G1 X6.787 Y13.531 E6.57457
G1 X7.761 Y12.742 E6.63932
G1 X8.680 Y14.545 E6.74387
G1 F2880
G1 X9.608 Y14.456 E6.19014
G1 F2880
G1 X9.702 Y14.667 E6.05273
G1 F2880
G1 X8.276 Y15.823 E4.96254
G1 F2880
G1 X5.246 Y17.366 E2.94387
G1 E2.74387 F1800.00000
G92 E0
G1 X8.779 Y14.459 F3600.000
G1 X-16.459 Y10.779 F3600.000
G1 X-16.599 Y10.707 F3600.000
G1 E4.00000 F1800.00000
G1 X-16.097 Y13.873 E4.16555 F600.000
G1 X-26.373 Y13.873 E4.69631
G1 X-26.373 Y-13.873 E6.12945
G1 X-16.097 Y-13.873 E6.66021
G1 X-16.599 Y-10.707 E6.82575
G1 X-14.742 Y-9.761 E6.93341
G1 X-15.531 Y-8.787 E6.99816
G1 X-17.062 Y-5.782 E7.17237
G1 X-17.935 Y-2.524 E7.34659
G1 X-18.111 Y0.844 E7.52080
G1 X-17.584 Y4.176 E7.69502
G1 X-16.375 Y7.324 E7.86923
G1 X-14.780 Y9.781 E8.02050
G1 X-16.545 Y10.680 E8.12284
G1 F2880
G1 X-16.097 Y13.873 E6.20855
G1 F2880
G1 X-19.273 Y13.873 E4.32284
G1 E4.12284 F1800.00000
G92 E0
G1 X-16.459 Y10.779 F3600.000
G1 X-12.779 Y-14.459 F3600.000
G1 X-12.707 Y-14.599 F3600.000
G1 E4.00000 F1800.00000
G1 X-13.608 Y-14.456 E4.04712 F600.000
G1 X-13.702 Y-14.667 E4.05908
G1 X-12.276 Y-15.823 E4.15391
G1 X-8.761 Y-17.614 E4.35764
G1 X-4.952 Y-18.634 E4.56134
G1 X-0.992 Y-18.838 E4.76616
G1 X2.883 Y-18.224 E4.96881
G1 X6.565 Y-16.810 E5.17254
G1 X9.886 Y-14.654 E5.37705
G1 X9.798 Y-14.426 E5.38966
G1 X8.707 Y-14.599 E5.44672
G1 X7.781 Y-12.780 E5.55216
G1 X5.326 Y-14.374 E5.70336
G1 X2.210 Y-15.579 E5.87591
G1 X-1.187 Y-16.110 E6.05349
G1 X-4.524 Y-15.935 E6.22608
G1 X-7.782 Y-15.062 E6.40029
G1 X-10.787 Y-13.531 E6.57451
G1 X-11.761 Y-12.742 E6.63926
G1 X-12.680 Y-14.545 E6.74382
G1 F2880
G1 X-13.608 Y-14.456 E6.19010
G1 F2880
G1 X-13.702 Y-14.667 E6.05270
G1 F2880
G1 X-12.276 Y-15.823 E4.96252
G1 F2880
G1 X-9.246 Y-17.366 E2.94382
G1 E2.74382 F1800.00000
G92 E0
G1 X-12.779 Y-14.459 F3600.000
G1 X-17.808 Y-2.504 F3600.000
G1 X-13.748 Y10.295 F3600.000
G1 E4.00000 F1800.00000
G1 X-12.295 Y11.748 E4.07310 F600.000
G1 X-13.228 Y13.578 E4.14620
G1 X-15.256 Y13.256 E4.21931
G1 X-15.578 Y11.228 E4.29241
G1 X-13.801 Y10.322 E4.36338
G1 X-13.437 Y10.043 F3600.000
G1 F2880
G1 X-12.295 Y11.748 E3.13234
G1 F2880
G1 X-13.228 Y13.578 E1.91284
G1 F2880
G1 X-15.256 Y13.256 E0.69326
G1 F2880
G1 X-15.291 Y13.040 E0.56338
G1 E0.36338 F1800.00000
G92 E0
G1 X-2.838 Y15.984 F3600.000
G1 X0.582 Y17.293 F3600.000
G1 X0.888 Y17.244 F3600.000
G1 X4.121 Y16.378 F3600.000
G1 X3.736 Y14.942 F3600.000
G1 X8.295 Y11.748 F3600.000
G1 E4.00000 F1800.00000
G1 X9.748 Y10.295 E4.07310 F600.000
G1 X11.578 Y11.228 E4.14620
G1 X11.256 Y13.256 E4.21931
G1 X9.228 Y13.578 E4.29241
G1 X8.322 Y11.801 E4.36338
G1 X8.043 Y11.437 F3600.000
G1 F2880
G1 X9.748 Y10.295 E3.13234
G1 F2880
G1 X11.578 Y11.228 E1.91284
G1 F2880
G1 X11.256 Y13.256 E0.69327
G1 F2880
G1 X11.040 Y13.291 E0.56338
G1 E0.36338 F1800.00000
G92 E0
G1 X13.808 Y2.504 F3600.000
G1 X20.237 Y-0.510 F3600.000
G1 X19.940 Y-5.169 F3600.000
G1 X13.460 Y-4.143 F3600.000
G1 X9.748 Y-10.295 F3600.000
G1 E4.00000 F1800.00000
G1 X8.295 Y-11.747 E4.07310 F600.000
G1 X9.228 Y-13.578 E4.14621
G1 X11.256 Y-13.256 E4.21931
G1 X11.578 Y-11.228 E4.29241
G1 X9.801 Y-10.322 E4.36338
G1 X9.437 Y-10.043 F3600.000
G1 F2880
G1 X8.295 Y-11.747 E3.13235
G1 F2880
G1 X9.228 Y-13.578 E1.91282
G1 F2880
G1 X11.256 Y-13.256 E0.69324
G1 F2880
G1 X11.291 Y-13.040 E0.56338
G1 E0.36338 F1800.00000
G92 E0
G1 X-1.194 Y-15.982 F3600.000
G1 X-4.582 Y-17.293 F3600.000
G1 X-4.888 Y-17.244 F3600.000
G1 X-8.121 Y-16.378 F3600.000
G1 X-7.736 Y-14.942 F3600.000
G1 X-12.295 Y-11.747 F3600.000
G1 E4.00000 F1800.00000
G1 X-13.748 Y-10.295 E4.07310 F600.000
G1 X-15.578 Y-11.228 E4.14620
G1 X-15.256 Y-13.256 E4.21931
G1 X-13.228 Y-13.578 E4.29241
G1 X-12.322 Y-11.801 E4.36338
G1 X-12.043 Y-11.437 F3600.000
G1 X-11.986 Y-11.366 F3600.000
G1 X-10.279 Y-12.749 E4.44157 F420.000
G1 X-7.448 Y-14.191 E4.55467
G1 X-4.378 Y-15.014 E4.66777
G1 X-1.235 Y-15.179 E4.77979 F420.000
G1 X1.968 Y-14.678 E4.89518
G1 X4.901 Y-13.544 E5.00710
G1 X7.566 Y-11.813 E5.12019
G1 X9.813 Y-9.566 E5.23330
G1 X11.544 Y-6.901 E5.34640
G1 X12.683 Y-3.934 E5.45951
G1 X13.180 Y-0.796 E5.57261
G1 X13.014 Y2.378 E5.68572
G1 X12.191 Y5.448 E5.79882
G1 X10.749 Y8.279 E5.91192
G1 X8.749 Y10.749 E6.02503
G1 X6.279 Y12.749 E6.13813
G1 X3.448 Y14.191 E6.25124
G1 X0.378 Y15.014 E6.36434
G1 X-2.796 Y15.180 E6.47744
G1 X-5.968 Y14.678 E6.59177
G1 X-8.901 Y13.544 E6.70369
G1 X-11.566 Y11.813 E6.81679
G1 X-13.813 Y9.566 E6.92989
G1 X-15.544 Y6.901 E7.04299
G1 X-16.683 Y3.934 E7.15610
G1 X-17.180 Y0.796 E7.26920
G1 X-17.014 Y-2.378 E7.38231
G1 X-16.191 Y-5.448 E7.49541
G1 X-14.749 Y-8.279 E7.60851
G1 X-12.749 Y-10.749 E7.72162
G1 X-12.033 Y-11.328 E7.75440
G1 X-12.049 Y-11.761 F3600.000
G1 X-12.989 Y-14.045 F3600.000
G1 X-11.927 Y-11.960 E7.87525 F600.000
G1 X-10.512 Y-13.107 E7.96934
G1 X-7.601 Y-14.590 E8.13810
G1 X-4.445 Y-15.436 E8.30686
G1 X-1.213 Y-15.605 E8.47402
G1 X2.079 Y-15.090 E8.64610
G1 X5.096 Y-13.924 E8.81317
G1 X7.975 Y-12.054 E8.99051
G1 X8.989 Y-14.045 E9.10592
G1 X11.627 Y-13.627 E9.24388
G1 X12.045 Y-10.989 E9.38184
G1 X10.054 Y-9.975 E9.49725
G1 X11.925 Y-7.095 E9.67462
G1 X13.095 Y-4.045 E9.84338
G1 X13.606 Y-0.818 E10.01214
G1 X13.436 Y2.445 E10.18089
G1 X12.590 Y5.601 E10.34965
G1 X11.107 Y8.512 E10.51841
G1 X9.960 Y9.927 E10.61249
G1 X12.045 Y10.989 E10.73335
G1 X11.627 Y13.627 E10.87130
G1 X8.989 Y14.045 E11.00926
G1 X7.927 Y11.960 E11.13011
G1 X6.512 Y13.107 E11.22420
G1 X3.601 Y14.590 E11.39296
G1 X0.445 Y15.436 E11.56171
G1 X-2.818 Y15.606 E11.73047
G1 X-6.079 Y15.090 E11.90103
G1 X-9.096 Y13.924 E12.06806
G1 X-11.975 Y12.054 E12.24540
G1 X-12.989 Y14.045 E12.36081
G1 X-15.627 Y13.627 E12.49877
G1 X-16.045 Y10.989 E12.63673
G1 X-14.054 Y9.975 E12.75214
G1 X-15.925 Y7.095 E12.92951
G1 X-17.095 Y4.045 E13.09827
G1 X-17.606 Y0.818 E13.26703
G1 X-17.436 Y-2.445 E13.43579
G1 X-16.590 Y-5.601 E13.60454
G1 X-15.107 Y-8.512 E13.77330
G1 X-13.960 Y-9.927 E13.86738
G1 X-16.045 Y-10.989 E13.98824
G1 X-15.627 Y-13.627 E14.12619
G1 X-13.049 Y-14.036 E14.26105
G1 X-13.885 Y-14.459 F3600.000
G1 X-14.773 Y-14.071 E14.31110 F600.000
G1 X-15.825 Y-13.988 E14.36561
G1 X-16.503 Y-13.296 F3600.000
G1 X-16.754 Y-13.547 E14.38423 F600.000
G1 X-17.476 Y-13.547 E14.42218
G1 X-16.602 Y-12.672 E14.48713
G1 X-16.701 Y-12.049 E14.52030
G1 X-18.199 Y-13.547 E14.63159
G1 X-18.922 Y-13.547 E14.66954
G1 X-16.799 Y-11.425 E14.82716
G1 X-16.898 Y-10.801 E14.86033
