; generated by Slic3r 1.2.1 on 2014-11-30 at 15:29:21

; external perimeters extrusion width = 0.40mm
; perimeters extrusion width = 0.56mm
; infill extrusion width = 0.56mm
; solid infill extrusion width = 0.56mm
; top infill extrusion width = 0.56mm

M107
G28 ; home all axes
G29 ; Self Calibrate
G1 Z15 F2000; slightly raise from bed
G1 X65 Y-50 F2000; move to purging zone
M109 S200 ; set nozzle heater to first layer temperature
G1 X-65 Y-50 E24 F500.000; extrude a line of filament across the front edge of the bed
G4 P2000; wait for ooze to slow
G1 Z0 F6000.000; lower nozzle height to 0
G1 X-85; wipe nozzle
G1 Z120% F6000.000; set nozzle to first layer height
G1 F12000; ensure fast travel to first print move
G92 E0; set E to 0 again
G1 X0 F900; back to home
G1 Z0 F2000; back to home
G21 ; set units to millimeters
G90 ; use absolute coordinates
M82 ; use absolute distances for extrusion
G92 E0
G1 E-2.00000 F1800.000
G92 E0
G1 Z0.300 F3600.000
G1 X13.701 Y-6.721 F3600.000
G1 E2.00000 F1800.000
G1 X44.707 Y56.525 E5.68000 F900.000
G1 X45.362 Y59.350 E5.83148
G1 X45.362 Y59.450 E5.83671
G1 X44.965 Y61.672 E5.95464
G1 X43.823 Y63.619 E6.07257
G1 X42.078 Y65.051 E6.19049
G1 X38.943 Y65.869 E6.35978
G1 X-12.352 Y65.869 E9.03964
G1 X-14.574 Y65.472 E9.15757
G1 X-16.521 Y64.330 E9.27550
G1 X-17.953 Y62.585 E9.39343
G1 X-18.647 Y60.703 E9.49823
G1 X-40.708 Y-50.098 E15.40066
G1 X-40.832 Y-51.451 E15.47166
G1 X-40.435 Y-53.673 E15.58959
G1 X-39.294 Y-55.621 E15.70752
G1 X-37.548 Y-57.052 E15.82545
G1 X-34.413 Y-57.870 E15.99474
G1 X-15.831 Y-57.870 E16.96557
G1 X-14.628 Y-57.756 E17.02870
G1 X-13.958 Y-57.618 E17.06441 F900.000
G1 X-11.874 Y-56.752 E17.18234
G1 X-10.218 Y-55.217 E17.30027
G1 X-9.579 Y-54.177 E17.36408
G1 X13.675 Y-6.775 E20.12254
G1 E18.12254 F1800.000
G92 E0
G1 X11.485 Y-5.700 F3600.000
G1 E2.00000 F1800.000
G1 X42.716 Y58.008 E5.70687 F900.000
G1 X42.922 Y58.895 E5.75444
G1 X42.922 Y61.098 E5.86956
G1 X40.591 Y63.429 E6.04179
G1 X-13.780 Y63.429 E8.88241
G1 X-15.985 Y61.612 E9.03169
G1 X-37.444 Y-48.731 E14.90456
G1 X-37.489 Y-48.826 E14.91005
G1 X-38.393 Y-49.918 E14.98408
G1 X-38.393 Y-53.100 E15.15032
G1 X-36.061 Y-55.431 E15.32255
G1 X-15.643 Y-55.431 E16.38931
G1 X-15.269 Y-55.395 E16.40892
G1 X-13.597 Y-55.040 E16.49823 F900.000
G1 X-12.169 Y-53.918 E16.59313
G1 X11.458 Y-5.754 E19.39590
G1 X11.082 Y-5.570 F3600.000
G1 X42.319 Y58.149 E23.10339 F900.000
G1 X42.503 Y58.943 E23.14596
G1 X42.503 Y60.925 E23.24952
G1 X40.418 Y63.010 E23.40362
G1 X-13.630 Y63.010 E26.22731
G1 X-15.603 Y61.384 E26.36088
G1 X-37.053 Y-48.916 E32.23147
G1 X-37.098 Y-49.011 E32.23697
G1 X-37.974 Y-50.068 E32.30869
G1 X-37.974 Y-52.926 E32.45798
G1 X-35.888 Y-55.012 E32.61209
G1 X-15.663 Y-55.012 E33.66874
G1 X-15.160 Y-54.948 E33.69522 F900.000
G1 X-13.781 Y-54.652 E33.76893
G1 X-12.503 Y-53.648 E33.85384
G1 X11.056 Y-5.624 E36.64848
G1 X10.680 Y-5.439 F3600.000
G1 X41.922 Y58.290 E40.35659 F900.000
G1 X42.084 Y58.991 E40.39415
G1 X42.084 Y60.751 E40.48614
G1 X40.244 Y62.592 E40.62211
G1 X-13.479 Y62.592 E43.42888
G1 X-15.220 Y61.157 E43.54673
G1 X-36.662 Y-49.101 E49.41505
G1 X-36.707 Y-49.196 E49.42055
G1 X-37.555 Y-50.219 E49.48997
G1 X-37.555 Y-52.753 E49.62231
G1 X-35.714 Y-54.593 E49.75829
G1 X-15.683 Y-54.593 E50.80484
G1 X-15.388 Y-54.565 E50.82033
G1 X-13.964 Y-54.263 E50.89634 F900.000
G1 X-12.837 Y-53.377 E50.97126
G1 X10.653 Y-5.493 E53.75777
G1 X10.277 Y-5.309 F3600.000
G1 X41.525 Y58.432 E57.46650 F900.000
G1 X41.665 Y59.038 E57.49905
G1 X41.665 Y60.578 E57.57947
G1 X40.071 Y62.173 E57.69731
G1 X-13.329 Y62.173 E60.48717
G1 X-14.838 Y60.929 E60.58930
G1 X-36.272 Y-49.286 E66.45535
G1 X-36.316 Y-49.381 E66.46084
G1 X-37.136 Y-50.370 E66.52797
G1 X-37.136 Y-52.579 E66.64336
G1 X-35.541 Y-54.174 E66.76120
G1 X-15.702 Y-54.174 E67.79767
G1 X-15.315 Y-54.125 E67.81809 F900.000
G1 X-14.148 Y-53.875 E67.88042
G1 X-13.171 Y-53.107 E67.94535
G1 X10.251 Y-5.362 E70.72373
G1 X9.875 Y-5.178 F3600.000
G1 X41.127 Y58.573 E74.43309 F900.000
G1 X41.247 Y59.086 E74.46063
G1 X41.247 Y60.404 E74.52948
G1 X39.897 Y61.754 E74.62920
G1 X-13.179 Y61.754 E77.40213
G1 X-14.455 Y60.702 E77.48855
G1 X-35.881 Y-49.471 E83.35232
G1 X-35.926 Y-49.566 E83.35782
G1 X-36.717 Y-50.521 E83.42264
G1 X-36.717 Y-52.406 E83.52108
G1 X-35.367 Y-53.755 E83.62080
G1 X-15.722 Y-53.755 E84.64716
G1 X-15.506 Y-53.735 E84.65851
G1 X-14.332 Y-53.486 E84.72122 F900.000
G1 X-13.505 Y-52.837 E84.77616
G1 X9.848 Y-5.232 E87.54641
G1 X9.472 Y-5.047 F3600.000
G1 X40.730 Y58.714 E91.25639 F900.000
G1 X40.828 Y59.134 E91.27892
G1 X40.828 Y60.231 E91.33621
G1 X39.723 Y61.335 E91.41779
G1 X-13.028 Y61.335 E94.17380
G1 X-14.073 Y60.474 E94.24451
G1 X-35.490 Y-49.655 E100.10601
G1 X-35.535 Y-49.750 E100.11150
G1 X-36.298 Y-50.672 E100.17402
G1 X-36.298 Y-52.232 E100.25552
G1 X-35.194 Y-53.336 E100.33710
G1 X-15.742 Y-53.336 E101.35337
G1 X-15.217 Y-53.253 E101.38112 F900.000
G1 X-14.515 Y-53.098 E101.41868
G1 X-13.839 Y-52.566 E101.46363
G1 X9.446 Y-5.101 E104.22576
G1 X9.070 Y-4.917 F3600.000
G1 X40.333 Y58.855 E107.93636 F900.000
G1 X40.409 Y59.182 E107.95388
G1 X40.409 Y60.057 E107.99960
G1 X39.550 Y60.916 E108.06305
G1 X-12.878 Y60.916 E110.80214
G1 X-13.690 Y60.247 E110.85714
G1 X-35.099 Y-49.840 E116.71636
G1 X-35.144 Y-49.935 E116.72185
G1 X-35.879 Y-50.823 E116.78207
G1 X-35.879 Y-52.059 E116.84662
G1 X-35.020 Y-52.917 E116.91007
G1 X-15.762 Y-52.917 E117.91624
G1 X-15.624 Y-52.904 E117.92347
G1 X-14.699 Y-52.710 E117.97286 F900.000
G1 X-14.173 Y-52.296 E118.00783
G1 X9.043 Y-4.971 E120.76182
G1 X8.667 Y-4.786 F3600.000
G1 X39.936 Y58.997 E124.47304 F900.000
G1 X39.990 Y59.230 E124.48556
G1 X39.990 Y59.884 E124.51971
G1 X39.376 Y60.497 E124.56503
G1 X-12.727 Y60.497 E127.28720
G1 X-13.308 Y60.019 E127.32648
G1 X-34.743 Y-50.201 E133.19280
G1 X-34.925 Y-50.382 E133.20623
G1 X-34.979 Y-50.393 E133.20912
G1 X-35.460 Y-50.974 E133.24854
G1 X-35.460 Y-51.885 E133.29614
G1 X-34.847 Y-52.498 E133.34146
G1 X-15.781 Y-52.498 E134.33753
G1 X-14.882 Y-52.321 E134.38541 F900.000
G1 X-14.507 Y-52.026 E134.41038
G1 X8.641 Y-4.840 E137.15624
G1 E135.15624 F1800.000
G92 E0
G1 X39.203 Y60.078 F3600.000
G1 E2.00000 F1800.000
G1 X-12.577 Y60.078 E4.70525 F900.000
G1 X-12.925 Y59.791 E4.72882
G1 X-34.386 Y-50.560 E10.60210
G1 X-34.568 Y-50.741 E10.61554
G1 X-34.753 Y-50.776 E10.62537
G1 X-35.041 Y-51.125 E10.64902
G1 X-35.041 Y-51.712 E10.67967
G1 X-34.673 Y-52.080 E10.70687
G1 X-15.801 Y-52.080 E11.69284
G1 X-15.066 Y-51.933 E11.73201
G1 X-14.841 Y-51.755 E11.74699
G1 X39.539 Y59.138 E18.19971
G1 X39.571 Y59.278 E18.20722
G1 X39.571 Y59.710 E18.22980
G1 X39.245 Y60.036 E18.25386
G1 X39.029 Y59.659 F3600.000
G1 X-12.427 Y59.659 E20.94218 F900.000
G1 X-12.543 Y59.564 E20.95004
G1 X-34.029 Y-50.918 E26.83030
G1 X-34.211 Y-51.100 E26.84373
G1 X-34.526 Y-51.160 E26.86051
G1 X-34.623 Y-51.276 E26.86839
G1 X-34.623 Y-51.538 E26.88209
G1 X-34.500 Y-51.661 E26.89116
G1 X-15.821 Y-51.661 E27.86704
G1 X-15.250 Y-51.544 E27.89750
G1 X-15.174 Y-51.485 E27.90249
G1 X39.141 Y59.279 E34.34770
G1 X39.152 Y59.537 E34.36116
G1 X39.072 Y59.617 E34.36709
G1 X38.671 Y59.250 F3600.000
G1 X-12.187 Y59.250 E37.02414 F420.000
G1 X-33.676 Y-51.251 E42.90543
G1 X-15.850 Y-51.251 E43.83676
G1 X-15.479 Y-51.175 E43.85656
G1 X38.645 Y59.196 E50.27891
G1 X38.298 Y59.105 F3600.000
G1 X38.066 Y58.873 F3600.000
G1 X-11.876 Y58.873 E52.88811 F600.000
G1 X-33.219 Y-50.874 E58.72923
G1 X-15.886 Y-50.874 E59.63477
G1 X-15.737 Y-50.845 E59.64272
G1 X38.040 Y58.819 E66.02389
G1 X37.394 Y58.454 F3600.000
G1 X-11.530 Y58.454 E68.57996 F600.000
G1 X-32.710 Y-50.455 E74.37650
G1 X-16.012 Y-50.455 E75.24891
G1 X37.368 Y58.400 E81.58301
G1 X36.723 Y58.035 F3600.000
G1 X-11.185 Y58.035 E84.08595 F600.000
G1 X-32.202 Y-50.036 E89.83790
G1 X-16.273 Y-50.036 E90.67012
G1 X36.696 Y57.981 E96.95548
G1 X36.046 Y57.300 F3600.000
G1 X-22.407 Y-1.153 E101.27431 F900.000
G1 X-22.264 Y-0.417 E101.31347
G1 X35.905 Y57.751 E105.61126
G1 X35.312 Y57.751 E105.64223
G1 X-22.121 Y0.319 E109.88566
G1 X-21.977 Y1.054 E109.92482
G1 X34.719 Y57.751 E114.11390
G1 X34.127 Y57.751 E114.14486
G1 X-21.834 Y1.790 E118.27958
G1 X-21.691 Y2.526 E118.31874
G1 X33.534 Y57.751 E122.39909
G1 X32.941 Y57.751 E122.43005
G1 X-21.548 Y3.262 E126.45605
G1 X-21.405 Y3.997 E126.49521
G1 X32.349 Y57.751 E130.46684
G1 X31.756 Y57.751 E130.49781
G1 X-21.262 Y4.733 E134.41508
G1 X-21.119 Y5.469 E134.45424
G1 X31.164 Y57.751 E138.31716
G1 X30.571 Y57.751 E138.34812
G1 X-20.976 Y6.205 E142.15668
G1 X-20.833 Y6.940 E142.19583
G1 X29.978 Y57.751 E145.95003
G1 X29.386 Y57.751 E145.98099
G1 X-20.690 Y7.676 E149.68083
G1 X-20.547 Y8.412 E149.71999
G1 X28.793 Y57.751 E153.36546
G1 X28.200 Y57.751 E153.39642
G1 X-20.404 Y9.148 E156.98754
G1 X-20.260 Y9.883 E157.02670
G1 X27.608 Y57.751 E160.56345
G1 X27.015 Y57.751 E160.59441
G1 X-20.117 Y10.619 E164.07681
G1 X-19.974 Y11.355 E164.11597
G1 X26.422 Y57.751 E167.54400
G1 X25.830 Y57.751 E167.57496
G1 X-19.831 Y12.090 E170.94864
G1 X-19.688 Y12.826 E170.98780
G1 X25.237 Y57.751 E174.30711
G1 X24.644 Y57.751 E174.33807
G1 X-19.545 Y13.562 E177.60303
G1 X-19.402 Y14.298 E177.64219
G1 X24.052 Y57.751 E180.85278
G1 X23.459 Y57.751 E180.88374
G1 X-19.259 Y15.033 E184.03998
G1 X-19.116 Y15.769 E184.07914
G1 X22.866 Y57.751 E187.18101
G1 X22.274 Y57.751 E187.21197
G1 X-18.973 Y16.505 E190.25949
G1 X-18.830 Y17.241 E190.29864
G1 X21.681 Y57.751 E193.29180
G1 X21.088 Y57.751 E193.32276
G1 X-18.687 Y17.976 E196.26155
G1 X-18.544 Y18.712 E196.30071
G1 X20.496 Y57.751 E199.18515
G1 X19.903 Y57.751 E199.21611
G1 X-18.400 Y19.448 E202.04618
G1 X-18.257 Y20.184 E202.08534
G1 X19.310 Y57.751 E204.86105
G1 X18.718 Y57.751 E204.89202
G1 X-18.114 Y20.919 E207.61337
G1 X-17.971 Y21.655 E207.65253
G1 X18.125 Y57.751 E210.31952
G1 X17.532 Y57.751 E210.35048
G1 X-17.828 Y22.391 E212.96312
G1 X-17.685 Y23.126 E213.00227
G1 X16.940 Y57.751 E215.56055
G1 X16.347 Y57.751 E215.59151
G1 X-17.542 Y23.862 E218.09542
G1 X-17.399 Y24.598 E218.13458
G1 X15.755 Y57.751 E220.58413
G1 X15.162 Y57.751 E220.61510
G1 X-17.256 Y25.334 E223.01029
G1 X-17.113 Y26.069 E223.04945
G1 X14.569 Y57.751 E225.39028
G1 X13.977 Y57.751 E225.42124
G1 X-16.970 Y26.805 E227.70771
G1 X-16.827 Y27.541 E227.74687
G1 X13.384 Y57.751 E229.97898
G1 X12.791 Y57.751 E230.00995
G1 X-16.683 Y28.277 E232.18770
G1 X-16.540 Y29.012 E232.22686
G1 X12.199 Y57.751 E234.35025
G1 X11.606 Y57.751 E234.38121
G1 X-16.397 Y29.748 E236.45024
G1 X-16.254 Y30.484 E236.48940
G1 X11.013 Y57.751 E238.50407
G1 X10.421 Y57.751 E238.53503
G1 X-16.111 Y31.220 E240.49535
G1 X-15.968 Y31.955 E240.53450
G1 X9.828 Y57.751 E242.44045
G1 X9.235 Y57.751 E242.47142
G1 X-15.825 Y32.691 E244.32301
G1 X-15.682 Y33.427 E244.36217
G1 X8.643 Y57.751 E246.15940
G1 X8.050 Y57.751 E246.19036
G1 X-15.539 Y34.163 E247.93323
G1 X-15.396 Y34.898 E247.97239
G1 X7.457 Y57.751 E249.66090
G1 X6.865 Y57.751 E249.69186
G1 X-15.253 Y35.634 E251.32601
G1 X-15.110 Y36.370 E251.36517
G1 X6.272 Y57.751 E252.94496
G1 X5.679 Y57.751 E252.97592
G1 X-14.966 Y37.105 E254.50135
G1 X-14.823 Y37.841 E254.54051
G1 X5.087 Y57.751 E256.01158
G1 X4.494 Y57.751 E256.04255
G1 X-14.680 Y38.577 E257.45926
G1 X-14.537 Y39.313 E257.49841
G1 X3.901 Y57.751 E258.86076
G1 X3.309 Y57.751 E258.89173
G1 X-14.394 Y40.048 E260.19972
G1 X-14.251 Y40.784 E260.23887
G1 X2.716 Y57.751 E261.49250
G1 X2.123 Y57.751 E261.52347
G1 X-14.108 Y41.520 E262.72274
G1 X-13.965 Y42.256 E262.76190
G1 X1.531 Y57.751 E263.90680
G1 X0.938 Y57.751 E263.93777
G1 X-13.822 Y42.991 E265.02832
G1 X-13.679 Y43.727 E265.06747
G1 X0.346 Y57.751 E266.10366
G1 X-0.247 Y57.751 E266.13463
G1 X-13.536 Y44.463 E267.11646
G1 X-13.393 Y45.199 E267.15561
G1 X-0.840 Y57.751 E268.08308
G1 X-1.432 Y57.751 E268.11405
G1 X-13.249 Y45.934 E268.98715
G1 X-13.106 Y46.670 E269.02631
G1 X-2.025 Y57.751 E269.84506
G1 X-2.618 Y57.751 E269.87602
G1 X-12.963 Y47.406 E270.64041
G1 X-12.820 Y48.141 E270.67957
G1 X-3.210 Y57.751 E271.38960
G1 X-3.803 Y57.751 E271.42056
G1 X-12.677 Y48.877 E272.07623
G1 X-12.534 Y49.613 E272.11539
G1 X-4.396 Y57.751 E272.71670
G1 X-4.988 Y57.751 E272.74766
G1 X-12.391 Y50.349 E273.29461
G1 X-12.248 Y51.084 E273.33377
G1 X-5.581 Y57.751 E273.82635
G1 X-6.174 Y57.751 E273.85732
G1 X-12.105 Y51.820 E274.29554
G1 X-11.962 Y52.556 E274.33470
G1 X-6.766 Y57.751 E274.71857
G1 X-7.359 Y57.751 E274.74953
G1 X-11.819 Y53.292 E275.07904
G1 X-11.676 Y54.027 E275.11820
G1 X-7.952 Y57.751 E275.39334
G1 X-8.544 Y57.751 E275.42431
G1 X-11.533 Y54.763 E275.64509
G1 X-11.389 Y55.499 E275.68425
G1 X-9.137 Y57.751 E275.85068
G1 X-9.730 Y57.751 E275.88164
G1 X-11.246 Y56.235 E275.99371
G1 X-11.103 Y56.970 E276.03287
G1 X-10.322 Y57.751 E276.09058
G1 X-10.915 Y57.751 E276.12154
G1 X-10.960 Y57.706 E276.12488
G1 X26.924 Y38.696 F3600.000
G1 X-24.696 Y-12.925 E279.93886 F900.000
G1 X-24.553 Y-12.189 E279.97801
G1 X27.494 Y39.858 E283.82354
G1 X28.064 Y41.021 F3600.000
G1 X-24.410 Y-11.453 E287.70062 F900.000
G1 X-24.267 Y-10.717 E287.73978
G1 X28.634 Y42.184 E291.64841
G1 X29.205 Y43.347 F3600.000
G1 X-24.124 Y-9.982 E295.58859 F900.000
G1 X-23.981 Y-9.246 E295.62775
G1 X29.775 Y44.509 E299.59949
G1 X30.345 Y45.672 F3600.000
G1 X-23.838 Y-8.510 E303.60278 F900.000
G1 X-23.694 Y-7.774 E303.64194
G1 X30.915 Y46.835 E307.67679
G1 X31.485 Y47.998 F3600.000
G1 X-23.551 Y-7.039 E311.74319 F900.000
G1 X-23.408 Y-6.303 E311.78235
G1 X32.055 Y49.161 E315.88030
G1 X32.625 Y50.323 F3600.000
G1 X-23.265 Y-5.567 E320.00981 F900.000
G1 X-23.122 Y-4.831 E320.04897
G1 X33.196 Y51.486 E324.21003
G1 X33.766 Y52.649 F3600.000
G1 X-22.979 Y-4.096 E328.40264 F900.000
G1 X-22.836 Y-3.360 E328.44180
G1 X34.336 Y53.812 E332.66597
G1 X34.906 Y54.975 F3600.000
G1 X-22.693 Y-2.624 E336.92169 F900.000
G1 X-22.550 Y-1.889 E336.96085
G1 X35.476 Y56.137 E341.24812
G1 X26.354 Y37.533 F3600.000
G1 X-24.839 Y-13.660 E345.03054 F900.000
G1 X-24.982 Y-14.396 E345.06970
G1 X25.784 Y36.370 E348.82056
G1 X25.214 Y35.207 F3600.000
G1 X-25.125 Y-15.132 E352.53987 F900.000
G1 X-25.268 Y-15.867 E352.57903
G1 X24.643 Y34.044 E356.26679
G1 X24.073 Y32.882 F3600.000
G1 X-25.411 Y-16.603 E359.92299 F900.000
G1 X-25.554 Y-17.339 E359.96215
G1 X23.503 Y31.719 E363.58680
G1 X22.933 Y30.556 F3600.000
G1 X-25.698 Y-18.075 E367.17990 F900.000
G1 X-25.841 Y-18.810 E367.21906
G1 X22.363 Y29.393 E370.78060
G1 X21.793 Y28.230 F3600.000
G1 X-25.984 Y-19.546 E374.31059 F900.000
G1 X-26.127 Y-20.282 E374.34975
G1 X21.223 Y27.068 E377.84818
G1 X20.652 Y25.905 F3600.000
G1 X-26.270 Y-21.018 E381.31506 F900.000
G1 X-26.413 Y-21.753 E381.35422
G1 X20.082 Y24.742 E384.78955
G1 X19.512 Y23.579 F3600.000
G1 X-26.556 Y-22.489 E388.19333 F900.000
G1 X-26.699 Y-23.225 E388.23249
G1 X18.942 Y22.416 E391.60471
G1 X18.372 Y21.254 F3600.000
G1 X-26.842 Y-23.961 E394.94537 F900.000
G1 X-26.985 Y-24.696 E394.98453
G1 X17.802 Y20.091 E398.29365
G1 X17.232 Y18.928 F3600.000
G1 X-27.128 Y-25.432 E401.57121 F900.000
G1 X-27.271 Y-26.168 E401.61037
G1 X16.662 Y17.765 E404.85637
G1 X16.091 Y16.602 F3600.000
G1 X-27.415 Y-26.904 E408.07083 F900.000
G1 X-27.558 Y-27.639 E408.10999
G1 X15.521 Y15.440 E411.29289
G1 X14.951 Y14.277 F3600.000
G1 X-27.701 Y-28.375 E414.44423 F900.000
G1 X-27.844 Y-29.111 E414.48339
G1 X14.381 Y13.114 E417.60318
G1 X13.811 Y11.951 F3600.000
G1 X-27.987 Y-29.846 E420.69142 F900.000
G1 X-28.130 Y-30.582 E420.73058
G1 X13.241 Y10.788 E423.78727
G1 X12.671 Y9.626 F3600.000
G1 X-28.273 Y-31.318 E426.81240 F900.000
G1 X-28.416 Y-32.054 E426.85156
G1 X12.100 Y8.463 E429.84514
G1 X11.530 Y7.300 F3600.000
G1 X-28.559 Y-32.789 E432.80716 F900.000
G1 X-28.702 Y-33.525 E432.84632
G1 X10.960 Y6.137 E435.77679
G1 X10.390 Y4.974 F3600.000
G1 X-28.845 Y-34.261 E438.67571 F900.000
G1 X-28.988 Y-34.997 E438.71487
G1 X9.820 Y3.812 E441.58223
G1 X9.250 Y2.649 F3600.000
G1 X-29.132 Y-35.732 E444.41804 F900.000
G1 X-29.275 Y-36.468 E444.45720
G1 X8.680 Y1.486 E447.26146
G1 X8.109 Y0.323 F3600.000
G1 X-29.418 Y-37.204 E450.03416 F900.000
G1 X-29.561 Y-37.940 E450.07332
